%
(BELT CAPV2)
(T1  D=0.25 CR=0. - ZMIN=-0.9643 - FLAT END MILL)
N10 G90 G54 G64 G50 G17 G40 G80 G94 G91.1 G49
N20 G20
N30 G28 G91 Z0.
N40 G90

(ADAPTIVE1)
N50 M9
N60 M998
N70 T1 G43 H1 M6
N80 S5140 M3
N90 G4 P2.
N100 G54
N110 G0 X-1.188 Y-0.7174
N120 M8
N130 G4 P2.
N140 G0 Z0.6
N150 G0 Z0.2
N160 G0 Z-0.1
N170 G1 Z-0.125 F20.
N180 G1 X-1.1879 Y-0.7171 Z-0.1289
N190 G1 X-1.1877 Y-0.7162 Z-0.1327
N200 G1 X-1.1873 Y-0.7148 Z-0.1363
N210 G1 X-1.1868 Y-0.7128 Z-0.1397
N220 G1 X-1.1862 Y-0.7103 Z-0.1427
N230 G1 X-1.1854 Y-0.7074 Z-0.1452
N240 G1 X-1.1846 Y-0.7042 Z-0.1473
N250 G1 X-1.1837 Y-0.7007 Z-0.1488
N260 G1 X-1.1827 Y-0.697 Z-0.1497
N270 G1 X-1.1818 Y-0.6932 Z-0.15
N280 G3 X-1.1622 Y-0.5571 R0.6382
N290 G1 Y-0.5478
N300 G1 X-1.1563 Y-0.5113
N310 G1 X-1.1515 Y-0.4981
N320 G1 X-1.1485 Y-0.487
N330 G1 X-1.1451 Y-0.4682
N340 G1 X-1.1427 Y-0.4437
N350 G1 X-1.1421 Y-0.411
N360 G1 X-1.1444 Y-0.3741
N370 G1 X-1.149 Y-0.3374
N380 G1 X-1.1704 Y-0.1909
N390 G1 X-1.1746 Y-0.1542
N400 G1 X-1.1778 Y-0.1173
N410 G1 X-1.1804 Y-0.0804
N420 G1 X-1.1822 Y-0.0434
N430 G1 X-1.1825 Y-0.0064
N440 G1 X-1.1818 Y0.0306
N450 G1 X-1.1803 Y0.0676
N460 G1 X-1.1776 Y0.1045
N470 G1 X-1.1734 Y0.1412
N480 G1 X-1.1683 Y0.1779
N490 G1 X-1.1624 Y0.2144
N500 G1 X-1.1551 Y0.2507
N510 G1 X-1.1465 Y0.2867
N520 G1 X-1.1371 Y0.3225
N530 G1 X-1.1264 Y0.3579
N540 G1 X-1.1144 Y0.3929
N550 G1 X-1.1014 Y0.4275
N560 G1 X-1.0877 Y0.4619
N570 G1 X-1.0729 Y0.4958
N580 G1 X-1.0567 Y0.5291
N590 G1 X-1.0395 Y0.5618
N600 G1 X-1.0217 Y0.5943
N610 G1 X-1.0026 Y0.626
N620 G1 X-0.9823 Y0.6569
N630 G1 X-0.9612 Y0.6873
N640 G1 X-0.9395 Y0.7173
N650 G1 X-0.9165 Y0.7463
N660 G1 X-0.8926 Y0.7745
N670 G1 X-0.8679 Y0.8021
N680 G1 X-0.8426 Y0.829
N690 G1 X-0.8161 Y0.8549
N700 G1 X-0.7888 Y0.8799
N710 G1 X-0.761 Y0.9043
N720 G1 X-0.7324 Y0.9277
N730 G1 X-0.7029 Y0.9501
N740 G1 X-0.6728 Y0.9717
N750 G1 X-0.6423 Y0.9926
N760 G1 X-0.6324 Y0.9987
N770 G1 X-0.6248 Y1.0043
N780 G1 X-0.6182 Y1.0111
N790 G1 X-0.6128 Y1.0188
N800 G1 X-0.6097 Y1.024
N810 G1 X-0.6013 Y1.0353
N820 G1 X-0.5918 Y1.046
N830 G1 X-0.5825 Y1.0544
N840 G1 X-0.5716 Y1.0628
N850 G1 X-0.5581 Y1.0712
N860 G1 X-0.534 Y1.0825
N870 G1 X-0.4332 Y1.1271
N880 G1 X-0.408 Y1.1365
N890 G1 X-0.2987 Y1.1697
N900 G1 X-0.2735 Y1.1762
N910 G1 X-0.1979 Y1.1897
N920 G1 X-0.1475 Y1.1984
N930 G1 X-0.1307 Y1.2007
N940 G1 X0.0038 Y1.2079
N950 G1 X0.0374 Y1.2063
N960 G1 X0.1382 Y1.1994
N970 G1 X0.1634 Y1.1964
N980 G1 X0.1886 Y1.1919
N990 G1 X0.2811 Y1.174
N1000 G1 X0.3063 Y1.1683
N1010 G1 X0.4323 Y1.1276
N1020 G1 X0.4407 Y1.1247
N1030 G1 X0.5584 Y1.0705
N1040 G1 X0.5752 Y1.062
N1050 G1 X0.592 Y1.052
N1060 G1 X0.6928 Y0.9894
N1070 G1 X0.718 Y0.9702
N1080 G1 X0.802 Y0.9026
N1090 G1 X0.8114 Y0.8948
N1100 G1 X0.8447 Y0.8612
N1110 G1 X0.9029 Y0.8016
N1120 G1 X0.9113 Y0.7923
N1130 G1 X0.9304 Y0.7688
N1140 G1 X0.9953 Y0.6834
N1150 G1 X1.0121 Y0.6583
N1160 G1 X1.0752 Y0.5504
N1170 G1 X1.0905 Y0.5168
N1180 G1 X1.1339 Y0.416
N1190 G1 X1.1382 Y0.4035
N1200 G1 X1.1743 Y0.2816
N1210 G1 X1.1766 Y0.2732
N1220 G1 X1.1827 Y0.2396
N1230 G1 X1.1996 Y0.1388
N1240 G1 X1.202 Y0.1136
N1250 G1 X1.2073 Y-0.004
N1260 G1 X1.2074 Y-0.0292
N1270 G1 X1.1968 Y-0.1637
N1280 G1 X1.1886 Y-0.207
N1290 G1 X1.1702 Y-0.2981
N1300 G1 X1.1657 Y-0.3149
N1310 G1 X1.1579 Y-0.3401
N1320 G1 X1.1243 Y-0.4409
N1330 G1 X1.1129 Y-0.4677
N1340 G1 X1.062 Y-0.5753
N1350 G1 X1.0419 Y-0.6089
N1360 G1 X0.9869 Y-0.6955
N1370 G1 X0.9771 Y-0.7097
N1380 G1 X0.9638 Y-0.7265
N1390 G1 X0.8945 Y-0.8113
N1400 G1 X0.8861 Y-0.8208
N1410 G1 X0.871 Y-0.8357
N1420 G1 X0.783 Y-0.9197
N1430 G1 X0.7684 Y-0.9313
N1440 G1 X0.676 Y-1.0002
N1450 G1 X0.6591 Y-1.0121
N1460 G1 X0.5499 Y-1.0748
N1470 G1 X0.5243 Y-1.0877
N1480 G1 X0.4155 Y-1.1337
N1490 G1 X0.3903 Y-1.1426
N1500 G1 X0.2727 Y-1.1763
N1510 G1 X0.2558 Y-1.1805
N1520 G1 X0.1298 Y-1.2003
N1530 G1 X0.113 Y-1.2026
N1540 G1 X-0.0215 Y-1.2075
N1550 G1 X-0.0551 Y-1.2058
N1560 G1 X-0.1643 Y-1.1962
N1570 G1 X-0.1895 Y-1.1926
N1580 G1 X-0.3071 Y-1.1676
N1590 G1 X-0.325 Y-1.1634
N1600 G1 X-0.4416 Y-1.1235
N1610 G1 X-0.4584 Y-1.1174
N1620 G1 X-0.4752 Y-1.1098
N1630 G1 X-0.576 Y-1.0609
N1640 G1 X-0.6013 Y-1.0473
N1650 G1 X-0.7105 Y-0.9767
N1660 G1 X-0.7357 Y-0.9567
N1670 G1 X-0.8205 Y-0.8861
N1680 G1 X-0.8298 Y-0.8777
N1690 G1 X-0.9206 Y-0.7814
N1700 G1 X-0.929 Y-0.7721
N1710 G1 X-0.9376 Y-0.7601
N1720 G1 X-0.9458 Y-0.7461
N1730 G1 X-0.9471 Y-0.7433
N1740 G1 X-0.9637 Y-0.7102
N1750 G1 X-0.999 Y-0.6452
N1760 G1 X-1.0149 Y-0.6118
N1770 G1 X-1.0242 Y-0.576
N1780 G1 X-1.0298 Y-0.5394
N1790 G1 X-1.0335 Y-0.5026
N1800 G1 X-1.0398 Y-0.4288
N1810 G1 X-1.0436 Y-0.392
N1820 G1 X-1.0525 Y-0.3186
N1830 G1 X-1.0621 Y-0.2452
N1840 G1 X-1.0665 Y-0.2085
N1850 G1 X-1.0705 Y-0.1717
N1860 G1 X-1.0739 Y-0.1348
N1870 G1 X-1.0765 Y-0.0979
N1880 G1 X-1.0781 Y-0.0609
N1890 G1 X-1.0788 Y-0.0239
N1900 G1 X-1.0784 Y0.0131
N1910 G1 X-1.0768 Y0.05
N1920 G1 X-1.0741 Y0.0869
N1930 G1 X-1.0702 Y0.1237
N1940 G1 X-1.0652 Y0.1604
N1950 G1 X-1.0589 Y0.1969
N1960 G1 X-1.0515 Y0.2331
N1970 G1 X-1.0427 Y0.2691
N1980 G1 X-1.0327 Y0.3047
N1990 G1 X-1.0216 Y0.34
N2000 G1 X-1.0094 Y0.3749
N2010 G1 X-0.9959 Y0.4093
N2020 G1 X-0.9812 Y0.4433
N2030 G1 X-0.9654 Y0.4768
N2040 G1 X-0.9484 Y0.5097
N2050 G1 X-0.9303 Y0.5419
N2060 G1 X-0.9112 Y0.5736
N2070 G1 X-0.891 Y0.6046
N2080 G1 X-0.8697 Y0.6349
N2090 G1 X-0.8474 Y0.6644
N2100 G1 X-0.8241 Y0.6931
N2110 G1 X-0.7998 Y0.721
N2120 G1 X-0.7745 Y0.748
N2130 G1 X-0.7483 Y0.7742
N2140 G1 X-0.7213 Y0.7995
N2150 G1 X-0.6934 Y0.8238
N2160 G1 X-0.6647 Y0.8472
N2170 G1 X-0.6518 Y0.8572
N2180 G1 X-0.6425 Y0.8662
N2190 G1 X-0.6354 Y0.877
N2200 G1 X-0.6309 Y0.889
N2210 G1 X-0.6292 Y0.9018
N2220 G1 X-0.6303 Y0.9147
N2230 G1 X-0.6329 Y0.9284
N2240 G1 X-0.6333 Y0.951
N2250 G1 X-0.6331 Y0.955
N2260 G1 X-0.6307 Y0.9718
N2270 G1 X-0.6288 Y0.9802
N2280 G1 X-0.6239 Y0.9956
N2290 G1 X-0.6192 Y1.007
N2300 G1 X-0.6154 Y1.0144
N2310 G1 X-0.6128 Y1.0188
N2320 G3 X-0.6099 Y1.0281 R0.025
N2330 G1 X-0.6095 Y1.032 Z-0.1497
N2340 G1 X-0.6091 Y1.0358 Z-0.1488
N2350 G1 X-0.6088 Y1.0394 Z-0.1473
N2360 G1 X-0.6084 Y1.0427 Z-0.1452
N2370 G1 X-0.6081 Y1.0457 Z-0.1427
N2380 G1 X-0.6078 Y1.0482 Z-0.1397
N2390 G1 X-0.6076 Y1.0502 Z-0.1363
N2400 G1 X-0.6075 Y1.0517 Z-0.1327
N2410 G1 X-0.6074 Y1.0526 Z-0.1289
N2420 G1 X-0.6073 Y1.053 Z-0.125
N2430 G0 Z0.2
N2440 G0 X-0.9707 Y-0.7667
N2450 G0 Z-0.1
N2460 G1 Z-0.125 F20.
N2470 G1 X-0.9705 Y-0.7665 Z-0.1289
N2480 G1 X-0.9697 Y-0.766 Z-0.1327
N2490 G1 X-0.9685 Y-0.7651 Z-0.1363
N2500 G1 X-0.9668 Y-0.764 Z-0.1397
N2510 G1 X-0.9647 Y-0.7626 Z-0.1427
N2520 G1 X-0.9622 Y-0.7609 Z-0.1452
N2530 G1 X-0.9594 Y-0.759 Z-0.1473
N2540 G1 X-0.9564 Y-0.757 Z-0.1488
N2550 G1 X-0.9532 Y-0.7549 Z-0.1497
N2560 G1 X-0.95 Y-0.7527 Z-0.15
N2570 G3 X-0.9471 Y-0.7433 R0.0078
N2580 G1 X-0.9508 Y-0.7349
N2590 G1 X-0.9542 Y-0.7256
N2600 G1 X-0.9562 Y-0.7181
N2610 G1 X-0.9596 Y-0.7013
N2620 G1 X-0.9605 Y-0.6929
N2630 G1 X-0.9611 Y-0.6761
N2640 G1 X-0.9604 Y-0.6677
N2650 G1 X-0.9581 Y-0.6509
N2660 G1 X-0.9558 Y-0.6425
N2670 G1 X-0.9516 Y-0.6254
N2680 G1 X-0.9457 Y-0.5892
N2690 G1 X-0.9427 Y-0.5523
N2700 G1 X-0.9416 Y-0.5153
N2710 G1 X-0.942 Y-0.4783
N2720 G1 X-0.9435 Y-0.4413
N2730 G1 X-0.946 Y-0.4044
N2740 G1 X-0.9491 Y-0.3675
N2750 G1 X-0.9567 Y-0.2939
N2760 G1 X-0.9645 Y-0.2203
N2770 G1 X-0.968 Y-0.1835
N2780 G1 X-0.971 Y-0.1466
N2790 G1 X-0.9733 Y-0.1097
N2800 G1 X-0.9748 Y-0.0727
N2810 G1 X-0.9753 Y-0.0357
N2820 G1 X-0.9747 Y0.0013
N2830 G1 X-0.9731 Y0.0383
N2840 G1 X-0.9702 Y0.0752
N2850 G1 X-0.9661 Y0.1119
N2860 G1 X-0.9608 Y0.1486
N2870 G1 X-0.9541 Y0.185
N2880 G1 X-0.9462 Y0.2211
N2890 G1 X-0.937 Y0.2569
N2900 G1 X-0.9264 Y0.2924
N2910 G1 X-0.9145 Y0.3274
N2920 G1 X-0.9012 Y0.362
N2930 G1 X-0.8867 Y0.396
N2940 G1 X-0.871 Y0.4295
N2950 G1 X-0.854 Y0.4624
N2960 G1 X-0.8358 Y0.4946
N2970 G1 X-0.8163 Y0.5261
N2980 G1 X-0.7957 Y0.5568
N2990 G1 X-0.7739 Y0.5867
N3000 G1 X-0.751 Y0.6157
N3010 G1 X-0.727 Y0.6439
N3020 G1 X-0.7019 Y0.6711
N3030 G1 X-0.6759 Y0.6974
N3040 G1 X-0.6489 Y0.7227
N3050 G1 X-0.6223 Y0.7484
N3060 G1 X-0.6057 Y0.7673
N3070 G1 X-0.5975 Y0.7781
N3080 G1 X-0.5909 Y0.7894
N3090 G1 X-0.5869 Y0.8019
N3100 G1 X-0.5859 Y0.815
N3110 G1 X-0.5878 Y0.828
N3120 G1 X-0.5925 Y0.8402
N3130 G1 X-0.5999 Y0.8511
N3140 G3 X-0.6077 Y0.8568 R0.025
N3150 G1 X-0.6113 Y0.8585 Z-0.1497
N3160 G1 X-0.6147 Y0.8601 Z-0.1488
N3170 G1 X-0.618 Y0.8616 Z-0.1473
N3180 G1 X-0.6211 Y0.863 Z-0.1452
N3190 G1 X-0.6238 Y0.8643 Z-0.1427
N3200 G1 X-0.6261 Y0.8653 Z-0.1397
N3210 G1 X-0.6279 Y0.8662 Z-0.1363
N3220 G1 X-0.6293 Y0.8668 Z-0.1327
N3230 G1 X-0.6301 Y0.8672 Z-0.1289
N3240 G1 X-0.6304 Y0.8674 Z-0.125
N3250 G0 Z0.2
N3260 G0 X-0.989 Y-0.6449
N3270 G0 Z-0.1
N3280 G1 Z-0.125 F20.
N3290 G1 X-0.9886 Z-0.1289
N3300 G1 X-0.9877 Y-0.645 Z-0.1327
N3310 G1 X-0.9862 Y-0.6452 Z-0.1363
N3320 G1 X-0.9842 Y-0.6454 Z-0.1397
N3330 G1 X-0.9817 Y-0.6457 Z-0.1427
N3340 G1 X-0.9787 Y-0.6461 Z-0.1452
N3350 G1 X-0.9754 Y-0.6465 Z-0.1473
N3360 G1 X-0.9718 Y-0.6469 Z-0.1488
N3370 G1 X-0.968 Y-0.6473 Z-0.1497
N3380 G1 X-0.9641 Y-0.6478 Z-0.15
N3390 G3 X-0.9558 Y-0.6425 R0.0078
N3400 G1 X-0.9505 Y-0.6257
N3410 G1 X-0.9458 Y-0.6154
N3420 G1 X-0.937 Y-0.6005
N3430 G1 X-0.929 Y-0.5895
N3440 G1 X-0.9206 Y-0.58
N3450 G1 X-0.9178 Y-0.5774
N3460 G1 X-0.9137 Y-0.5731
N3470 G1 X-0.9072 Y-0.5651
N3480 G1 X-0.9005 Y-0.5555
N3490 G1 X-0.8935 Y-0.5434
N3500 G1 X-0.8864 Y-0.5284
N3510 G1 X-0.8792 Y-0.5096
N3520 G1 X-0.8725 Y-0.4863
N3530 G1 X-0.8662 Y-0.4559
N3540 G1 X-0.8617 Y-0.4192
N3550 G1 X-0.8598 Y-0.3822
N3560 G1 Y-0.3452
N3570 G1 X-0.8609 Y-0.3082
N3580 G1 X-0.8652 Y-0.2343
N3590 G1 X-0.8697 Y-0.1605
N3600 G1 X-0.8714 Y-0.1235
N3610 G1 X-0.8724 Y-0.0865
N3620 G1 X-0.8725 Y-0.0495
N3630 G1 X-0.8717 Y-0.0125
N3640 G1 X-0.8698 Y0.0244
N3650 G1 X-0.8666 Y0.0613
N3660 G1 X-0.8622 Y0.098
N3670 G1 X-0.8565 Y0.1346
N3680 G1 X-0.8494 Y0.1709
N3690 G1 X-0.841 Y0.2069
N3700 G1 X-0.831 Y0.2426
N3710 G1 X-0.8197 Y0.2778
N3720 G1 X-0.8068 Y0.3125
N3730 G1 X-0.7926 Y0.3467
N3740 G1 X-0.777 Y0.3802
N3750 G1 X-0.7599 Y0.413
N3760 G1 X-0.7416 Y0.4452
N3770 G1 X-0.7218 Y0.4765
N3780 G1 X-0.7008 Y0.5069
N3790 G1 X-0.6784 Y0.5364
N3800 G1 X-0.6549 Y0.5649
N3810 G1 X-0.6303 Y0.5926
N3820 G1 X-0.6052 Y0.6197
N3830 G1 X-0.5803 Y0.6472
N3840 G1 X-0.5603 Y0.6716
N3850 G1 X-0.5464 Y0.6915
N3860 G1 X-0.5366 Y0.7083
N3870 G1 X-0.529 Y0.7241
N3880 G1 X-0.5232 Y0.7391
N3890 G1 X-0.5224 Y0.742
N3900 G1 X-0.5202 Y0.7539
N3910 G1 X-0.5205 Y0.766
N3920 G1 X-0.5233 Y0.7778
N3930 G1 X-0.5285 Y0.7888
N3940 G1 X-0.5358 Y0.7984
N3950 G1 X-0.545 Y0.8064
N3960 G1 X-0.5751 Y0.8276
N3970 G3 X-0.5841 Y0.8315 R0.025
N3980 G1 X-0.5879 Y0.8323 Z-0.1497
N3990 G1 X-0.5916 Y0.8331 Z-0.1488
N4000 G1 X-0.5952 Y0.8338 Z-0.1473
N4010 G1 X-0.5985 Y0.8345 Z-0.1452
N4020 G1 X-0.6014 Y0.8351 Z-0.1427
N4030 G1 X-0.6039 Y0.8357 Z-0.1397
N4040 G1 X-0.6059 Y0.8361 Z-0.1363
N4050 G1 X-0.6073 Y0.8364 Z-0.1327
N4060 G1 X-0.6082 Y0.8366 Z-0.1289
N4070 G1 X-0.6085 Y0.8367 Z-0.125
N4080 G0 Z0.2
N4090 G0 X-0.9477 Y-0.5629
N4100 G0 Z-0.1
N4110 G1 Z-0.125 F20.
N4120 G1 X-0.9475 Y-0.5631 Z-0.1289
N4130 G1 X-0.9467 Y-0.5637 Z-0.1327
N4140 G1 X-0.9455 Y-0.5646 Z-0.1363
N4150 G1 X-0.9439 Y-0.5658 Z-0.1397
N4160 G1 X-0.9418 Y-0.5673 Z-0.1427
N4170 G1 X-0.9394 Y-0.5691 Z-0.1452
N4180 G1 X-0.9367 Y-0.5711 Z-0.1473
N4190 G1 X-0.9338 Y-0.5732 Z-0.1488
N4200 G1 X-0.9308 Y-0.5755 Z-0.1497
N4210 G1 X-0.9276 Y-0.5778 Z-0.15
N4220 G3 X-0.9178 Y-0.5774 R0.0078
N4230 G1 X-0.9038 Y-0.5651
N4240 G1 X-0.887 Y-0.5541
N4250 G1 X-0.8785 Y-0.5498
N4260 G1 X-0.8701 Y-0.5462
N4270 G1 X-0.8652 Y-0.544
N4280 G1 X-0.8586 Y-0.5399
N4290 G1 X-0.8514 Y-0.5346
N4300 G1 X-0.8443 Y-0.5285
N4310 G1 X-0.8363 Y-0.5204
N4320 G1 X-0.828 Y-0.5104
N4330 G1 X-0.8199 Y-0.4989
N4340 G1 X-0.8111 Y-0.4842
N4350 G1 X-0.8029 Y-0.4674
N4360 G1 X-0.7945 Y-0.4459
N4370 G1 X-0.7864 Y-0.4194
N4380 G1 X-0.779 Y-0.3853
N4390 G1 X-0.7741 Y-0.3487
N4400 G1 X-0.7714 Y-0.3118
N4410 G1 X-0.7703 Y-0.2748
N4420 G1 X-0.7702 Y-0.2378
N4430 G1 X-0.7715 Y-0.1268
N4440 G1 X-0.7714 Y-0.0898
N4450 G1 X-0.7705 Y-0.0528
N4460 G1 X-0.7688 Y-0.0158
N4470 G1 X-0.7661 Y0.0211
N4480 G1 X-0.7621 Y0.0579
N4490 G1 X-0.7568 Y0.0945
N4500 G1 X-0.7501 Y0.1309
N4510 G1 X-0.7419 Y0.167
N4520 G1 X-0.7322 Y0.2027
N4530 G1 X-0.7209 Y0.2379
N4540 G1 X-0.708 Y0.2726
N4550 G1 X-0.6936 Y0.3067
N4560 G1 X-0.6777 Y0.3401
N4570 G1 X-0.6601 Y0.3727
N4580 G1 X-0.641 Y0.4044
N4590 G1 X-0.6205 Y0.4351
N4600 G1 X-0.5986 Y0.465
N4610 G1 X-0.5758 Y0.4941
N4620 G1 X-0.5292 Y0.5516
N4630 G1 X-0.5068 Y0.5811
N4640 G1 X-0.486 Y0.6117
N4650 G1 X-0.4717 Y0.6362
N4660 G1 X-0.4624 Y0.6559
N4670 G1 X-0.4553 Y0.6745
N4680 G1 X-0.4506 Y0.6904
N4690 G1 X-0.4493 Y0.6966
N4700 G1 X-0.4481 Y0.7079
N4710 G1 X-0.4491 Y0.7192
N4720 G1 X-0.4523 Y0.7301
N4730 G1 X-0.4575 Y0.7401
N4740 G1 X-0.4645 Y0.749
N4750 G1 X-0.4731 Y0.7563
N4760 G1 X-0.545 Y0.8064
N4770 G3 X-0.5541 Y0.8099 R0.025
N4780 G1 X-0.5579 Y0.8106 Z-0.1497
N4790 G1 X-0.5617 Y0.8113 Z-0.1488
N4800 G1 X-0.5653 Y0.812 Z-0.1473
N4810 G1 X-0.5685 Y0.8126 Z-0.1452
N4820 G1 X-0.5715 Y0.8131 Z-0.1427
N4830 G1 X-0.574 Y0.8136 Z-0.1397
N4840 G1 X-0.576 Y0.8139 Z-0.1363
N4850 G1 X-0.5775 Y0.8142 Z-0.1327
N4860 G1 X-0.5784 Y0.8144 Z-0.1289
N4870 G1 X-0.5787 Z-0.125
N4880 G0 Z0.2
N4890 G0 X-0.8917 Y-0.5209
N4900 G0 Z-0.1
N4910 G1 Z-0.125 F20.
N4920 G1 X-0.8916 Y-0.5212 Z-0.1289
N4930 G1 X-0.8911 Y-0.522 Z-0.1327
N4940 G1 X-0.8904 Y-0.5233 Z-0.1363
N4950 G1 X-0.8893 Y-0.5251 Z-0.1397
N4960 G1 X-0.8881 Y-0.5273 Z-0.1427
N4970 G1 X-0.8866 Y-0.5299 Z-0.1452
N4980 G1 X-0.8849 Y-0.5328 Z-0.1473
N4990 G1 X-0.8831 Y-0.5359 Z-0.1488
N5000 G1 X-0.8812 Y-0.5392 Z-0.1497
N5010 G1 X-0.8793 Y-0.5426 Z-0.15
N5020 G3 X-0.8701 Y-0.5462 R0.0078
N5030 G1 X-0.8573 Y-0.5417
N5040 G1 X-0.8203 Y-0.5333
N5050 G1 X-0.8104 Y-0.5307
N5060 G1 X-0.8038 Y-0.5283
N5070 G1 X-0.7962 Y-0.5249
N5080 G1 X-0.7885 Y-0.5207
N5090 G1 X-0.7799 Y-0.5151
N5100 G1 X-0.7709 Y-0.5081
N5110 G1 X-0.7618 Y-0.4996
N5120 G1 X-0.7516 Y-0.4886
N5130 G1 X-0.742 Y-0.4765
N5140 G1 X-0.7316 Y-0.461
N5150 G1 X-0.7217 Y-0.4431
N5160 G1 X-0.7115 Y-0.4207
N5170 G1 X-0.7018 Y-0.3938
N5180 G1 X-0.6924 Y-0.3593
N5190 G1 X-0.6856 Y-0.3229
N5200 G1 X-0.681 Y-0.2862
N5210 G1 X-0.678 Y-0.2493
N5220 G1 X-0.676 Y-0.2124
N5230 G1 X-0.6719 Y-0.1014
N5240 G1 X-0.6699 Y-0.0645
N5250 G1 X-0.6673 Y-0.0276
N5260 G1 X-0.6636 Y0.0092
N5270 G1 X-0.6587 Y0.0459
N5280 G1 X-0.6525 Y0.0824
N5290 G1 X-0.6449 Y0.1186
N5300 G1 X-0.6356 Y0.1544
N5310 G1 X-0.6246 Y0.1898
N5320 G1 X-0.612 Y0.2246
N5330 G1 X-0.5976 Y0.2586
N5340 G1 X-0.5815 Y0.2919
N5350 G1 X-0.5636 Y0.3244
N5360 G1 X-0.5443 Y0.3559
N5370 G1 X-0.5238 Y0.3867
N5380 G1 X-0.5024 Y0.4169
N5390 G1 X-0.4592 Y0.477
N5400 G1 X-0.4382 Y0.5075
N5410 G1 X-0.4185 Y0.5388
N5420 G1 X-0.4005 Y0.5711
N5430 G1 X-0.3886 Y0.5971
N5440 G1 X-0.3811 Y0.6176
N5450 G1 X-0.376 Y0.6363
N5460 G1 X-0.3742 Y0.6454
N5470 G1 X-0.3732 Y0.6565
N5480 G1 X-0.3743 Y0.6676
N5490 G1 X-0.3775 Y0.6783
N5500 G1 X-0.3827 Y0.6882
N5510 G1 X-0.3897 Y0.6969
N5520 G1 X-0.3982 Y0.7042
N5530 G1 X-0.4731 Y0.7563
N5540 G3 X-0.4822 Y0.7599 R0.025
N5550 G1 X-0.4861 Y0.7606 Z-0.1497
N5560 G1 X-0.4898 Y0.7613 Z-0.1488
N5570 G1 X-0.4934 Y0.7619 Z-0.1473
N5580 G1 X-0.4967 Y0.7625 Z-0.1452
N5590 G1 X-0.4996 Y0.7631 Z-0.1427
N5600 G1 X-0.5021 Y0.7635 Z-0.1397
N5610 G1 X-0.5041 Y0.7639 Z-0.1363
N5620 G1 X-0.5056 Y0.7642 Z-0.1327
N5630 G1 X-0.5065 Y0.7643 Z-0.1289
N5640 G1 X-0.5068 Y0.7644 Z-0.125
N5650 G0 Z0.2
N5660 G0 X-0.8383 Y-0.5054
N5670 G0 Z-0.1
N5680 G1 Z-0.125 F20.
N5690 G1 X-0.8382 Y-0.5057 Z-0.1289
N5700 G1 X-0.8379 Y-0.5065 Z-0.1327
N5710 G1 X-0.8373 Y-0.5079 Z-0.1363
N5720 G1 X-0.8365 Y-0.5098 Z-0.1397
N5730 G1 X-0.8356 Y-0.5122 Z-0.1427
N5740 G1 X-0.8344 Y-0.5149 Z-0.1452
N5750 G1 X-0.8332 Y-0.518 Z-0.1473
N5760 G1 X-0.8318 Y-0.5214 Z-0.1488
N5770 G1 X-0.8304 Y-0.5249 Z-0.1497
N5780 G1 X-0.8289 Y-0.5286 Z-0.15
N5790 G3 X-0.8203 Y-0.5333 R0.0078
N5800 G1 X-0.7441 Y-0.517
N5810 G1 X-0.7325 Y-0.514
N5820 G1 X-0.725 Y-0.5113
N5830 G1 X-0.7163 Y-0.5074
N5840 G1 X-0.7075 Y-0.5026
N5850 G1 X-0.6978 Y-0.4962
N5860 G1 X-0.6876 Y-0.4883
N5870 G1 X-0.6772 Y-0.4787
N5880 G1 X-0.6657 Y-0.4663
N5890 G1 X-0.6549 Y-0.4526
N5900 G1 X-0.6431 Y-0.4349
N5910 G1 X-0.6319 Y-0.4147
N5920 G1 X-0.6204 Y-0.3894
N5930 G1 X-0.6089 Y-0.3578
N5940 G1 X-0.5992 Y-0.3221
N5950 G1 X-0.592 Y-0.2858
N5960 G1 X-0.5865 Y-0.2492
N5970 G1 X-0.5824 Y-0.2124
N5980 G1 X-0.5759 Y-0.1387
N5990 G1 X-0.5693 Y-0.065
N6000 G1 X-0.5651 Y-0.0282
N6010 G1 X-0.56 Y0.0084
N6020 G1 X-0.5535 Y0.0449
N6030 G1 X-0.5456 Y0.081
N6040 G1 X-0.536 Y0.1167
N6050 G1 X-0.5246 Y0.152
N6060 G1 X-0.5115 Y0.1865
N6070 G1 X-0.4965 Y0.2204
N6080 G1 X-0.4798 Y0.2534
N6090 G1 X-0.4617 Y0.2857
N6100 G1 X-0.4425 Y0.3173
N6110 G1 X-0.3823 Y0.4105
N6120 G1 X-0.3627 Y0.4419
N6130 G1 X-0.3441 Y0.4739
N6140 G1 X-0.3269 Y0.5067
N6150 G1 X-0.3132 Y0.5375
N6160 G1 X-0.3048 Y0.5611
N6170 G1 X-0.2994 Y0.5816
N6180 G1 X-0.2974 Y0.5925
N6190 G1 X-0.2965 Y0.6035
N6200 G1 X-0.2977 Y0.6146
N6210 G1 X-0.3009 Y0.6252
N6220 G1 X-0.3061 Y0.6349
N6230 G1 X-0.313 Y0.6436
N6240 G1 X-0.3215 Y0.6508
N6250 G1 X-0.3982 Y0.7042
N6260 G3 X-0.4073 Y0.7078 R0.025
N6270 G1 X-0.4111 Y0.7085 Z-0.1497
N6280 G1 X-0.4149 Y0.7091 Z-0.1488
N6290 G1 X-0.4185 Y0.7098 Z-0.1473
N6300 G1 X-0.4217 Y0.7104 Z-0.1452
N6310 G1 X-0.4247 Y0.7109 Z-0.1427
N6320 G1 X-0.4272 Y0.7114 Z-0.1397
N6330 G1 X-0.4292 Y0.7118 Z-0.1363
N6340 G1 X-0.4307 Y0.712 Z-0.1327
N6350 G1 X-0.4316 Y0.7122 Z-0.1289
N6360 G1 X-0.4319 Z-0.125
N6370 G0 Z0.2
N6380 G0 X-0.7621 Y-0.4892
N6390 G0 Z-0.1
N6400 G1 Z-0.125 F20.
N6410 G1 X-0.762 Y-0.4894 Z-0.1289
N6420 G1 X-0.7617 Y-0.4903 Z-0.1327
N6430 G1 X-0.7611 Y-0.4917 Z-0.1363
N6440 G1 X-0.7603 Y-0.4936 Z-0.1397
N6450 G1 X-0.7594 Y-0.4959 Z-0.1427
N6460 G1 X-0.7583 Y-0.4987 Z-0.1452
N6470 G1 X-0.757 Y-0.5018 Z-0.1473
N6480 G1 X-0.7556 Y-0.5051 Z-0.1488
N6490 G1 X-0.7542 Y-0.5087 Z-0.1497
N6500 G1 X-0.7527 Y-0.5123 Z-0.15
N6510 G3 X-0.7441 Y-0.517 R0.0078
N6520 G1 X-0.6601 Y-0.4991
N6530 G1 X-0.6482 Y-0.4959
N6540 G1 X-0.6398 Y-0.493
N6550 G1 X-0.631 Y-0.489
N6560 G1 X-0.6209 Y-0.4835
N6570 G1 X-0.611 Y-0.477
N6580 G1 X-0.5999 Y-0.4683
N6590 G1 X-0.5885 Y-0.4579
N6600 G1 X-0.5767 Y-0.4452
N6610 G1 X-0.5643 Y-0.4295
N6620 G1 X-0.5518 Y-0.4107
N6630 G1 X-0.5392 Y-0.388
N6640 G1 X-0.5263 Y-0.3595
N6650 G1 X-0.5137 Y-0.3247
N6660 G1 X-0.5038 Y-0.2891
N6670 G1 X-0.496 Y-0.2529
N6680 G1 X-0.4896 Y-0.2165
N6690 G1 X-0.4842 Y-0.1799
N6700 G1 X-0.4744 Y-0.1065
N6710 G1 X-0.4693 Y-0.0699
N6720 G1 X-0.4633 Y-0.0333
N6730 G1 X-0.4564 Y0.003
N6740 G1 X-0.448 Y0.0391
N6750 G1 X-0.438 Y0.0747
N6760 G1 X-0.4263 Y0.1098
N6770 G1 X-0.4127 Y0.1442
N6780 G1 X-0.3976 Y0.178
N6790 G1 X-0.381 Y0.211
N6800 G1 X-0.3633 Y0.2436
N6810 G1 X-0.3449 Y0.2757
N6820 G1 X-0.3073 Y0.3394
N6830 G1 X-0.2888 Y0.3714
N6840 G1 X-0.271 Y0.4039
N6850 G1 X-0.2542 Y0.4368
N6860 G1 X-0.2391 Y0.4706
N6870 G1 X-0.2287 Y0.4991
N6880 G1 X-0.2225 Y0.5211
N6890 G1 X-0.2187 Y0.542
N6900 G1 X-0.2186 Y0.5545
N6910 G1 X-0.2212 Y0.5667
N6920 G1 X-0.2264 Y0.5781
N6930 G1 X-0.2339 Y0.5881
N6940 G1 X-0.2433 Y0.5963
N6950 G1 X-0.3215 Y0.6508
N6960 G3 X-0.359 Y0.6369 R0.025
N6970 G1 X-0.6884 Y-0.4674
N6980 G3 X-0.6601 Y-0.4991 R0.025
N6990 G1 X-0.5676 Y-0.4794
N7000 G1 X-0.56 Y-0.4774
N7010 G1 X-0.551 Y-0.4742
N7020 G1 X-0.5418 Y-0.4701
N7030 G1 X-0.5316 Y-0.4645
N7040 G1 X-0.5205 Y-0.4572
N7050 G1 X-0.5094 Y-0.4485
N7060 G1 X-0.4967 Y-0.4369
N7070 G1 X-0.4846 Y-0.4238
N7080 G1 X-0.471 Y-0.4067
N7090 G1 X-0.4579 Y-0.3869
N7100 G1 X-0.4439 Y-0.3617
N7110 G1 X-0.4294 Y-0.3297
N7120 G1 X-0.4168 Y-0.2949
N7130 G1 X-0.4065 Y-0.2594
N7140 G1 X-0.3979 Y-0.2234
N7150 G1 X-0.3903 Y-0.1872
N7160 G1 X-0.3695 Y-0.0781
N7170 G1 X-0.3616 Y-0.042
N7180 G1 X-0.3526 Y-0.0061
N7190 G1 X-0.342 Y0.0294
N7200 G1 X-0.3299 Y0.0643
N7210 G1 X-0.3163 Y0.0987
N7220 G1 X-0.3013 Y0.1326
N7230 G1 X-0.2852 Y0.1659
N7240 G1 X-0.2683 Y0.1988
N7250 G1 X-0.2157 Y0.2965
N7260 G1 X-0.1985 Y0.3293
N7270 G1 X-0.1821 Y0.3625
N7280 G1 X-0.1668 Y0.3962
N7290 G1 X-0.1534 Y0.4307
N7300 G1 X-0.1454 Y0.4567
N7310 G1 X-0.1409 Y0.4773
N7320 G1 X-0.1384 Y0.4957
N7330 G1 X-0.1382 Y0.4994
N7340 G1 X-0.1387 Y0.5113
N7350 G1 X-0.1417 Y0.5228
N7360 G1 X-0.1469 Y0.5335
N7370 G1 X-0.1543 Y0.5429
N7380 G1 X-0.1633 Y0.5507
N7390 G1 X-0.1738 Y0.5564
N7400 G1 X-0.1895 Y0.5634
N7410 G1 X-0.2063 Y0.5714
N7420 G1 X-0.2256 Y0.584
N7430 G1 X-0.2433 Y0.5963
N7440 G3 X-0.2808 Y0.5826 R0.025
N7450 G1 X-0.5959 Y-0.4475
N7460 G3 X-0.5676 Y-0.4794 R0.025
N7470 G1 X-0.4752 Y-0.4597
N7480 G1 X-0.4685 Y-0.4579
N7490 G1 X-0.4594 Y-0.4547
N7500 G1 X-0.4495 Y-0.4502
N7510 G1 X-0.4393 Y-0.4446
N7520 G1 X-0.4275 Y-0.4369
N7530 G1 X-0.4158 Y-0.4278
N7540 G1 X-0.403 Y-0.416
N7550 G1 X-0.3897 Y-0.4017
N7560 G1 X-0.3756 Y-0.3838
N7570 G1 X-0.3612 Y-0.3622
N7580 G1 X-0.3457 Y-0.3343
N7590 G1 X-0.3304 Y-0.3006
N7600 G1 X-0.3175 Y-0.2659
N7610 G1 X-0.3066 Y-0.2306
N7620 G1 X-0.2968 Y-0.1949
N7630 G1 X-0.2787 Y-0.1231
N7640 G1 X-0.2694 Y-0.0873
N7650 G1 X-0.2592 Y-0.0517
N7660 G1 X-0.2479 Y-0.0165
N7670 G1 X-0.2354 Y0.0183
N7680 G1 X-0.2217 Y0.0527
N7690 G1 X-0.2069 Y0.0866
N7700 G1 X-0.1914 Y0.1202
N7710 G1 X-0.1752 Y0.1535
N7720 G1 X-0.1254 Y0.2527
N7730 G1 X-0.1094 Y0.2861
N7740 G1 X-0.0941 Y0.3198
N7750 G1 X-0.0802 Y0.354
N7760 G1 X-0.0682 Y0.3891
N7770 G1 X-0.0613 Y0.4157
N7780 G1 X-0.0576 Y0.4366
N7790 G1 X-0.0558 Y0.4552
N7800 G1 X-0.0557 Y0.4672
N7810 G1 X-0.0567 Y0.4787
N7820 G1 X-0.0599 Y0.4897
N7830 G1 X-0.0652 Y0.4999
N7840 G1 X-0.0724 Y0.5089
N7850 G1 X-0.0813 Y0.5163
N7860 G1 X-0.0914 Y0.5217
N7870 G1 X-0.1738 Y0.5564
N7880 G3 X-0.2066 Y0.5403 R0.025
N7890 G1 X-0.5035 Y-0.4277
N7900 G3 X-0.4752 Y-0.4597 R0.025
N7910 G1 X-0.4248 Y-0.4492
N7920 G1 X-0.4164 Y-0.4476
N7930 G1 X-0.408 Y-0.4466
N7940 G1 X-0.3996 Y-0.4462
N7950 G1 X-0.3931 Y-0.4455
N7960 G1 X-0.3853 Y-0.4441
N7970 G1 X-0.3764 Y-0.4417
N7980 G1 X-0.3673 Y-0.4385
N7990 G1 X-0.3567 Y-0.4337
N8000 G1 X-0.3456 Y-0.4276
N8010 G1 X-0.3338 Y-0.4198
N8020 G1 X-0.3205 Y-0.4095
N8030 G1 X-0.3075 Y-0.3974
N8040 G1 X-0.2928 Y-0.3816
N8050 G1 X-0.2778 Y-0.3625
N8060 G1 X-0.2616 Y-0.338
N8070 G1 X-0.2436 Y-0.3057
N8080 G1 X-0.2284 Y-0.272
N8090 G1 X-0.215 Y-0.2375
N8100 G1 X-0.2029 Y-0.2025
N8110 G1 X-0.1801 Y-0.1321
N8120 G1 X-0.1684 Y-0.097
N8130 G1 X-0.156 Y-0.0621
N8140 G1 X-0.1429 Y-0.0275
N8150 G1 X-0.1289 Y0.0067
N8160 G1 X-0.1143 Y0.0407
N8170 G1 X-0.099 Y0.0744
N8180 G1 X-0.036 Y0.2084
N8190 G1 X-0.0209 Y0.2421
N8200 G1 X-0.0068 Y0.2763
N8210 G1 X0.0061 Y0.311
N8220 G1 X0.0171 Y0.3464
N8230 G1 X0.0244 Y0.3777
N8240 G1 X0.0278 Y0.4007
N8250 G1 X0.0292 Y0.4212
N8260 G1 X0.0291 Y0.433
N8270 G1 X0.0279 Y0.4442
N8280 G1 X0.0245 Y0.455
N8290 G1 X0.0192 Y0.4649
N8300 G1 X0.012 Y0.4736
N8310 G1 X0.0033 Y0.4808
N8320 G1 X-0.0066 Y0.4861
N8330 G1 X-0.0914 Y0.5217
N8340 G3 X-0.1241 Y0.5061 R0.025
N8350 G1 X-0.4238 Y-0.4134
N8360 G3 X-0.3996 Y-0.4462 R0.025
N8370 G1 X-0.3828 Y-0.4456
N8380 G1 X-0.324
N8390 G1 X-0.3154 Y-0.4451
N8400 G1 X-0.307 Y-0.444
N8410 G1 X-0.2976 Y-0.442
N8420 G1 X-0.2877 Y-0.4391
N8430 G1 X-0.2762 Y-0.4346
N8440 G1 X-0.2648 Y-0.429
N8450 G1 X-0.2517 Y-0.4213
N8460 G1 X-0.2379 Y-0.4116
N8470 G1 X-0.2234 Y-0.3996
N8480 G1 X-0.2078 Y-0.3844
N8490 G1 X-0.1909 Y-0.365
N8500 G1 X-0.173 Y-0.3408
N8510 G1 X-0.1534 Y-0.3094
N8520 G1 X-0.1363 Y-0.2766
N8530 G1 X-0.121 Y-0.2429
N8540 G1 X-0.1067 Y-0.2087
N8550 G1 X-0.0658 Y-0.1055
N8560 G1 X-0.0518 Y-0.0713
N8570 G1 X-0.0374 Y-0.0372
N8580 G1 X-0.0074 Y0.0304
N8590 G1 X0.0385 Y0.1315
N8600 G1 X0.0534 Y0.1654
N8610 G1 X0.0677 Y0.1995
N8620 G1 X0.081 Y0.234
N8630 G1 X0.093 Y0.269
N8640 G1 X0.1033 Y0.3046
N8650 G1 X0.1107 Y0.3381
N8660 G1 X0.1143 Y0.3636
N8670 G1 X0.1155 Y0.385
N8680 G1 X0.1152 Y0.3975
N8690 G1 X0.1139 Y0.4085
N8700 G1 X0.1105 Y0.4192
N8710 G1 X0.1051 Y0.429
N8720 G1 X0.098 Y0.4375
N8730 G1 X0.0893 Y0.4446
N8740 G1 X0.0795 Y0.4499
N8750 G1 X-0.0066 Y0.4861
N8760 G3 X-0.0391 Y0.471 R0.025
N8770 G1 X-0.3467 Y-0.4123
N8780 G3 X-0.324 Y-0.4456 R0.025
N8790 G1 X-0.2353
N8800 G1 X-0.2274 Y-0.4452
N8810 G1 X-0.218 Y-0.4439
N8820 G1 X-0.2085 Y-0.4419
N8830 G1 X-0.1974 Y-0.4386
N8840 G1 X-0.1856 Y-0.434
N8850 G1 X-0.1729 Y-0.4278
N8860 G1 X-0.1583 Y-0.4192
N8870 G1 X-0.1439 Y-0.4091
N8880 G1 X-0.1274 Y-0.3954
N8890 G1 X-0.1103 Y-0.3787
N8900 G1 X-0.0911 Y-0.3567
N8910 G1 X-0.0691 Y-0.3269
N8920 G1 X-0.0495 Y-0.2955
N8930 G1 X-0.0318 Y-0.263
N8940 G1 X-0.0153 Y-0.2299
N8950 G1 X0.0004 Y-0.1964
N8960 G1 X0.1067 Y0.0398
N8970 G1 X0.1217 Y0.0736
N8980 G1 X0.1362 Y0.1077
N8990 G1 X0.1501 Y0.1419
N9000 G1 X0.1633 Y0.1765
N9010 G1 X0.1753 Y0.2115
N9020 G1 X0.186 Y0.2469
N9030 G1 X0.1948 Y0.2829
N9040 G1 X0.2002 Y0.3147
N9050 G1 X0.2024 Y0.3379
N9060 G1 X0.2025 Y0.3575
N9070 G1 X0.2022 Y0.3632
N9080 G1 X0.2 Y0.3751
N9090 G1 X0.1955 Y0.3864
N9100 G1 X0.1888 Y0.3964
N9110 G1 X0.1801 Y0.4049
N9120 G1 X0.1698 Y0.4114
N9130 G1 X0.1602 Y0.416
N9140 G1 X0.0795 Y0.4499
N9150 G3 X0.0471 Y0.435 R0.025
N9160 G1 X-0.258 Y-0.4121
N9170 G3 X-0.2353 Y-0.4456 R0.025
N9180 G1 X-0.1475
N9190 G1 X-0.1346 Y-0.4449
N9200 G1 X-0.1251 Y-0.4437
N9210 G1 X-0.1145 Y-0.4414
N9220 G1 X-0.1033 Y-0.4381
N9230 G1 X-0.0902 Y-0.4329
N9240 G1 X-0.0767 Y-0.4264
N9250 G1 X-0.0618 Y-0.4176
N9260 G1 X-0.0455 Y-0.4062
N9270 G1 X-0.0276 Y-0.3913
N9280 G1 X-0.0081 Y-0.3723
N9290 G1 X0.0143 Y-0.3466
N9300 G1 X0.0363 Y-0.3168
N9310 G1 X0.0564 Y-0.2857
N9320 G1 X0.0749 Y-0.2537
N9330 G1 X0.0925 Y-0.2211
N9340 G1 X0.1093 Y-0.1881
N9350 G1 X0.1416 Y-0.1215
N9360 G1 X0.1728 Y-0.0545
N9370 G1 X0.203 Y0.0131
N9380 G1 X0.2175 Y0.0471
N9390 G1 X0.2314 Y0.0814
N9400 G1 X0.2446 Y0.116
N9410 G1 X0.2569 Y0.1509
N9420 G1 X0.2681 Y0.1862
N9430 G1 X0.2777 Y0.2219
N9440 G1 X0.2853 Y0.2581
N9450 G1 X0.2892 Y0.2867
N9460 G1 X0.2903 Y0.3091
N9470 G1 X0.2885 Y0.322
N9480 G1 X0.2839 Y0.3342
N9490 G1 X0.2767 Y0.3451
N9500 G1 X0.2673 Y0.3541
N9510 G1 X0.2403 Y0.374
N9520 G1 X0.2138 Y0.3888
N9530 G1 X0.1698 Y0.4114
N9540 G3 X0.1361 Y0.3974 R0.025
N9550 G1 X-0.17 Y-0.4117
N9560 G3 X-0.1475 Y-0.4456 R0.025
N9570 G1 X-0.0467
N9580 G1 X-0.0382 Y-0.4451
N9590 G1 X-0.0286 Y-0.4439
N9600 G1 X-0.0173 Y-0.4414
N9610 G1 X-0.0052 Y-0.4378
N9620 G1 X0.0079 Y-0.4327
N9630 G1 X0.023 Y-0.4254
N9640 G1 X0.0386 Y-0.4162
N9650 G1 X0.0565 Y-0.4037
N9660 G1 X0.076 Y-0.3875
N9670 G1 X0.0978 Y-0.3661
N9680 G1 X0.1222 Y-0.3383
N9690 G1 X0.1443 Y-0.3086
N9700 G1 X0.1647 Y-0.2777
N9710 G1 X0.1838 Y-0.2461
N9720 G1 X0.2019 Y-0.2138
N9730 G1 X0.2193 Y-0.1811
N9740 G1 X0.236 Y-0.1481
N9750 G1 X0.2523 Y-0.1149
N9760 G1 X0.268 Y-0.0814
N9770 G1 X0.2833 Y-0.0477
N9780 G1 X0.298 Y-0.0137
N9790 G1 X0.3122 Y0.0204
N9800 G1 X0.3256 Y0.0549
N9810 G1 X0.3382 Y0.0897
N9820 G1 X0.3499 Y0.1248
N9830 G1 X0.3602 Y0.1603
N9840 G1 X0.369 Y0.1963
N9850 G1 X0.3719 Y0.2123
N9860 G1 X0.3728 Y0.2237
N9870 G1 X0.3715 Y0.2351
N9880 G1 X0.3679 Y0.246
N9890 G1 X0.3623 Y0.256
N9900 G1 X0.3562 Y0.2648
N9910 G1 X0.3315 Y0.2952
N9920 G1 X0.3042 Y0.3236
N9930 G1 X0.2979 Y0.3296
N9940 G1 X0.2673 Y0.3541
N9950 G3 X0.2296 Y0.3428 R0.025
N9960 G1 X-0.069 Y-0.4114
N9970 G3 X-0.0467 Y-0.4456 R0.025
N9980 G1 X-0.0046 Y-0.4452
N9990 G1 X0.0626 Y-0.44
N10000 G1 X0.0794 Y-0.4367
N10010 G1 X0.0954 Y-0.4326
N10020 G1 X0.1077 Y-0.4284
N10030 G1 X0.1221 Y-0.4222
N10040 G1 X0.1376 Y-0.4139
N10050 G1 X0.1552 Y-0.4027
N10060 G1 X0.1742 Y-0.3883
N10070 G1 X0.196 Y-0.3687
N10080 G1 X0.221 Y-0.3424
N10090 G1 X0.2442 Y-0.3136
N10100 G1 X0.2657 Y-0.2835
N10110 G1 X0.2856 Y-0.2523
N10120 G1 X0.3044 Y-0.2205
N10130 G1 X0.3223 Y-0.188
N10140 G1 X0.3393 Y-0.1552
N10150 G1 X0.3556 Y-0.122
N10160 G1 X0.3712 Y-0.0884
N10170 G1 X0.3862 Y-0.0546
N10180 G1 X0.4004 Y-0.0204
N10190 G1 X0.4139 Y0.0141
N10200 G1 X0.4264 Y0.0489
N10210 G1 X0.4321 Y0.0663
N10220 G1 X0.4346 Y0.0776
N10230 G1 X0.4348 Y0.0891
N10240 G1 X0.4327 Y0.1005
N10250 G1 X0.4192 Y0.1472
N10260 G1 X0.4053 Y0.1808
N10270 G1 X0.3892 Y0.2144
N10280 G1 X0.3735 Y0.24
N10290 G1 X0.3623 Y0.256
N10300 G3 X0.3192 Y0.2505 R0.025
N10310 G1 X0.0522 Y-0.4026
N10320 G3 X0.0794 Y-0.4367 R0.025
N10330 G1 X0.0991 Y-0.4325
N10340 G1 X0.1214 Y-0.427
N10350 G1 X0.1466 Y-0.4191
N10360 G1 X0.1562 Y-0.4157
N10370 G1 X0.1886 Y-0.4016
N10380 G1 X0.2126 Y-0.3905
N10390 G1 X0.2656 Y-0.3569
N10400 G1 X0.2757 Y-0.3485
N10410 G1 X0.3147 Y-0.3138
N10420 G1 X0.3315 Y-0.2955
N10430 G1 X0.3567 Y-0.2645
N10440 G1 X0.3651 Y-0.2527
N10450 G1 X0.374 Y-0.2393
N10460 G1 X0.3933 Y-0.2057
N10470 G1 X0.4071 Y-0.1777
N10480 G1 X0.4217 Y-0.1385
N10490 G1 X0.4276 Y-0.1217
N10500 G1 X0.4297 Y-0.1133
N10510 G1 X0.4407 Y-0.0578
N10520 G1 X0.4428 Y-0.0292
N10530 G1 X0.4438 Y0.0044
N10540 G1 X0.4433 Y0.0296
N10550 G1 X0.436 Y0.0884
N10560 G1 X0.4327 Y0.1005
N10570 G1 X0.4317 Y0.1024 Z-0.1497
N10580 G1 X0.4307 Y0.1042 Z-0.149
N10590 G1 X0.4299 Y0.1058 Z-0.1479
N10600 G1 X0.4291 Y0.1072 Z-0.1463
N10610 G1 X0.4286 Y0.1082 Z-0.1445
N10620 G1 X0.4281 Y0.1088 Z-0.1424
N10630 G1 X0.428 Y0.109 Z-0.1402
N10640 G0 Z0.2
N10650 G0 X0.9565 Y0.9807
N10660 G0 Z-0.04
N10670 G1 Z-0.065 F20.
N10680 G1 X0.9562 Y0.9805 Z-0.0689
N10690 G1 X0.9556 Y0.9798 Z-0.0727
N10700 G1 X0.9545 Y0.9788 Z-0.0763
N10710 G1 X0.9531 Y0.9773 Z-0.0797
N10720 G1 X0.9513 Y0.9755 Z-0.0827
N10730 G1 X0.9492 Y0.9734 Z-0.0852
N10740 G1 X0.9468 Y0.9711 Z-0.0873
N10750 G1 X0.9442 Y0.9685 Z-0.0888
N10760 G1 X0.9415 Y0.9658 Z-0.0897
N10770 G1 X0.9388 Y0.963 Z-0.09
N10780 G3 X0.8524 Y0.856 R0.6382
N10790 G1 X0.8512 Y0.854
N10800 G1 Y0.8516
N10810 G1 X0.8523 Y0.8495
N10820 G1 X0.9065 Y0.794
N10830 G1 X0.9281 Y0.7675
N10840 G1 X0.991 Y0.6848
N10850 G1 X1.0082 Y0.6596
N10860 G1 X1.0721 Y0.5504
N10870 G1 X1.0877 Y0.5164
N10880 G1 X1.131 Y0.416
N10890 G1 X1.1366 Y0.3992
N10900 G1 X1.1718 Y0.2807
N10910 G1 X1.1738 Y0.2732
N10920 G1 X1.1802 Y0.2386
N10930 G1 X1.197 Y0.138
N10940 G1 X1.1994 Y0.1136
N10950 G1 X1.2046 Y-0.004
N10960 G1 X1.2047 Y-0.0292
N10970 G1 X1.1941 Y-0.1637
N10980 G1 X1.1861 Y-0.2057
N10990 G1 X1.1675 Y-0.2981
N11000 G1 X1.1629 Y-0.3149
N11010 G1 X1.155 Y-0.3403
N11020 G1 X1.1213 Y-0.4411
N11030 G1 X1.1107 Y-0.4661
N11040 G1 X1.059 Y-0.5753
N11050 G1 X1.044 Y-0.6005
N11060 G1 X0.9869 Y-0.6905
N11070 G1 X0.9701 Y-0.7146
N11080 G1 X0.8983 Y-0.8021
N11090 G1 X0.8839 Y-0.8189
N11100 G1 X0.8759 Y-0.8273
N11110 G1 X0.7936 Y-0.9062
N11120 G1 X0.7681 Y-0.9281
N11130 G1 X0.676 Y-0.9969
N11140 G1 X0.6592 Y-1.0089
N11150 G1 X0.5499 Y-1.0718
N11160 G1 X0.5247 Y-1.0846
N11170 G1 X0.4155 Y-1.1308
N11180 G1 X0.3903 Y-1.1398
N11190 G1 X0.2727 Y-1.1734
N11200 G1 X0.2474 Y-1.1792
N11210 G1 X0.1298 Y-1.1976
N11220 G1 X0.113 Y-1.1999
N11230 G1 X-0.0215 Y-1.2048
N11240 G1 X-0.0551 Y-1.2031
N11250 G1 X-0.1643 Y-1.1935
N11260 G1 X-0.1895 Y-1.1898
N11270 G1 X-0.2987 Y-1.1668
N11280 G1 X-0.324 Y-1.1608
N11290 G1 X-0.4416 Y-1.1206
N11300 G1 X-0.4624 Y-1.1129
N11310 G1 X-0.576 Y-1.0579
N11320 G1 X-0.5987 Y-1.0457
N11330 G1 X-0.703 Y-0.9785
N11340 G1 X-0.7105 Y-0.9734
N11350 G1 X-0.7273 Y-0.9602
N11360 G1 X-0.8197 Y-0.8834
N11370 G1 X-0.8281 Y-0.8755
N11380 G1 X-0.9055 Y-0.7937
N11390 G1 X-0.9211 Y-0.7769
N11400 G1 X-0.929 Y-0.7674
N11410 G1 X-0.944 Y-0.7433
N11420 G1 X-0.9515 Y-0.7252
N11430 G1 X-0.9525 Y-0.7223
N11440 G1 X-0.9569 Y-0.7013
N11450 G1 X-0.9578 Y-0.6929
N11460 G1 X-0.9584 Y-0.6761
N11470 G1 X-0.9577 Y-0.6677
N11480 G1 X-0.955 Y-0.6493
N11490 G1 X-0.9508 Y-0.6341
N11500 G1 X-0.9475 Y-0.6257
N11510 G1 X-0.9339 Y-0.6005
N11520 G1 X-0.9277 Y-0.5921
N11530 G1 X-0.9201 Y-0.5837
N11540 G1 X-0.9117 Y-0.5753
N11550 G1 X-0.9038 Y-0.5685
N11560 G1 X-0.8806 Y-0.5538
N11570 G1 X-0.8617 Y-0.5464
N11580 G1 X-0.8533 Y-0.5435
N11590 G1 X-0.8029 Y-0.5323
N11600 G1 X-0.4332 Y-0.4536
N11610 G1 X-0.4164 Y-0.4503
N11620 G1 X-0.4074 Y-0.4493
N11630 G1 X-0.3828 Y-0.4482
N11640 G1 X-0.0215
N11650 G1 X0.0038 Y-0.4474
N11660 G1 X0.0626 Y-0.4427
N11670 G1 X0.0962 Y-0.436
N11680 G1 X0.1214 Y-0.4297
N11690 G1 X0.1466 Y-0.422
N11700 G1 X0.155 Y-0.4191
N11710 G1 X0.197 Y-0.4008
N11720 G1 X0.2138 Y-0.3929
N11730 G1 X0.2701 Y-0.3569
N11740 G1 X0.3078 Y-0.3233
N11750 G1 X0.3315 Y-0.2998
N11760 G1 X0.3601 Y-0.2645
N11770 G1 X0.3771 Y-0.2393
N11780 G1 X0.3964 Y-0.2057
N11790 G1 X0.4087 Y-0.1805
N11800 G1 X0.4184 Y-0.1553
N11810 G1 X0.4303 Y-0.1217
N11820 G1 X0.4325 Y-0.1133
N11830 G1 X0.4426 Y-0.0629
N11840 G1 X0.4437 Y-0.0545
N11850 G1 X0.4455 Y-0.0292
N11860 G1 X0.4465 Y0.0044
N11870 G1 X0.446 Y0.0296
N11880 G1 X0.4387 Y0.0884
N11890 G1 X0.4219 Y0.1472
N11900 G1 X0.4195 Y0.1556
N11910 G1 X0.4122 Y0.1724
N11920 G1 X0.3903 Y0.2183
N11930 G1 X0.3819 Y0.2321
N11940 G1 X0.3712 Y0.248
N11950 G1 X0.3567 Y0.2686
N11960 G1 X0.3315 Y0.2993
N11970 G1 X0.2996 Y0.332
N11980 G1 X0.2642 Y0.3597
N11990 G1 X0.245 Y0.374
N12000 G1 X0.239 Y0.3781
N12010 G1 X0.2159 Y0.3908
N12020 G1 X0.167 Y0.416
N12030 G1 X-0.1811 Y0.5624
N12040 G1 X-0.2083 Y0.5756
N12050 G1 X-0.2399 Y0.5972
N12060 G1 X-0.5708 Y0.8276
N12070 G1 X-0.576 Y0.8315
N12080 G1 X-0.5937 Y0.8479
N12090 G1 X-0.6013 Y0.857
N12100 G1 X-0.6167 Y0.8815
N12110 G1 X-0.6253 Y0.9043
N12120 G1 X-0.6302 Y0.9284
N12130 G1 X-0.6307 Y0.9452
N12140 G1 X-0.6306 Y0.9536
N12150 G1 X-0.6282 Y0.9704
N12160 G1 X-0.6264 Y0.9788
N12170 G1 X-0.621 Y0.9956
N12180 G1 X-0.6178 Y1.004
N12190 G1 X-0.6083 Y1.0208
N12200 G1 X-0.5955 Y1.0376
N12210 G1 X-0.592 Y1.0418
N12220 G1 X-0.5879 Y1.046
N12230 G1 X-0.5676 Y1.0622
N12240 G1 X-0.5508 Y1.072
N12250 G1 X-0.4332 Y1.1242
N12260 G1 X-0.408 Y1.1337
N12270 G1 X-0.2987 Y1.1669
N12280 G1 X-0.2735 Y1.1735
N12290 G1 X-0.2231 Y1.1826
N12300 G1 X-0.1475 Y1.1956
N12310 G1 X-0.1307 Y1.198
N12320 G1 X0.0038 Y1.2052
N12330 G1 X0.0374 Y1.2036
N12340 G1 X0.1382 Y1.1967
N12350 G1 X0.1634 Y1.1937
N12360 G1 X0.1901 Y1.1889
N12370 G1 X0.2811 Y1.1713
N12380 G1 X0.3063 Y1.1656
N12390 G1 X0.4323 Y1.1249
N12400 G1 X0.441 Y1.1217
N12410 G1 X0.5504 Y1.0712
N12420 G1 X0.5752 Y1.0588
N12430 G1 X0.592 Y1.0488
N12440 G1 X0.691 Y0.9872
N12450 G1 X0.718 Y0.9667
N12460 G1 X0.7971 Y0.9032
N12470 G1 X0.8246 Y0.878
N12480 G1 X0.8523 Y0.8495
N12490 G1 X0.8542 Y0.8483 Z-0.0897
N12500 G1 X0.8559 Y0.8472 Z-0.089
N12510 G1 X0.8574 Y0.8462 Z-0.0879
N12520 G1 X0.8587 Y0.8453 Z-0.0863
N12530 G1 X0.8597 Y0.8447 Z-0.0845
N12540 G1 X0.8603 Y0.8444 Z-0.0824
N12550 G1 X0.8606 Y0.8443 Z-0.0802
N12560 G0 Z0.2
N12570 G0 X0.4733 Y-1.188
N12580 G0 Z-0.025
N12590 G1 Z-0.05 F20.
N12600 G1 X0.473 Y-1.1879 Z-0.0539
N12610 G1 X0.4721 Y-1.1877 Z-0.0577
N12620 G1 X0.4706 Y-1.1873 Z-0.0613
N12630 G1 X0.4686 Y-1.1868 Z-0.0647
N12640 G1 X0.4662 Y-1.1861 Z-0.0677
N12650 G1 X0.4633 Y-1.1854 Z-0.0702
N12660 G1 X0.46 Y-1.1846 Z-0.0723
N12670 G1 X0.4565 Y-1.1837 Z-0.0738
N12680 G1 X0.4528 Y-1.1827 Z-0.0747
N12690 G1 X0.4491 Y-1.1818 Z-0.075
N12700 G3 X0.313 Y-1.1622 R0.6382
N12710 G1 X0.3037
N12720 G1 X0.2946 Y-1.1607
N12730 G1 X0.2594 Y-1.1492
N12740 G1 X0.2504 Y-1.1432
N12750 G1 X0.2409 Y-1.1381
N12760 G1 X0.2261 Y-1.1315
N12770 G1 X0.2108 Y-1.1263
N12780 G1 X0.1899 Y-1.1206
N12790 G1 X0.1635 Y-1.115
N12800 G1 X0.1369 Y-1.1107
N12810 G1 X0.101 Y-1.1067
N12820 G1 X-0.0465 Y-1.0942
N12830 G1 X-0.0833 Y-1.0907
N12840 G1 X-0.12 Y-1.086
N12850 G1 X-0.1566 Y-1.0804
N12860 G1 X-0.1931 Y-1.0741
N12870 G1 X-0.2293 Y-1.0666
N12880 G1 X-0.2652 Y-1.0578
N12890 G1 X-0.3009 Y-1.048
N12900 G1 X-0.3363 Y-1.0373
N12910 G1 X-0.3713 Y-1.0251
N12920 G1 X-0.4057 Y-1.0117
N12930 G1 X-0.4399 Y-0.9974
N12940 G1 X-0.4735 Y-0.982
N12950 G1 X-0.5065 Y-0.9651
N12960 G1 X-0.5389 Y-0.9473
N12970 G1 X-0.5709 Y-0.9288
N12980 G1 X-0.602 Y-0.9087
N12990 G1 X-0.6324 Y-0.8876
N13000 G1 X-0.6622 Y-0.8657
N13010 G1 X-0.6913 Y-0.8429
N13020 G1 X-0.7194 Y-0.8188
N13030 G1 X-0.7467 Y-0.7938
N13040 G1 X-0.7601 Y-0.781
N13050 G1 X-0.7664 Y-0.7742
N13060 G1 X-0.7716 Y-0.7666
N13070 G1 X-0.7755 Y-0.7582
N13080 G1 X-0.778 Y-0.7493
N13090 G1 X-0.7791 Y-0.7401
N13100 G1 X-0.7787 Y-0.7309
N13110 G1 X-0.7769 Y-0.7218
N13120 G1 X-0.7736 Y-0.7131
N13130 G1 X-0.7691 Y-0.7051
N13140 G1 X-0.7459 Y-0.6762
N13150 G1 X-0.7146 Y-0.6565
N13160 G1 X-0.6814 Y-0.6402
N13170 G1 X-0.6471 Y-0.6263
N13180 G1 X-0.6121 Y-0.6142
N13190 G1 X-0.5767 Y-0.6033
N13200 G1 X-0.5411 Y-0.5934
N13210 G1 X-0.5053 Y-0.5841
N13220 G1 X-0.4691 Y-0.5762
N13230 G1 X-0.4326 Y-0.5706
N13240 G1 X-0.3958 Y-0.5666
N13250 G1 X-0.3589 Y-0.5638
N13260 G1 X-0.3219 Y-0.5619
N13270 G1 X-0.2849 Y-0.5605
N13280 G1 X-0.211 Y-0.5588
N13290 G1 X-0.0931 Y-0.5575
N13300 G1 X-0.0774 Y-0.5572
N13310 G1 X-0.0594 Y-0.5566
N13320 G1 X-0.0226 Y-0.5525
N13330 G1 X0.0141 Y-0.548
N13340 G1 X0.0507 Y-0.5424
N13350 G1 X0.0871 Y-0.5354
N13360 G1 X0.123 Y-0.5267
N13370 G1 X0.1584 Y-0.516
N13380 G1 X0.1932 Y-0.5033
N13390 G1 X0.227 Y-0.4883
N13400 G1 X0.26 Y-0.4715
N13410 G1 X0.2916 Y-0.4522
N13420 G1 X0.3218 Y-0.4309
N13430 G1 X0.3506 Y-0.4076
N13440 G1 X0.3777 Y-0.3825
N13450 G1 X0.4031 Y-0.3555
N13460 G1 X0.4265 Y-0.3269
N13470 G1 X0.448 Y-0.2967
N13480 G1 X0.4673 Y-0.2652
N13490 G1 X0.4845 Y-0.2324
N13500 G1 X0.4993 Y-0.1985
N13510 G1 X0.5119 Y-0.1637
N13520 G1 X0.5219 Y-0.1281
N13530 G1 X0.5294 Y-0.0919
N13540 G1 X0.5345 Y-0.0552
N13550 G1 X0.537 Y-0.0183
N13560 G1 X0.5372 Y0.0187
N13570 G1 X0.5346 Y0.0556
N13580 G1 X0.5295 Y0.0923
N13590 G1 X0.522 Y0.1285
N13600 G1 X0.5118 Y0.1641
N13610 G1 X0.4994 Y0.199
N13620 G1 X0.4844 Y0.2328
N13630 G1 X0.4671 Y0.2655
N13640 G1 X0.4478 Y0.297
N13650 G1 X0.4263 Y0.3272
N13660 G1 X0.4028 Y0.3557
N13670 G1 X0.3773 Y0.3825
N13680 G1 X0.3502 Y0.4078
N13690 G1 X0.3213 Y0.4308
N13700 G1 X0.2909 Y0.452
N13710 G1 X0.2595 Y0.4715
N13720 G1 X0.2271 Y0.4894
N13730 G1 X0.1942 Y0.5063
N13740 G1 X0.1608 Y0.5223
N13750 G1 X0.1273 Y0.5379
N13760 G1 X0.0597 Y0.568
N13770 G1 X-0.0762 Y0.6267
N13780 G1 X-0.1093 Y0.6433
N13790 G1 X-0.1416 Y0.6613
N13800 G1 X-0.1734 Y0.6802
N13810 G1 X-0.2048 Y0.6998
N13820 G1 X-0.2471 Y0.7314
N13830 G1 X-0.3069 Y0.7749
N13840 G1 X-0.4201 Y0.8552
N13850 G1 X-0.4272 Y0.8611
N13860 G1 X-0.4333 Y0.8681
N13870 G1 X-0.4382 Y0.8759
N13880 G1 X-0.4419 Y0.8844
N13890 G1 X-0.4441 Y0.8934
N13900 G1 X-0.4449 Y0.9026
N13910 G1 X-0.4442 Y0.9118
N13920 G1 X-0.4421 Y0.9208
N13930 G1 X-0.435 Y0.9379
N13940 G1 X-0.4113 Y0.9663
N13950 G1 X-0.383 Y0.9902
N13960 G1 X-0.3521 Y1.0105
N13970 G1 X-0.3192 Y1.0276
N13980 G1 X-0.285 Y1.0417
N13990 G1 X-0.25 Y1.0536
N14000 G1 X-0.2144 Y1.0638
N14010 G1 X-0.1783 Y1.0718
N14020 G1 X-0.1418 Y1.0781
N14030 G1 X-0.1052 Y1.0831
N14040 G1 X-0.0683 Y1.0867
N14050 G1 X-0.0314 Y1.0886
N14060 G1 X0.0056 Y1.0892
N14070 G1 X0.0426 Y1.0888
N14080 G1 X0.0796 Y1.0869
N14090 G1 X0.1164 Y1.0834
N14100 G1 X0.1531 Y1.0789
N14110 G1 X0.1897 Y1.0734
N14120 G1 X0.226 Y1.0663
N14130 G1 X0.2621 Y1.0578
N14140 G1 X0.2979 Y1.0485
N14150 G1 X0.3333 Y1.0379
N14160 G1 X0.3683 Y1.0258
N14170 G1 X0.4029 Y1.0126
N14180 G1 X0.4371 Y0.9986
N14190 G1 X0.4707 Y0.9831
N14200 G1 X0.5037 Y0.9664
N14210 G1 X0.5363 Y0.9489
N14220 G1 X0.5683 Y0.9302
N14230 G1 X0.5994 Y0.9102
N14240 G1 X0.6299 Y0.8893
N14250 G1 X0.6599 Y0.8676
N14260 G1 X0.6889 Y0.8447
N14270 G1 X0.7171 Y0.8206
N14280 G1 X0.7446 Y0.7959
N14290 G1 X0.7713 Y0.7703
N14300 G1 X0.7969 Y0.7436
N14310 G1 X0.8216 Y0.716
N14320 G1 X0.8456 Y0.6878
N14330 G1 X0.8685 Y0.6588
N14340 G1 X0.8902 Y0.6288
N14350 G1 X0.911 Y0.5982
N14360 G1 X0.931 Y0.5671
N14370 G1 X0.9496 Y0.5351
N14380 G1 X0.9694 Y0.5038
N14390 G1 X0.9877 Y0.4717
N14400 G1 X1.0044 Y0.4387
N14410 G1 X1.0193 Y0.4048
N14420 G1 X1.033 Y0.3704
N14430 G1 X1.0456 Y0.3356
N14440 G1 X1.0566 Y0.3003
N14450 G1 X1.0661 Y0.2645
N14460 G1 X1.0746 Y0.2285
N14470 G1 X1.0821 Y0.1923
N14480 G1 X1.0878 Y0.1557
N14490 G1 X1.0924 Y0.119
N14500 G1 X1.096 Y0.0822
N14510 G1 X1.0982 Y0.0452
N14520 G1 X1.0989 Y0.0082
N14530 G1 X1.0986 Y-0.0288
N14540 G1 X1.0973 Y-0.0657
N14550 G1 X1.0944 Y-0.1026
N14560 G1 X1.0901 Y-0.1394
N14570 G1 X1.0849 Y-0.176
N14580 G1 X1.0785 Y-0.2125
N14590 G1 X1.0706 Y-0.2486
N14600 G1 X1.0615 Y-0.2845
N14610 G1 X1.0516 Y-0.3201
N14620 G1 X1.0402 Y-0.3553
N14630 G1 X1.0275 Y-0.3901
N14640 G1 X1.0138 Y-0.4244
N14650 G1 X0.9991 Y-0.4584
N14660 G1 X0.983 Y-0.4917
N14670 G1 X0.9657 Y-0.5245
N14680 G1 X0.9477 Y-0.5568
N14690 G1 X0.9285 Y-0.5884
N14700 G1 X0.908 Y-0.6192
N14710 G1 X0.8866 Y-0.6494
N14720 G1 X0.8644 Y-0.679
N14730 G1 X0.841 Y-0.7077
N14740 G1 X0.8166 Y-0.7355
N14750 G1 X0.7914 Y-0.7626
N14760 G1 X0.7655 Y-0.789
N14770 G1 X0.7383 Y-0.8141
N14780 G1 X0.7104 Y-0.8384
N14790 G1 X0.682 Y-0.8621
N14800 G1 X0.6526 Y-0.8845
N14810 G1 X0.6223 Y-0.9058
N14820 G1 X0.5915 Y-0.9263
N14830 G1 X0.5601 Y-0.9459
N14840 G1 X0.5279 Y-0.9641
N14850 G1 X0.495 Y-0.9811
N14860 G1 X0.4618 Y-0.9974
N14870 G1 X0.428 Y-1.0125
N14880 G1 X0.3931 Y-1.0249
N14890 G1 X0.3564 Y-1.0291
N14900 G1 X0.3194 Y-1.0288
N14910 G1 X0.2825 Y-1.026
N14920 G1 X0.2322 Y-1.0172
N14930 G1 X0.1883 Y-1.0107
N14940 G1 X0.1267 Y-1.0029
N14950 G1 X0.0583 Y-0.9954
N14960 G1 X-0.0154 Y-0.9877
N14970 G1 X-0.0521 Y-0.9833
N14980 G1 X-0.0888 Y-0.9783
N14990 G1 X-0.1253 Y-0.9725
N15000 G1 X-0.1617 Y-0.9657
N15010 G1 X-0.1978 Y-0.9579
N15020 G1 X-0.2338 Y-0.949
N15030 G1 X-0.2694 Y-0.9389
N15040 G1 X-0.3046 Y-0.9276
N15050 G1 X-0.3394 Y-0.9152
N15060 G1 X-0.3738 Y-0.9014
N15070 G1 X-0.4076 Y-0.8864
N15080 G1 X-0.4409 Y-0.8703
N15090 G1 X-0.4736 Y-0.8528
N15100 G1 X-0.4974 Y-0.8387
N15110 G1 X-0.521 Y-0.824
N15120 G1 X-0.5279 Y-0.8178
N15130 G1 X-0.5337 Y-0.8107
N15140 G1 X-0.5383 Y-0.8027
N15150 G1 X-0.5417 Y-0.794
N15160 G1 X-0.5436 Y-0.785
N15170 G1 X-0.544 Y-0.7757
N15180 G1 X-0.543 Y-0.7665
N15190 G1 X-0.5405 Y-0.7576
N15200 G1 X-0.5367 Y-0.7492
N15210 G1 X-0.5316 Y-0.7415
N15220 G1 X-0.5253 Y-0.7347
N15230 G1 X-0.5108 Y-0.7233
N15240 G1 X-0.4764 Y-0.7094
N15250 G1 X-0.441 Y-0.6987
N15260 G1 X-0.405 Y-0.6905
N15270 G1 X-0.3685 Y-0.6843
N15280 G1 X-0.3318 Y-0.6796
N15290 G1 X-0.2949 Y-0.6761
N15300 G1 X-0.258 Y-0.6735
N15310 G1 X-0.2211 Y-0.6716
N15320 G1 X-0.1345 Y-0.668
N15330 G1 X-0.0894 Y-0.6651
N15340 G1 X-0.0398 Y-0.6606
N15350 G1 X0.0015 Y-0.6557
N15360 G1 X0.044 Y-0.6492
N15370 G1 X0.0816 Y-0.642
N15380 G1 X0.1164 Y-0.634
N15390 G1 X0.1508 Y-0.6245
N15400 G1 X0.1787 Y-0.6157
N15410 G1 X0.2123 Y-0.6036
N15420 G1 X0.2434 Y-0.5907
N15430 G1 X0.273 Y-0.5767
N15440 G1 X0.2974 Y-0.5639
N15450 G1 X0.3259 Y-0.5473
N15460 G1 X0.3534 Y-0.5294
N15470 G1 X0.3754 Y-0.5137
N15480 G1 X0.4011 Y-0.4936
N15490 G1 X0.4175 Y-0.4796
N15500 G1 X0.4374 Y-0.4612
N15510 G1 X0.4603 Y-0.4381
N15520 G1 X0.4784 Y-0.4181
N15530 G1 X0.4957 Y-0.3973
N15540 G1 X0.5153 Y-0.3714
N15550 G1 X0.5306 Y-0.3491
N15560 G1 X0.5449 Y-0.3262
N15570 G1 X0.5608 Y-0.298
N15580 G1 X0.573 Y-0.2739
N15590 G1 X0.5841 Y-0.2493
N15600 G1 X0.596 Y-0.2192
N15610 G1 X0.6048 Y-0.1936
N15620 G1 X0.6125 Y-0.1677
N15630 G1 X0.6202 Y-0.1363
N15640 G1 X0.6254 Y-0.1098
N15650 G1 X0.6296 Y-0.0831
N15660 G1 X0.633 Y-0.0509
N15670 G1 X0.6346 Y-0.0239
N15680 G1 X0.6351 Y0.0031
N15690 G1 X0.6341 Y0.0355
N15700 G1 X0.632 Y0.0624
N15710 G1 X0.6288 Y0.0892
N15720 G1 X0.6234 Y0.1212
N15730 G1 X0.6177 Y0.1476
N15740 G1 X0.6109 Y0.1737
N15750 G1 X0.6029 Y0.1995
N15760 G1 X0.5939 Y0.225
N15770 G1 X0.5816 Y0.255
N15780 G1 X0.5702 Y0.2794
N15790 G1 X0.5578 Y0.3034
N15800 G1 X0.5416 Y0.3315
N15810 G1 X0.527 Y0.3542
N15820 G1 X0.5115 Y0.3763
N15830 G1 X0.4916 Y0.402
N15840 G1 X0.4741 Y0.4225
N15850 G1 X0.4557 Y0.4423
N15860 G1 X0.4325 Y0.465
N15870 G1 X0.408 Y0.4868
N15880 G1 X0.3825 Y0.5074
N15890 G1 X0.3546 Y0.5279
N15900 G1 X0.3274 Y0.5463
N15910 G1 X0.2946 Y0.5667
N15920 G1 X0.2623 Y0.5854
N15930 G1 X0.2207 Y0.6078
N15940 G1 X0.1791 Y0.6289
N15950 G1 X0.1201 Y0.6572
N15960 G1 X0.0196 Y0.7034
N15970 G1 X-0.0136 Y0.7198
N15980 G1 X-0.0463 Y0.737
N15990 G1 X-0.0785 Y0.7553
N16000 G1 X-0.11 Y0.7747
N16010 G1 X-0.141 Y0.7949
N16020 G1 X-0.1908 Y0.8286
N16030 G1 X-0.1975 Y0.8349
N16040 G1 X-0.2031 Y0.8423
N16050 G1 X-0.2075 Y0.8504
N16060 G1 X-0.2106 Y0.8592
N16070 G1 X-0.2122 Y0.8683
N16080 G1 X-0.2123 Y0.8775
N16090 G1 X-0.211 Y0.8867
N16100 G1 X-0.2083 Y0.8955
N16110 G1 X-0.2042 Y0.9038
N16120 G1 X-0.1988 Y0.9114
N16130 G1 X-0.1924 Y0.918
N16140 G1 X-0.1626 Y0.9399
N16150 G1 X-0.1274 Y0.9514
N16160 G1 X-0.0914 Y0.9598
N16170 G1 X-0.0548 Y0.9657
N16180 G1 X-0.0184 Y0.9721
N16190 G1 X0.0184 Y0.9756
N16200 G1 X0.0554 Y0.9767
N16210 G1 X0.0924 Y0.9757
N16220 G1 X0.1293 Y0.9728
N16230 G1 X0.166 Y0.9681
N16240 G1 X0.2025 Y0.9618
N16250 G1 X0.2386 Y0.9539
N16260 G1 X0.2744 Y0.9445
N16270 G1 X0.3098 Y0.9338
N16280 G1 X0.3448 Y0.9217
N16290 G1 X0.3792 Y0.9081
N16300 G1 X0.4131 Y0.8933
N16310 G1 X0.4464 Y0.8772
N16320 G1 X0.4791 Y0.8598
N16330 G1 X0.5111 Y0.8412
N16340 G1 X0.5424 Y0.8214
N16350 G1 X0.5729 Y0.8004
N16360 G1 X0.6025 Y0.7784
N16370 G1 X0.6314 Y0.7552
N16380 G1 X0.6593 Y0.731
N16390 G1 X0.6863 Y0.7056
N16400 G1 X0.7124 Y0.6794
N16410 G1 X0.7374 Y0.6521
N16420 G1 X0.7614 Y0.6239
N16430 G1 X0.7843 Y0.5949
N16440 G1 X0.8061 Y0.565
N16450 G1 X0.8272 Y0.5346
N16460 G1 X0.8477 Y0.5037
N16470 G1 X0.8671 Y0.4723
N16480 G1 X0.8852 Y0.44
N16490 G1 X0.902 Y0.407
N16500 G1 X0.9175 Y0.3734
N16510 G1 X0.9314 Y0.3391
N16520 G1 X0.9439 Y0.3043
N16530 G1 X0.9551 Y0.269
N16540 G1 X0.9648 Y0.2333
N16550 G1 X0.973 Y0.1972
N16560 G1 X0.98 Y0.1609
N16570 G1 X0.9854 Y0.1243
N16580 G1 X0.9894 Y0.0875
N16590 G1 X0.9921 Y0.0506
N16600 G1 X0.9934 Y0.0136
N16610 G1 X0.9932 Y-0.0234
N16620 G1 X0.9917 Y-0.0604
N16630 G1 X0.9888 Y-0.0972
N16640 G1 X0.9845 Y-0.134
N16650 G1 X0.9788 Y-0.1706
N16660 G1 X0.9719 Y-0.2069
N16670 G1 X0.9635 Y-0.2429
N16680 G1 X0.9537 Y-0.2786
N16690 G1 X0.9427 Y-0.314
N16700 G1 X0.9304 Y-0.3488
N16710 G1 X0.9167 Y-0.3832
N16720 G1 X0.8993 Y-0.4159
N16730 G1 X0.8815 Y-0.4484
N16740 G1 X0.863 Y-0.4804
N16750 G1 X0.8435 Y-0.5119
N16760 G1 X0.8232 Y-0.5428
N16770 G1 X0.8019 Y-0.573
N16780 G1 X0.7795 Y-0.6025
N16790 G1 X0.7562 Y-0.6312
N16800 G1 X0.7318 Y-0.659
N16810 G1 X0.7064 Y-0.686
N16820 G1 X0.6801 Y-0.712
N16830 G1 X0.6529 Y-0.737
N16840 G1 X0.6247 Y-0.761
N16850 G1 X0.5956 Y-0.7839
N16860 G1 X0.5657 Y-0.8057
N16870 G1 X0.535 Y-0.8264
N16880 G1 X0.5036 Y-0.8459
N16890 G1 X0.4715 Y-0.8642
N16900 G1 X0.4381 Y-0.8803
N16910 G1 X0.4029 Y-0.8917
N16920 G1 X0.3665 Y-0.8983
N16930 G1 X0.3296 Y-0.9012
N16940 G1 X0.2926 Y-0.9017
N16950 G1 X0.2556 Y-0.9006
N16960 G1 X0.2187 Y-0.8986
N16970 G1 X0.1449 Y-0.8929
N16980 G1 X0.0758 Y-0.8866
N16990 G1 X0.039 Y-0.8828
N17000 G1 X0.0022 Y-0.8786
N17010 G1 X-0.0344 Y-0.8738
N17020 G1 X-0.071 Y-0.8682
N17030 G1 X-0.1075 Y-0.8618
N17040 G1 X-0.1437 Y-0.8544
N17050 G1 X-0.1752 Y-0.8467
N17060 G3 X-0.1849 Y-0.8465 R0.025
N17070 G1 X-0.1888 Y-0.8472 Z-0.0747
N17080 G1 X-0.1925 Y-0.8478 Z-0.0738
N17090 G1 X-0.1961 Y-0.8485 Z-0.0723
N17100 G1 X-0.1994 Y-0.8491 Z-0.0702
N17110 G1 X-0.2023 Y-0.8496 Z-0.0677
N17120 G1 X-0.2049 Y-0.85 Z-0.0647
N17130 G1 X-0.2069 Y-0.8504 Z-0.0613
N17140 G1 X-0.2083 Y-0.8506 Z-0.0577
N17150 G1 X-0.2093 Y-0.8508 Z-0.0539
N17160 G1 X-0.2096 Z-0.05
N17170 G0 Z0.2
N17180 G0 X-0.0528 Y1.0004
N17190 G0 Z-0.025
N17200 G1 Z-0.05 F20.
N17210 G1 Y1.0001 Z-0.0539
N17220 G1 X-0.0529 Y0.9992 Z-0.0577
N17230 G1 X-0.053 Y0.9977 Z-0.0613
N17240 G1 X-0.0532 Y0.9957 Z-0.0647
N17250 G1 X-0.0534 Y0.9932 Z-0.0677
N17260 G1 X-0.0537 Y0.9902 Z-0.0702
N17270 G1 X-0.054 Y0.9869 Z-0.0723
N17280 G1 X-0.0543 Y0.9832 Z-0.0738
N17290 G1 X-0.0547 Y0.9794 Z-0.0747
N17300 G1 X-0.055 Y0.9755 Z-0.075
N17310 G3 X-0.0548 Y0.9657 R0.0456
N17320 G1 X-0.0534 Y0.9566
N17330 G1 X-0.05 Y0.9524
N17340 G1 X-0.0425 Y0.9446
N17350 G1 X-0.0342 Y0.9377
N17360 G1 X-0.0208 Y0.9286
N17370 G1 X-0.0067 Y0.9206
N17380 G1 X0.0128 Y0.9113
N17390 G1 X0.0379 Y0.9013
N17400 G1 X0.0645 Y0.8922
N17410 G1 X0.0937 Y0.8831
N17420 G1 X0.191 Y0.8548
N17430 G1 X0.2263 Y0.844
N17440 G1 X0.2614 Y0.8322
N17450 G1 X0.2961 Y0.8194
N17460 G1 X0.3304 Y0.8054
N17470 G1 X0.3641 Y0.7902
N17480 G1 X0.3972 Y0.7737
N17490 G1 X0.4297 Y0.7559
N17500 G1 X0.4614 Y0.7368
N17510 G1 X0.4923 Y0.7164
N17520 G1 X0.5223 Y0.6947
N17530 G1 X0.5513 Y0.6718
N17540 G1 X0.5794 Y0.6477
N17550 G1 X0.6064 Y0.6224
N17560 G1 X0.6323 Y0.596
N17570 G1 X0.6572 Y0.5686
N17580 G1 X0.6809 Y0.5402
N17590 G1 X0.7037 Y0.5111
N17600 G1 X0.7254 Y0.4811
N17610 G1 X0.746 Y0.4504
N17620 G1 X0.7653 Y0.4188
N17630 G1 X0.7832 Y0.3864
N17640 G1 X0.7997 Y0.3533
N17650 G1 X0.8146 Y0.3194
N17660 G1 X0.828 Y0.2849
N17670 G1 X0.8398 Y0.2499
N17680 G1 X0.8501 Y0.2143
N17690 G1 X0.8587 Y0.1783
N17700 G1 X0.8657 Y0.142
N17710 G1 X0.8712 Y0.1054
N17720 G1 X0.8751 Y0.0686
N17730 G1 X0.8773 Y0.0317
N17740 G1 X0.8779 Y-0.0053
N17750 G1 X0.877 Y-0.0423
N17760 G1 X0.8745 Y-0.0792
N17770 G1 X0.8704 Y-0.116
N17780 G1 X0.8648 Y-0.1526
N17790 G1 X0.8576 Y-0.1889
N17800 G1 X0.849 Y-0.2249
N17810 G1 X0.8385 Y-0.2603
N17820 G1 X0.8259 Y-0.2951
N17830 G1 X0.8116 Y-0.3293
N17840 G1 X0.7958 Y-0.3627
N17850 G1 X0.7788 Y-0.3956
N17860 G1 X0.7605 Y-0.4278
N17870 G1 X0.741 Y-0.4592
N17880 G1 X0.7203 Y-0.4899
N17890 G1 X0.6984 Y-0.5197
N17900 G1 X0.6754 Y-0.5487
N17910 G1 X0.6512 Y-0.5767
N17920 G1 X0.626 Y-0.6037
N17930 G1 X0.5996 Y-0.6297
N17940 G1 X0.5722 Y-0.6545
N17950 G1 X0.5438 Y-0.6782
N17960 G1 X0.5144 Y-0.7007
N17970 G1 X0.484 Y-0.7218
N17980 G1 X0.4521 Y-0.7406
N17990 G1 X0.4182 Y-0.7554
N18000 G1 X0.3828 Y-0.7663
N18010 G1 X0.3466 Y-0.7738
N18020 G1 X0.3098 Y-0.7784
N18030 G1 X0.2729 Y-0.7809
N18040 G1 X0.2313 Y-0.7817
N18050 G1 X0.2292 Y-0.7821 Z-0.0747
N18060 G1 X0.2272 Y-0.7826 Z-0.074
N18070 G1 X0.2254 Y-0.7829 Z-0.0729
N18080 G1 X0.2238 Y-0.7832 Z-0.0713
N18090 G1 X0.2227 Y-0.7835 Z-0.0695
N18100 G1 X0.222 Y-0.7838 Z-0.0674
N18110 G1 X0.2218 Z-0.0652
N18120 G0 Z0.2
N18130 G0 X-1.188 Y-0.7174
N18140 G0 Z-0.25
N18150 G1 Z-0.275 F20.
N18160 G1 X-1.1879 Y-0.7171 Z-0.2789
N18170 G1 X-1.1877 Y-0.7162 Z-0.2827
N18180 G1 X-1.1873 Y-0.7148 Z-0.2863
N18190 G1 X-1.1868 Y-0.7128 Z-0.2897
N18200 G1 X-1.1862 Y-0.7103 Z-0.2927
N18210 G1 X-1.1854 Y-0.7074 Z-0.2952
N18220 G1 X-1.1846 Y-0.7042 Z-0.2973
N18230 G1 X-1.1837 Y-0.7007 Z-0.2988
N18240 G1 X-1.1827 Y-0.697 Z-0.2997
N18250 G1 X-1.1818 Y-0.6932 Z-0.3
N18260 G3 X-1.1622 Y-0.5571 R0.6382
N18270 G1 Y-0.5478
N18280 G1 X-1.1563 Y-0.5113
N18290 G1 X-1.1515 Y-0.4981
N18300 G1 X-1.1485 Y-0.487
N18310 G1 X-1.1451 Y-0.4682
N18320 G1 X-1.1427 Y-0.4437
N18330 G1 X-1.1421 Y-0.411
N18340 G1 X-1.1444 Y-0.3741
N18350 G1 X-1.149 Y-0.3374
N18360 G1 X-1.1704 Y-0.1909
N18370 G1 X-1.1746 Y-0.1542
N18380 G1 X-1.1778 Y-0.1173
N18390 G1 X-1.1804 Y-0.0804
N18400 G1 X-1.1822 Y-0.0434
N18410 G1 X-1.1825 Y-0.0064
N18420 G1 X-1.1818 Y0.0306
N18430 G1 X-1.1803 Y0.0676
N18440 G1 X-1.1776 Y0.1045
N18450 G1 X-1.1734 Y0.1412
N18460 G1 X-1.1683 Y0.1779
N18470 G1 X-1.1624 Y0.2144
N18480 G1 X-1.1551 Y0.2507
N18490 G1 X-1.1465 Y0.2867
N18500 G1 X-1.1371 Y0.3225
N18510 G1 X-1.1264 Y0.3579
N18520 G1 X-1.1144 Y0.3929
N18530 G1 X-1.1014 Y0.4275
N18540 G1 X-1.0877 Y0.4619
N18550 G1 X-1.0729 Y0.4958
N18560 G1 X-1.0567 Y0.5291
N18570 G1 X-1.0395 Y0.5618
N18580 G1 X-1.0217 Y0.5943
N18590 G1 X-1.0026 Y0.626
N18600 G1 X-0.9823 Y0.6569
N18610 G1 X-0.9612 Y0.6873
N18620 G1 X-0.9395 Y0.7173
N18630 G1 X-0.9165 Y0.7463
N18640 G1 X-0.8926 Y0.7745
N18650 G1 X-0.8679 Y0.8021
N18660 G1 X-0.8426 Y0.829
N18670 G1 X-0.8161 Y0.8549
N18680 G1 X-0.7888 Y0.8799
N18690 G1 X-0.761 Y0.9043
N18700 G1 X-0.7324 Y0.9277
N18710 G1 X-0.7029 Y0.9501
N18720 G1 X-0.6728 Y0.9717
N18730 G1 X-0.6423 Y0.9926
N18740 G1 X-0.6324 Y0.9987
N18750 G1 X-0.6248 Y1.0043
N18760 G1 X-0.6182 Y1.0111
N18770 G1 X-0.6128 Y1.0188
N18780 G1 X-0.6097 Y1.024
N18790 G1 X-0.6013 Y1.0353
N18800 G1 X-0.5918 Y1.046
N18810 G1 X-0.5825 Y1.0544
N18820 G1 X-0.5716 Y1.0628
N18830 G1 X-0.5581 Y1.0712
N18840 G1 X-0.5004 Y1.0988
N18850 G1 X-0.4836 Y1.1065
N18860 G1 X-0.4416 Y1.1237
N18870 G1 X-0.408 Y1.1365
N18880 G1 X-0.3748 Y1.1469
N18890 G1 X-0.3492 Y1.1559
N18900 G1 X-0.3156 Y1.1654
N18910 G1 X-0.2735 Y1.1762
N18920 G1 X-0.2399 Y1.1825
N18930 G1 X-0.2063 Y1.1896
N18940 G1 X-0.1895 Y1.1928
N18950 G1 X-0.1545 Y1.1973
N18960 G1 X-0.1307 Y1.2007
N18970 G1 X-0.0971 Y1.2029
N18980 G1 X-0.0551 Y1.2065
N18990 G1 X-0.0383 Y1.2068
N19000 G1 X-0.0215
N19010 G1 X0.0038 Y1.2079
N19020 G1 X0.0626 Y1.2051
N19030 G1 X0.0878 Y1.2045
N19040 G1 X0.1466 Y1.1985
N19050 G1 X0.1718 Y1.1951
N19060 G1 X0.197 Y1.1903
N19070 G1 X0.2222 Y1.1867
N19080 G1 X0.2474 Y1.1819
N19090 G1 X0.3063 Y1.1683
N19100 G1 X0.3315 Y1.1603
N19110 G1 X0.3819 Y1.1457
N19120 G1 X0.3903 Y1.1429
N19130 G1 X0.4155 Y1.1332
N19140 G1 X0.4407 Y1.1247
N19150 G1 X0.4743 Y1.1096
N19160 G1 X0.5079 Y1.0955
N19170 G1 X0.5247 Y1.0877
N19180 G1 X0.5568 Y1.0712
N19190 G1 X0.5752 Y1.062
N19200 G1 X0.592 Y1.052
N19210 G1 X0.6088 Y1.0417
N19220 G1 X0.634 Y1.0279
N19230 G1 X0.6508 Y1.0173
N19240 G1 X0.6703 Y1.004
N19250 G1 X0.6959 Y0.9872
N19260 G1 X0.7282 Y0.962
N19270 G1 X0.7516 Y0.9448
N19280 G1 X0.7684 Y0.9317
N19290 G1 X0.802 Y0.9026
N19300 G1 X0.8114 Y0.8948
N19310 G1 X0.8628 Y0.8444
N19320 G1 X0.879 Y0.8276
N19330 G1 X0.8945 Y0.8102
N19340 G1 X0.9099 Y0.794
N19350 G1 X0.9449 Y0.751
N19360 G1 X0.9617 Y0.7308
N19370 G1 X0.9953 Y0.6834
N19380 G1 X1.0121 Y0.6583
N19390 G1 X1.0289 Y0.6307
N19400 G1 X1.0457 Y0.6047
N19410 G1 X1.0625 Y0.5723
N19420 G1 X1.0752 Y0.5504
N19430 G1 X1.1129 Y0.4688
N19440 G1 X1.1233 Y0.4412
N19450 G1 X1.1339 Y0.416
N19460 G1 X1.1382 Y0.4035
N19470 G1 X1.1475 Y0.374
N19480 G1 X1.156 Y0.3488
N19490 G1 X1.1612 Y0.332
N19500 G1 X1.1694 Y0.2984
N19510 G1 X1.1766 Y0.2732
N19520 G1 X1.188 Y0.2144
N19530 G1 X1.1914 Y0.1976
N19540 G1 X1.1928 Y0.1892
N19550 G1 X1.1956 Y0.164
N19560 G1 X1.1996 Y0.1388
N19570 G1 X1.2027 Y0.1052
N19580 G1 X1.2042 Y0.08
N19590 G1 X1.2067 Y0.0548
N19600 G1 X1.2074 Y-0.0292
N19610 G1 X1.2054 Y-0.0565
N19620 G1 X1.2048 Y-0.0797
N19630 G1 X1.202 Y-0.1133
N19640 G1 X1.1989 Y-0.1385
N19650 G1 X1.1968 Y-0.1637
N19660 G1 X1.1886 Y-0.2107
N19670 G1 X1.1821 Y-0.2477
N19680 G1 X1.1754 Y-0.2729
N19690 G1 X1.1702 Y-0.2981
N19700 G1 X1.1657 Y-0.3149
N19710 G1 X1.1531 Y-0.3569
N19720 G1 X1.1458 Y-0.3821
N19730 G1 X1.1329 Y-0.4157
N19740 G1 X1.1243 Y-0.4409
N19750 G1 X1.1063 Y-0.4829
N19760 G1 X1.0917 Y-0.5165
N19770 G1 X1.0876 Y-0.5249
N19780 G1 X1.0739 Y-0.5501
N19790 G1 X1.062 Y-0.5753
N19800 G1 X1.0326 Y-0.6257
N19810 G1 X1.0173 Y-0.6509
N19820 G1 X0.9942 Y-0.6845
N19830 G1 X0.9771 Y-0.7097
N19840 G1 X0.9533 Y-0.7403
N19850 G1 X0.9365 Y-0.7628
N19860 G1 X0.9113 Y-0.7912
N19870 G1 X0.8945 Y-0.8113
N19880 G1 X0.8861 Y-0.8208
N19890 G1 X0.8356 Y-0.8714
N19900 G1 X0.8272 Y-0.8795
N19910 G1 X0.8099 Y-0.8945
N19920 G1 X0.783 Y-0.9197
N19930 G1 X0.7408 Y-0.9533
N19940 G1 X0.7308 Y-0.9617
N19950 G1 X0.7067 Y-0.9785
N19960 G1 X0.6928 Y-0.988
N19970 G1 X0.6591 Y-1.0121
N19980 G1 X0.6307 Y-1.0289
N19990 G1 X0.6088 Y-1.0433
N20000 G1 X0.5668 Y-1.0655
N20010 G1 X0.5499 Y-1.0748
N20020 G1 X0.5243 Y-1.0877
N20030 G1 X0.4995 Y-1.0987
N20040 G1 X0.4692 Y-1.1129
N20050 G1 X0.4407 Y-1.1233
N20060 G1 X0.4155 Y-1.1337
N20070 G1 X0.3819 Y-1.1453
N20080 G1 X0.3315 Y-1.1614
N20090 G1 X0.3063 Y-1.1672
N20100 G1 X0.2573 Y-1.1802
N20110 G1 X0.2222 Y-1.1863
N20120 G1 X0.197 Y-1.1917
N20130 G1 X0.1466 Y-1.198
N20140 G1 X0.113 Y-1.2026
N20150 G1 X0.0878 Y-1.2037
N20160 G1 X0.0626 Y-1.206
N20170 G1 X0.0458 Y-1.2066
N20180 G1 X0.0038 Y-1.2067
N20190 G1 X-0.0215 Y-1.2075
N20200 G1 X-0.0887 Y-1.2042
N20210 G1 X-0.1055 Y-1.203
N20220 G1 X-0.1307 Y-1.1995
N20230 G1 X-0.1643 Y-1.1962
N20240 G1 X-0.1895 Y-1.1926
N20250 G1 X-0.2231 Y-1.1865
N20260 G1 X-0.2399 Y-1.1837
N20270 G1 X-0.2567 Y-1.1797
N20280 G1 X-0.2819 Y-1.1734
N20290 G1 X-0.325 Y-1.1634
N20300 G1 X-0.3504 Y-1.155
N20310 G1 X-0.3802 Y-1.1466
N20320 G1 X-0.4248 Y-1.1296
N20330 G1 X-0.4584 Y-1.1174
N20340 G1 X-0.4752 Y-1.1099
N20350 G1 X-0.492 Y-1.1022
N20360 G1 X-0.5172 Y-1.0916
N20370 G1 X-0.5592 Y-1.0692
N20380 G1 X-0.576 Y-1.0609
N20390 G1 X-0.6013 Y-1.0473
N20400 G1 X-0.6517 Y-1.0166
N20410 G1 X-0.6853 Y-0.9932
N20420 G1 X-0.7105 Y-0.9767
N20430 G1 X-0.7403 Y-0.9533
N20440 G1 X-0.7629 Y-0.9365
N20450 G1 X-0.7945 Y-0.908
N20460 G1 X-0.8205 Y-0.8861
N20470 G1 X-0.8298 Y-0.8777
N20480 G1 X-0.8459 Y-0.8609
N20490 G1 X-0.872 Y-0.8357
N20500 G1 X-0.929 Y-0.7721
N20510 G1 X-0.9376 Y-0.7601
N20520 G1 X-0.9458 Y-0.7461
N20530 G1 X-0.9471 Y-0.7433
N20540 G1 X-0.9637 Y-0.7102
N20550 G1 X-0.999 Y-0.6452
N20560 G1 X-1.0149 Y-0.6118
N20570 G1 X-1.0242 Y-0.576
N20580 G1 X-1.0298 Y-0.5394
N20590 G1 X-1.0335 Y-0.5026
N20600 G1 X-1.0398 Y-0.4288
N20610 G1 X-1.0436 Y-0.392
N20620 G1 X-1.0525 Y-0.3186
N20630 G1 X-1.0621 Y-0.2452
N20640 G1 X-1.0665 Y-0.2085
N20650 G1 X-1.0705 Y-0.1717
N20660 G1 X-1.0739 Y-0.1348
N20670 G1 X-1.0765 Y-0.0979
N20680 G1 X-1.0781 Y-0.0609
N20690 G1 X-1.0788 Y-0.0239
N20700 G1 X-1.0784 Y0.0131
N20710 G1 X-1.0768 Y0.05
N20720 G1 X-1.0741 Y0.0869
N20730 G1 X-1.0702 Y0.1237
N20740 G1 X-1.0652 Y0.1604
N20750 G1 X-1.0589 Y0.1969
N20760 G1 X-1.0515 Y0.2331
N20770 G1 X-1.0427 Y0.2691
N20780 G1 X-1.0327 Y0.3047
N20790 G1 X-1.0216 Y0.34
N20800 G1 X-1.0094 Y0.3749
N20810 G1 X-0.9959 Y0.4093
N20820 G1 X-0.9812 Y0.4433
N20830 G1 X-0.9654 Y0.4768
N20840 G1 X-0.9484 Y0.5097
N20850 G1 X-0.9303 Y0.5419
N20860 G1 X-0.9112 Y0.5736
N20870 G1 X-0.891 Y0.6046
N20880 G1 X-0.8697 Y0.6349
N20890 G1 X-0.8474 Y0.6644
N20900 G1 X-0.8241 Y0.6931
N20910 G1 X-0.7998 Y0.721
N20920 G1 X-0.7745 Y0.748
N20930 G1 X-0.7483 Y0.7742
N20940 G1 X-0.7213 Y0.7995
N20950 G1 X-0.6934 Y0.8238
N20960 G1 X-0.6647 Y0.8472
N20970 G1 X-0.6518 Y0.8572
N20980 G1 X-0.6425 Y0.8662
N20990 G1 X-0.6354 Y0.877
N21000 G1 X-0.6309 Y0.889
N21010 G1 X-0.6292 Y0.9018
N21020 G1 X-0.6303 Y0.9147
N21030 G1 X-0.6329 Y0.9284
N21040 G1 X-0.6333 Y0.951
N21050 G1 X-0.6331 Y0.955
N21060 G1 X-0.6307 Y0.9718
N21070 G1 X-0.6288 Y0.9802
N21080 G1 X-0.6239 Y0.9956
N21090 G1 X-0.6192 Y1.007
N21100 G1 X-0.6154 Y1.0144
N21110 G1 X-0.6128 Y1.0188
N21120 G3 X-0.6099 Y1.0281 R0.025
N21130 G1 X-0.6095 Y1.032 Z-0.2997
N21140 G1 X-0.6091 Y1.0358 Z-0.2988
N21150 G1 X-0.6088 Y1.0394 Z-0.2973
N21160 G1 X-0.6084 Y1.0427 Z-0.2952
N21170 G1 X-0.6081 Y1.0457 Z-0.2927
N21180 G1 X-0.6078 Y1.0482 Z-0.2897
N21190 G1 X-0.6076 Y1.0502 Z-0.2863
N21200 G1 X-0.6075 Y1.0517 Z-0.2827
N21210 G1 X-0.6074 Y1.0526 Z-0.2789
N21220 G1 X-0.6073 Y1.053 Z-0.275
N21230 G0 Z0.2
N21240 G0 X-0.9707 Y-0.7667
N21250 G0 Z-0.25
N21260 G1 Z-0.275 F20.
N21270 G1 X-0.9705 Y-0.7665 Z-0.2789
N21280 G1 X-0.9697 Y-0.766 Z-0.2827
N21290 G1 X-0.9685 Y-0.7651 Z-0.2863
N21300 G1 X-0.9668 Y-0.764 Z-0.2897
N21310 G1 X-0.9647 Y-0.7626 Z-0.2927
N21320 G1 X-0.9622 Y-0.7609 Z-0.2952
N21330 G1 X-0.9594 Y-0.759 Z-0.2973
N21340 G1 X-0.9564 Y-0.757 Z-0.2988
N21350 G1 X-0.9532 Y-0.7549 Z-0.2997
N21360 G1 X-0.95 Y-0.7527 Z-0.3
N21370 G3 X-0.9471 Y-0.7433 R0.0078
N21380 G1 X-0.9508 Y-0.7349
N21390 G1 X-0.9542 Y-0.7256
N21400 G1 X-0.9562 Y-0.7181
N21410 G1 X-0.9596 Y-0.7013
N21420 G1 X-0.9605 Y-0.6929
N21430 G1 X-0.9611 Y-0.6761
N21440 G1 X-0.9604 Y-0.6677
N21450 G1 X-0.9581 Y-0.6509
N21460 G1 X-0.9558 Y-0.6425
N21470 G1 X-0.9516 Y-0.6254
N21480 G1 X-0.9457 Y-0.5892
N21490 G1 X-0.9427 Y-0.5523
N21500 G1 X-0.9416 Y-0.5153
N21510 G1 X-0.942 Y-0.4783
N21520 G1 X-0.9435 Y-0.4413
N21530 G1 X-0.946 Y-0.4044
N21540 G1 X-0.9491 Y-0.3675
N21550 G1 X-0.9567 Y-0.2939
N21560 G1 X-0.9645 Y-0.2203
N21570 G1 X-0.968 Y-0.1835
N21580 G1 X-0.971 Y-0.1466
N21590 G1 X-0.9733 Y-0.1097
N21600 G1 X-0.9748 Y-0.0727
N21610 G1 X-0.9753 Y-0.0357
N21620 G1 X-0.9747 Y0.0013
N21630 G1 X-0.9731 Y0.0383
N21640 G1 X-0.9702 Y0.0752
N21650 G1 X-0.9661 Y0.1119
N21660 G1 X-0.9608 Y0.1486
N21670 G1 X-0.9541 Y0.185
N21680 G1 X-0.9462 Y0.2211
N21690 G1 X-0.937 Y0.2569
N21700 G1 X-0.9264 Y0.2924
N21710 G1 X-0.9145 Y0.3274
N21720 G1 X-0.9012 Y0.362
N21730 G1 X-0.8867 Y0.396
N21740 G1 X-0.871 Y0.4295
N21750 G1 X-0.854 Y0.4624
N21760 G1 X-0.8358 Y0.4946
N21770 G1 X-0.8163 Y0.5261
N21780 G1 X-0.7957 Y0.5568
N21790 G1 X-0.7739 Y0.5867
N21800 G1 X-0.751 Y0.6157
N21810 G1 X-0.727 Y0.6439
N21820 G1 X-0.7019 Y0.6711
N21830 G1 X-0.6759 Y0.6974
N21840 G1 X-0.6489 Y0.7227
N21850 G1 X-0.6223 Y0.7484
N21860 G1 X-0.6057 Y0.7673
N21870 G1 X-0.5975 Y0.7781
N21880 G1 X-0.5909 Y0.7894
N21890 G1 X-0.5869 Y0.8019
N21900 G1 X-0.5859 Y0.815
N21910 G1 X-0.5878 Y0.828
N21920 G1 X-0.5925 Y0.8402
N21930 G1 X-0.5999 Y0.8511
N21940 G3 X-0.6077 Y0.8568 R0.025
N21950 G1 X-0.6113 Y0.8585 Z-0.2997
N21960 G1 X-0.6147 Y0.8601 Z-0.2988
N21970 G1 X-0.618 Y0.8616 Z-0.2973
N21980 G1 X-0.6211 Y0.863 Z-0.2952
N21990 G1 X-0.6238 Y0.8643 Z-0.2927
N22000 G1 X-0.6261 Y0.8653 Z-0.2897
N22010 G1 X-0.6279 Y0.8662 Z-0.2863
N22020 G1 X-0.6293 Y0.8668 Z-0.2827
N22030 G1 X-0.6301 Y0.8672 Z-0.2789
N22040 G1 X-0.6304 Y0.8674 Z-0.275
N22050 G0 Z0.2
N22060 G0 X-0.989 Y-0.6449
N22070 G0 Z-0.25
N22080 G1 Z-0.275 F20.
N22090 G1 X-0.9886 Z-0.2789
N22100 G1 X-0.9877 Y-0.645 Z-0.2827
N22110 G1 X-0.9862 Y-0.6452 Z-0.2863
N22120 G1 X-0.9842 Y-0.6454 Z-0.2897
N22130 G1 X-0.9817 Y-0.6457 Z-0.2927
N22140 G1 X-0.9787 Y-0.6461 Z-0.2952
N22150 G1 X-0.9754 Y-0.6465 Z-0.2973
N22160 G1 X-0.9718 Y-0.6469 Z-0.2988
N22170 G1 X-0.968 Y-0.6473 Z-0.2997
N22180 G1 X-0.9641 Y-0.6478 Z-0.3
N22190 G3 X-0.9558 Y-0.6425 R0.0078
N22200 G1 X-0.9505 Y-0.6257
N22210 G1 X-0.9458 Y-0.6154
N22220 G1 X-0.937 Y-0.6005
N22230 G1 X-0.929 Y-0.5895
N22240 G1 X-0.9206 Y-0.58
N22250 G1 X-0.9178 Y-0.5774
N22260 G1 X-0.9137 Y-0.5731
N22270 G1 X-0.9072 Y-0.5651
N22280 G1 X-0.9005 Y-0.5555
N22290 G1 X-0.8935 Y-0.5434
N22300 G1 X-0.8864 Y-0.5284
N22310 G1 X-0.8792 Y-0.5096
N22320 G1 X-0.8725 Y-0.4863
N22330 G1 X-0.8662 Y-0.4559
N22340 G1 X-0.8617 Y-0.4192
N22350 G1 X-0.8598 Y-0.3822
N22360 G1 Y-0.3452
N22370 G1 X-0.8609 Y-0.3082
N22380 G1 X-0.8652 Y-0.2343
N22390 G1 X-0.8697 Y-0.1605
N22400 G1 X-0.8714 Y-0.1235
N22410 G1 X-0.8724 Y-0.0865
N22420 G1 X-0.8725 Y-0.0495
N22430 G1 X-0.8717 Y-0.0125
N22440 G1 X-0.8698 Y0.0244
N22450 G1 X-0.8666 Y0.0613
N22460 G1 X-0.8622 Y0.098
N22470 G1 X-0.8565 Y0.1346
N22480 G1 X-0.8494 Y0.1709
N22490 G1 X-0.841 Y0.2069
N22500 G1 X-0.831 Y0.2426
N22510 G1 X-0.8197 Y0.2778
N22520 G1 X-0.8068 Y0.3125
N22530 G1 X-0.7926 Y0.3467
N22540 G1 X-0.777 Y0.3802
N22550 G1 X-0.7599 Y0.413
N22560 G1 X-0.7416 Y0.4452
N22570 G1 X-0.7218 Y0.4765
N22580 G1 X-0.7008 Y0.5069
N22590 G1 X-0.6784 Y0.5364
N22600 G1 X-0.6549 Y0.5649
N22610 G1 X-0.6303 Y0.5926
N22620 G1 X-0.6052 Y0.6197
N22630 G1 X-0.5803 Y0.6472
N22640 G1 X-0.5603 Y0.6716
N22650 G1 X-0.5464 Y0.6915
N22660 G1 X-0.5366 Y0.7083
N22670 G1 X-0.529 Y0.7241
N22680 G1 X-0.5232 Y0.7391
N22690 G1 X-0.5224 Y0.742
N22700 G1 X-0.5202 Y0.7539
N22710 G1 X-0.5205 Y0.766
N22720 G1 X-0.5233 Y0.7778
N22730 G1 X-0.5285 Y0.7888
N22740 G1 X-0.5358 Y0.7984
N22750 G1 X-0.545 Y0.8064
N22760 G1 X-0.5751 Y0.8276
N22770 G3 X-0.5841 Y0.8315 R0.025
N22780 G1 X-0.5879 Y0.8323 Z-0.2997
N22790 G1 X-0.5916 Y0.8331 Z-0.2988
N22800 G1 X-0.5952 Y0.8338 Z-0.2973
N22810 G1 X-0.5985 Y0.8345 Z-0.2952
N22820 G1 X-0.6014 Y0.8351 Z-0.2927
N22830 G1 X-0.6039 Y0.8357 Z-0.2897
N22840 G1 X-0.6059 Y0.8361 Z-0.2863
N22850 G1 X-0.6073 Y0.8364 Z-0.2827
N22860 G1 X-0.6082 Y0.8366 Z-0.2789
N22870 G1 X-0.6085 Y0.8367 Z-0.275
N22880 G0 Z0.2
N22890 G0 X-0.9477 Y-0.5629
N22900 G0 Z-0.25
N22910 G1 Z-0.275 F20.
N22920 G1 X-0.9475 Y-0.5631 Z-0.2789
N22930 G1 X-0.9467 Y-0.5637 Z-0.2827
N22940 G1 X-0.9455 Y-0.5646 Z-0.2863
N22950 G1 X-0.9439 Y-0.5658 Z-0.2897
N22960 G1 X-0.9418 Y-0.5673 Z-0.2927
N22970 G1 X-0.9394 Y-0.5691 Z-0.2952
N22980 G1 X-0.9367 Y-0.5711 Z-0.2973
N22990 G1 X-0.9338 Y-0.5732 Z-0.2988
N23000 G1 X-0.9308 Y-0.5755 Z-0.2997
N23010 G1 X-0.9276 Y-0.5778 Z-0.3
N23020 G3 X-0.9178 Y-0.5774 R0.0078
N23030 G1 X-0.9038 Y-0.5651
N23040 G1 X-0.887 Y-0.5541
N23050 G1 X-0.8785 Y-0.5498
N23060 G1 X-0.8701 Y-0.5462
N23070 G1 X-0.8652 Y-0.544
N23080 G1 X-0.8586 Y-0.5399
N23090 G1 X-0.8514 Y-0.5346
N23100 G1 X-0.8443 Y-0.5285
N23110 G1 X-0.8363 Y-0.5204
N23120 G1 X-0.828 Y-0.5104
N23130 G1 X-0.8199 Y-0.4989
N23140 G1 X-0.8111 Y-0.4842
N23150 G1 X-0.8029 Y-0.4674
N23160 G1 X-0.7945 Y-0.4459
N23170 G1 X-0.7864 Y-0.4194
N23180 G1 X-0.779 Y-0.3853
N23190 G1 X-0.7741 Y-0.3487
N23200 G1 X-0.7714 Y-0.3118
N23210 G1 X-0.7703 Y-0.2748
N23220 G1 X-0.7702 Y-0.2378
N23230 G1 X-0.7715 Y-0.1268
N23240 G1 X-0.7714 Y-0.0898
N23250 G1 X-0.7705 Y-0.0528
N23260 G1 X-0.7688 Y-0.0158
N23270 G1 X-0.7661 Y0.0211
N23280 G1 X-0.7621 Y0.0579
N23290 G1 X-0.7568 Y0.0945
N23300 G1 X-0.7501 Y0.1309
N23310 G1 X-0.7419 Y0.167
N23320 G1 X-0.7322 Y0.2027
N23330 G1 X-0.7209 Y0.2379
N23340 G1 X-0.708 Y0.2726
N23350 G1 X-0.6936 Y0.3067
N23360 G1 X-0.6777 Y0.3401
N23370 G1 X-0.6601 Y0.3727
N23380 G1 X-0.641 Y0.4044
N23390 G1 X-0.6205 Y0.4351
N23400 G1 X-0.5986 Y0.465
N23410 G1 X-0.5758 Y0.4941
N23420 G1 X-0.5292 Y0.5516
N23430 G1 X-0.5068 Y0.5811
N23440 G1 X-0.486 Y0.6117
N23450 G1 X-0.4717 Y0.6362
N23460 G1 X-0.4624 Y0.6559
N23470 G1 X-0.4553 Y0.6745
N23480 G1 X-0.4506 Y0.6904
N23490 G1 X-0.4493 Y0.6966
N23500 G1 X-0.4481 Y0.7079
N23510 G1 X-0.4491 Y0.7192
N23520 G1 X-0.4523 Y0.7301
N23530 G1 X-0.4575 Y0.7401
N23540 G1 X-0.4645 Y0.749
N23550 G1 X-0.4731 Y0.7563
N23560 G1 X-0.545 Y0.8064
N23570 G3 X-0.5541 Y0.8099 R0.025
N23580 G1 X-0.5579 Y0.8106 Z-0.2997
N23590 G1 X-0.5617 Y0.8113 Z-0.2988
N23600 G1 X-0.5653 Y0.812 Z-0.2973
N23610 G1 X-0.5685 Y0.8126 Z-0.2952
N23620 G1 X-0.5715 Y0.8131 Z-0.2927
N23630 G1 X-0.574 Y0.8136 Z-0.2897
N23640 G1 X-0.576 Y0.8139 Z-0.2863
N23650 G1 X-0.5775 Y0.8142 Z-0.2827
N23660 G1 X-0.5784 Y0.8144 Z-0.2789
N23670 G1 X-0.5787 Z-0.275
N23680 G0 Z0.2
N23690 G0 X-0.8917 Y-0.5209
N23700 G0 Z-0.25
N23710 G1 Z-0.275 F20.
N23720 G1 X-0.8916 Y-0.5212 Z-0.2789
N23730 G1 X-0.8911 Y-0.522 Z-0.2827
N23740 G1 X-0.8904 Y-0.5233 Z-0.2863
N23750 G1 X-0.8893 Y-0.5251 Z-0.2897
N23760 G1 X-0.8881 Y-0.5273 Z-0.2927
N23770 G1 X-0.8866 Y-0.5299 Z-0.2952
N23780 G1 X-0.8849 Y-0.5328 Z-0.2973
N23790 G1 X-0.8831 Y-0.5359 Z-0.2988
N23800 G1 X-0.8812 Y-0.5392 Z-0.2997
N23810 G1 X-0.8793 Y-0.5426 Z-0.3
N23820 G3 X-0.8701 Y-0.5462 R0.0078
N23830 G1 X-0.8573 Y-0.5417
N23840 G1 X-0.8203 Y-0.5333
N23850 G1 X-0.8104 Y-0.5307
N23860 G1 X-0.8038 Y-0.5283
N23870 G1 X-0.7962 Y-0.5249
N23880 G1 X-0.7885 Y-0.5207
N23890 G1 X-0.7799 Y-0.5151
N23900 G1 X-0.7709 Y-0.5081
N23910 G1 X-0.7618 Y-0.4996
N23920 G1 X-0.7516 Y-0.4886
N23930 G1 X-0.742 Y-0.4765
N23940 G1 X-0.7316 Y-0.461
N23950 G1 X-0.7217 Y-0.4431
N23960 G1 X-0.7115 Y-0.4207
N23970 G1 X-0.7018 Y-0.3938
N23980 G1 X-0.6924 Y-0.3593
N23990 G1 X-0.6856 Y-0.3229
N24000 G1 X-0.681 Y-0.2862
N24010 G1 X-0.678 Y-0.2493
N24020 G1 X-0.676 Y-0.2124
N24030 G1 X-0.6719 Y-0.1014
N24040 G1 X-0.6699 Y-0.0645
N24050 G1 X-0.6673 Y-0.0276
N24060 G1 X-0.6636 Y0.0092
N24070 G1 X-0.6587 Y0.0459
N24080 G1 X-0.6525 Y0.0824
N24090 G1 X-0.6449 Y0.1186
N24100 G1 X-0.6356 Y0.1544
N24110 G1 X-0.6246 Y0.1898
N24120 G1 X-0.612 Y0.2246
N24130 G1 X-0.5976 Y0.2586
N24140 G1 X-0.5815 Y0.2919
N24150 G1 X-0.5636 Y0.3244
N24160 G1 X-0.5443 Y0.3559
N24170 G1 X-0.5238 Y0.3867
N24180 G1 X-0.5024 Y0.4169
N24190 G1 X-0.4592 Y0.477
N24200 G1 X-0.4382 Y0.5075
N24210 G1 X-0.4185 Y0.5388
N24220 G1 X-0.4005 Y0.5711
N24230 G1 X-0.3886 Y0.5971
N24240 G1 X-0.3811 Y0.6176
N24250 G1 X-0.376 Y0.6363
N24260 G1 X-0.3742 Y0.6454
N24270 G1 X-0.3732 Y0.6565
N24280 G1 X-0.3743 Y0.6676
N24290 G1 X-0.3775 Y0.6783
N24300 G1 X-0.3827 Y0.6882
N24310 G1 X-0.3897 Y0.6969
N24320 G1 X-0.3982 Y0.7042
N24330 G1 X-0.4731 Y0.7563
N24340 G3 X-0.4822 Y0.7599 R0.025
N24350 G1 X-0.4861 Y0.7606 Z-0.2997
N24360 G1 X-0.4898 Y0.7613 Z-0.2988
N24370 G1 X-0.4934 Y0.7619 Z-0.2973
N24380 G1 X-0.4967 Y0.7625 Z-0.2952
N24390 G1 X-0.4996 Y0.7631 Z-0.2927
N24400 G1 X-0.5021 Y0.7635 Z-0.2897
N24410 G1 X-0.5041 Y0.7639 Z-0.2863
N24420 G1 X-0.5056 Y0.7642 Z-0.2827
N24430 G1 X-0.5065 Y0.7643 Z-0.2789
N24440 G1 X-0.5068 Y0.7644 Z-0.275
N24450 G0 Z0.2
N24460 G0 X-0.8383 Y-0.5054
N24470 G0 Z-0.25
N24480 G1 Z-0.275 F20.
N24490 G1 X-0.8382 Y-0.5057 Z-0.2789
N24500 G1 X-0.8379 Y-0.5065 Z-0.2827
N24510 G1 X-0.8373 Y-0.5079 Z-0.2863
N24520 G1 X-0.8365 Y-0.5098 Z-0.2897
N24530 G1 X-0.8356 Y-0.5122 Z-0.2927
N24540 G1 X-0.8344 Y-0.5149 Z-0.2952
N24550 G1 X-0.8332 Y-0.518 Z-0.2973
N24560 G1 X-0.8318 Y-0.5214 Z-0.2988
N24570 G1 X-0.8304 Y-0.5249 Z-0.2997
N24580 G1 X-0.8289 Y-0.5286 Z-0.3
N24590 G3 X-0.8203 Y-0.5333 R0.0078
N24600 G1 X-0.7441 Y-0.517
N24610 G1 X-0.7325 Y-0.514
N24620 G1 X-0.725 Y-0.5113
N24630 G1 X-0.7163 Y-0.5074
N24640 G1 X-0.7075 Y-0.5026
N24650 G1 X-0.6978 Y-0.4962
N24660 G1 X-0.6876 Y-0.4883
N24670 G1 X-0.6772 Y-0.4787
N24680 G1 X-0.6657 Y-0.4663
N24690 G1 X-0.6549 Y-0.4526
N24700 G1 X-0.6431 Y-0.4349
N24710 G1 X-0.6319 Y-0.4147
N24720 G1 X-0.6204 Y-0.3894
N24730 G1 X-0.6089 Y-0.3578
N24740 G1 X-0.5992 Y-0.3221
N24750 G1 X-0.592 Y-0.2858
N24760 G1 X-0.5865 Y-0.2492
N24770 G1 X-0.5824 Y-0.2124
N24780 G1 X-0.5759 Y-0.1387
N24790 G1 X-0.5693 Y-0.065
N24800 G1 X-0.5651 Y-0.0282
N24810 G1 X-0.56 Y0.0084
N24820 G1 X-0.5535 Y0.0449
N24830 G1 X-0.5456 Y0.081
N24840 G1 X-0.536 Y0.1167
N24850 G1 X-0.5246 Y0.152
N24860 G1 X-0.5115 Y0.1865
N24870 G1 X-0.4965 Y0.2204
N24880 G1 X-0.4798 Y0.2534
N24890 G1 X-0.4617 Y0.2857
N24900 G1 X-0.4425 Y0.3173
N24910 G1 X-0.3823 Y0.4105
N24920 G1 X-0.3627 Y0.4419
N24930 G1 X-0.3441 Y0.4739
N24940 G1 X-0.3269 Y0.5067
N24950 G1 X-0.3132 Y0.5375
N24960 G1 X-0.3048 Y0.5611
N24970 G1 X-0.2994 Y0.5816
N24980 G1 X-0.2974 Y0.5925
N24990 G1 X-0.2965 Y0.6035
N25000 G1 X-0.2977 Y0.6146
N25010 G1 X-0.3009 Y0.6252
N25020 G1 X-0.3061 Y0.6349
N25030 G1 X-0.313 Y0.6436
N25040 G1 X-0.3215 Y0.6508
N25050 G1 X-0.3982 Y0.7042
N25060 G3 X-0.4073 Y0.7078 R0.025
N25070 G1 X-0.4111 Y0.7085 Z-0.2997
N25080 G1 X-0.4149 Y0.7091 Z-0.2988
N25090 G1 X-0.4185 Y0.7098 Z-0.2973
N25100 G1 X-0.4217 Y0.7104 Z-0.2952
N25110 G1 X-0.4247 Y0.7109 Z-0.2927
N25120 G1 X-0.4272 Y0.7114 Z-0.2897
N25130 G1 X-0.4292 Y0.7118 Z-0.2863
N25140 G1 X-0.4307 Y0.712 Z-0.2827
N25150 G1 X-0.4316 Y0.7122 Z-0.2789
N25160 G1 X-0.4319 Z-0.275
N25170 G0 Z0.2
N25180 G0 X-0.7621 Y-0.4892
N25190 G0 Z-0.25
N25200 G1 Z-0.275 F20.
N25210 G1 X-0.762 Y-0.4894 Z-0.2789
N25220 G1 X-0.7617 Y-0.4903 Z-0.2827
N25230 G1 X-0.7611 Y-0.4917 Z-0.2863
N25240 G1 X-0.7603 Y-0.4936 Z-0.2897
N25250 G1 X-0.7594 Y-0.4959 Z-0.2927
N25260 G1 X-0.7583 Y-0.4987 Z-0.2952
N25270 G1 X-0.757 Y-0.5018 Z-0.2973
N25280 G1 X-0.7556 Y-0.5051 Z-0.2988
N25290 G1 X-0.7542 Y-0.5087 Z-0.2997
N25300 G1 X-0.7527 Y-0.5123 Z-0.3
N25310 G3 X-0.7441 Y-0.517 R0.0078
N25320 G1 X-0.6601 Y-0.4991
N25330 G1 X-0.6482 Y-0.4959
N25340 G1 X-0.6398 Y-0.493
N25350 G1 X-0.631 Y-0.489
N25360 G1 X-0.6209 Y-0.4835
N25370 G1 X-0.611 Y-0.477
N25380 G1 X-0.5999 Y-0.4683
N25390 G1 X-0.5885 Y-0.4579
N25400 G1 X-0.5767 Y-0.4452
N25410 G1 X-0.5643 Y-0.4295
N25420 G1 X-0.5518 Y-0.4107
N25430 G1 X-0.5392 Y-0.388
N25440 G1 X-0.5263 Y-0.3595
N25450 G1 X-0.5137 Y-0.3247
N25460 G1 X-0.5038 Y-0.2891
N25470 G1 X-0.496 Y-0.2529
N25480 G1 X-0.4896 Y-0.2165
N25490 G1 X-0.4842 Y-0.1799
N25500 G1 X-0.4744 Y-0.1065
N25510 G1 X-0.4693 Y-0.0699
N25520 G1 X-0.4633 Y-0.0333
N25530 G1 X-0.4564 Y0.003
N25540 G1 X-0.448 Y0.0391
N25550 G1 X-0.438 Y0.0747
N25560 G1 X-0.4263 Y0.1098
N25570 G1 X-0.4127 Y0.1442
N25580 G1 X-0.3976 Y0.178
N25590 G1 X-0.381 Y0.211
N25600 G1 X-0.3633 Y0.2436
N25610 G1 X-0.3449 Y0.2757
N25620 G1 X-0.3073 Y0.3394
N25630 G1 X-0.2888 Y0.3714
N25640 G1 X-0.271 Y0.4039
N25650 G1 X-0.2542 Y0.4368
N25660 G1 X-0.2391 Y0.4706
N25670 G1 X-0.2287 Y0.4991
N25680 G1 X-0.2225 Y0.5211
N25690 G1 X-0.2187 Y0.542
N25700 G1 X-0.2186 Y0.5545
N25710 G1 X-0.2212 Y0.5667
N25720 G1 X-0.2264 Y0.5781
N25730 G1 X-0.2339 Y0.5881
N25740 G1 X-0.2433 Y0.5963
N25750 G1 X-0.3215 Y0.6508
N25760 G3 X-0.359 Y0.6369 R0.025
N25770 G1 X-0.6884 Y-0.4674
N25780 G3 X-0.6601 Y-0.4991 R0.025
N25790 G1 X-0.5676 Y-0.4794
N25800 G1 X-0.56 Y-0.4774
N25810 G1 X-0.551 Y-0.4742
N25820 G1 X-0.5418 Y-0.4701
N25830 G1 X-0.5316 Y-0.4645
N25840 G1 X-0.5205 Y-0.4572
N25850 G1 X-0.5094 Y-0.4485
N25860 G1 X-0.4967 Y-0.4369
N25870 G1 X-0.4846 Y-0.4238
N25880 G1 X-0.471 Y-0.4067
N25890 G1 X-0.4579 Y-0.3869
N25900 G1 X-0.4439 Y-0.3617
N25910 G1 X-0.4294 Y-0.3297
N25920 G1 X-0.4168 Y-0.2949
N25930 G1 X-0.4065 Y-0.2594
N25940 G1 X-0.3979 Y-0.2234
N25950 G1 X-0.3903 Y-0.1872
N25960 G1 X-0.3695 Y-0.0781
N25970 G1 X-0.3616 Y-0.042
N25980 G1 X-0.3526 Y-0.0061
N25990 G1 X-0.342 Y0.0294
N26000 G1 X-0.3299 Y0.0643
N26010 G1 X-0.3163 Y0.0987
N26020 G1 X-0.3013 Y0.1326
N26030 G1 X-0.2852 Y0.1659
N26040 G1 X-0.2683 Y0.1988
N26050 G1 X-0.2157 Y0.2965
N26060 G1 X-0.1985 Y0.3293
N26070 G1 X-0.1821 Y0.3625
N26080 G1 X-0.1668 Y0.3962
N26090 G1 X-0.1534 Y0.4307
N26100 G1 X-0.1454 Y0.4567
N26110 G1 X-0.1409 Y0.4773
N26120 G1 X-0.1384 Y0.4957
N26130 G1 X-0.1382 Y0.4994
N26140 G1 X-0.1387 Y0.5113
N26150 G1 X-0.1417 Y0.5228
N26160 G1 X-0.1469 Y0.5335
N26170 G1 X-0.1543 Y0.5429
N26180 G1 X-0.1633 Y0.5507
N26190 G1 X-0.1738 Y0.5564
N26200 G1 X-0.1895 Y0.5634
N26210 G1 X-0.2063 Y0.5714
N26220 G1 X-0.2256 Y0.584
N26230 G1 X-0.2433 Y0.5963
N26240 G3 X-0.2808 Y0.5826 R0.025
N26250 G1 X-0.5959 Y-0.4475
N26260 G3 X-0.5676 Y-0.4794 R0.025
N26270 G1 X-0.4752 Y-0.4597
N26280 G1 X-0.4685 Y-0.4579
N26290 G1 X-0.4594 Y-0.4547
N26300 G1 X-0.4495 Y-0.4502
N26310 G1 X-0.4393 Y-0.4446
N26320 G1 X-0.4275 Y-0.4369
N26330 G1 X-0.4158 Y-0.4278
N26340 G1 X-0.403 Y-0.416
N26350 G1 X-0.3897 Y-0.4017
N26360 G1 X-0.3756 Y-0.3838
N26370 G1 X-0.3612 Y-0.3622
N26380 G1 X-0.3457 Y-0.3343
N26390 G1 X-0.3304 Y-0.3006
N26400 G1 X-0.3175 Y-0.2659
N26410 G1 X-0.3066 Y-0.2306
N26420 G1 X-0.2968 Y-0.1949
N26430 G1 X-0.2787 Y-0.1231
N26440 G1 X-0.2694 Y-0.0873
N26450 G1 X-0.2592 Y-0.0517
N26460 G1 X-0.2479 Y-0.0165
N26470 G1 X-0.2354 Y0.0183
N26480 G1 X-0.2217 Y0.0527
N26490 G1 X-0.2069 Y0.0866
N26500 G1 X-0.1914 Y0.1202
N26510 G1 X-0.1752 Y0.1535
N26520 G1 X-0.1254 Y0.2527
N26530 G1 X-0.1094 Y0.2861
N26540 G1 X-0.0941 Y0.3198
N26550 G1 X-0.0802 Y0.354
N26560 G1 X-0.0682 Y0.3891
N26570 G1 X-0.0613 Y0.4157
N26580 G1 X-0.0576 Y0.4366
N26590 G1 X-0.0558 Y0.4552
N26600 G1 X-0.0557 Y0.4672
N26610 G1 X-0.0567 Y0.4787
N26620 G1 X-0.0599 Y0.4897
N26630 G1 X-0.0652 Y0.4999
N26640 G1 X-0.0724 Y0.5089
N26650 G1 X-0.0813 Y0.5163
N26660 G1 X-0.0914 Y0.5217
N26670 G1 X-0.1738 Y0.5564
N26680 G3 X-0.2066 Y0.5403 R0.025
N26690 G1 X-0.5035 Y-0.4277
N26700 G3 X-0.4752 Y-0.4597 R0.025
N26710 G1 X-0.4248 Y-0.4492
N26720 G1 X-0.4164 Y-0.4476
N26730 G1 X-0.408 Y-0.4466
N26740 G1 X-0.3996 Y-0.4462
N26750 G1 X-0.3931 Y-0.4455
N26760 G1 X-0.3853 Y-0.4441
N26770 G1 X-0.3764 Y-0.4417
N26780 G1 X-0.3673 Y-0.4385
N26790 G1 X-0.3567 Y-0.4337
N26800 G1 X-0.3456 Y-0.4276
N26810 G1 X-0.3338 Y-0.4198
N26820 G1 X-0.3205 Y-0.4095
N26830 G1 X-0.3075 Y-0.3974
N26840 G1 X-0.2928 Y-0.3816
N26850 G1 X-0.2778 Y-0.3625
N26860 G1 X-0.2616 Y-0.338
N26870 G1 X-0.2436 Y-0.3057
N26880 G1 X-0.2284 Y-0.272
N26890 G1 X-0.215 Y-0.2375
N26900 G1 X-0.2029 Y-0.2025
N26910 G1 X-0.1801 Y-0.1321
N26920 G1 X-0.1684 Y-0.097
N26930 G1 X-0.156 Y-0.0621
N26940 G1 X-0.1429 Y-0.0275
N26950 G1 X-0.1289 Y0.0067
N26960 G1 X-0.1143 Y0.0407
N26970 G1 X-0.099 Y0.0744
N26980 G1 X-0.036 Y0.2084
N26990 G1 X-0.0209 Y0.2421
N27000 G1 X-0.0068 Y0.2763
N27010 G1 X0.0061 Y0.311
N27020 G1 X0.0171 Y0.3464
N27030 G1 X0.0244 Y0.3777
N27040 G1 X0.0278 Y0.4007
N27050 G1 X0.0292 Y0.4212
N27060 G1 X0.0291 Y0.433
N27070 G1 X0.0279 Y0.4442
N27080 G1 X0.0245 Y0.455
N27090 G1 X0.0192 Y0.4649
N27100 G1 X0.012 Y0.4736
N27110 G1 X0.0033 Y0.4808
N27120 G1 X-0.0066 Y0.4861
N27130 G1 X-0.0914 Y0.5217
N27140 G3 X-0.1241 Y0.5061 R0.025
N27150 G1 X-0.4238 Y-0.4134
N27160 G3 X-0.3996 Y-0.4462 R0.025
N27170 G1 X-0.3828 Y-0.4456
N27180 G1 X-0.324
N27190 G1 X-0.3154 Y-0.4451
N27200 G1 X-0.307 Y-0.444
N27210 G1 X-0.2976 Y-0.442
N27220 G1 X-0.2877 Y-0.4391
N27230 G1 X-0.2762 Y-0.4346
N27240 G1 X-0.2648 Y-0.429
N27250 G1 X-0.2517 Y-0.4213
N27260 G1 X-0.2379 Y-0.4116
N27270 G1 X-0.2234 Y-0.3996
N27280 G1 X-0.2078 Y-0.3844
N27290 G1 X-0.1909 Y-0.365
N27300 G1 X-0.173 Y-0.3408
N27310 G1 X-0.1534 Y-0.3094
N27320 G1 X-0.1363 Y-0.2766
N27330 G1 X-0.121 Y-0.2429
N27340 G1 X-0.1067 Y-0.2087
N27350 G1 X-0.0658 Y-0.1055
N27360 G1 X-0.0518 Y-0.0713
N27370 G1 X-0.0374 Y-0.0372
N27380 G1 X-0.0074 Y0.0304
N27390 G1 X0.0385 Y0.1315
N27400 G1 X0.0534 Y0.1654
N27410 G1 X0.0677 Y0.1995
N27420 G1 X0.081 Y0.234
N27430 G1 X0.093 Y0.269
N27440 G1 X0.1033 Y0.3046
N27450 G1 X0.1107 Y0.3381
N27460 G1 X0.1143 Y0.3636
N27470 G1 X0.1155 Y0.385
N27480 G1 X0.1152 Y0.3975
N27490 G1 X0.1139 Y0.4085
N27500 G1 X0.1105 Y0.4192
N27510 G1 X0.1051 Y0.429
N27520 G1 X0.098 Y0.4375
N27530 G1 X0.0893 Y0.4446
N27540 G1 X0.0795 Y0.4499
N27550 G1 X-0.0066 Y0.4861
N27560 G3 X-0.0391 Y0.471 R0.025
N27570 G1 X-0.3467 Y-0.4123
N27580 G3 X-0.324 Y-0.4456 R0.025
N27590 G1 X-0.2353
N27600 G1 X-0.2274 Y-0.4452
N27610 G1 X-0.218 Y-0.4439
N27620 G1 X-0.2085 Y-0.4419
N27630 G1 X-0.1974 Y-0.4386
N27640 G1 X-0.1856 Y-0.434
N27650 G1 X-0.1729 Y-0.4278
N27660 G1 X-0.1583 Y-0.4192
N27670 G1 X-0.1439 Y-0.4091
N27680 G1 X-0.1274 Y-0.3954
N27690 G1 X-0.1103 Y-0.3787
N27700 G1 X-0.0911 Y-0.3567
N27710 G1 X-0.0691 Y-0.3269
N27720 G1 X-0.0495 Y-0.2955
N27730 G1 X-0.0318 Y-0.263
N27740 G1 X-0.0153 Y-0.2299
N27750 G1 X0.0004 Y-0.1964
N27760 G1 X0.1067 Y0.0398
N27770 G1 X0.1217 Y0.0736
N27780 G1 X0.1362 Y0.1077
N27790 G1 X0.1501 Y0.1419
N27800 G1 X0.1633 Y0.1765
N27810 G1 X0.1753 Y0.2115
N27820 G1 X0.186 Y0.2469
N27830 G1 X0.1948 Y0.2829
N27840 G1 X0.2002 Y0.3147
N27850 G1 X0.2024 Y0.3379
N27860 G1 X0.2025 Y0.3575
N27870 G1 X0.2022 Y0.3632
N27880 G1 X0.2 Y0.3751
N27890 G1 X0.1955 Y0.3864
N27900 G1 X0.1888 Y0.3964
N27910 G1 X0.1801 Y0.4049
N27920 G1 X0.1698 Y0.4114
N27930 G1 X0.1602 Y0.416
N27940 G1 X0.0795 Y0.4499
N27950 G3 X0.0471 Y0.435 R0.025
N27960 G1 X-0.258 Y-0.4121
N27970 G3 X-0.2353 Y-0.4456 R0.025
N27980 G1 X-0.1475
N27990 G1 X-0.1346 Y-0.4449
N28000 G1 X-0.1251 Y-0.4437
N28010 G1 X-0.1145 Y-0.4414
N28020 G1 X-0.1033 Y-0.4381
N28030 G1 X-0.0902 Y-0.4329
N28040 G1 X-0.0767 Y-0.4264
N28050 G1 X-0.0618 Y-0.4176
N28060 G1 X-0.0455 Y-0.4062
N28070 G1 X-0.0276 Y-0.3913
N28080 G1 X-0.0081 Y-0.3723
N28090 G1 X0.0143 Y-0.3466
N28100 G1 X0.0363 Y-0.3168
N28110 G1 X0.0564 Y-0.2857
N28120 G1 X0.0749 Y-0.2537
N28130 G1 X0.0925 Y-0.2211
N28140 G1 X0.1093 Y-0.1881
N28150 G1 X0.1416 Y-0.1215
N28160 G1 X0.1728 Y-0.0545
N28170 G1 X0.203 Y0.0131
N28180 G1 X0.2175 Y0.0471
N28190 G1 X0.2314 Y0.0814
N28200 G1 X0.2446 Y0.116
N28210 G1 X0.2569 Y0.1509
N28220 G1 X0.2681 Y0.1862
N28230 G1 X0.2777 Y0.2219
N28240 G1 X0.2853 Y0.2581
N28250 G1 X0.2892 Y0.2867
N28260 G1 X0.2903 Y0.3091
N28270 G1 X0.2885 Y0.322
N28280 G1 X0.2839 Y0.3342
N28290 G1 X0.2767 Y0.3451
N28300 G1 X0.2673 Y0.3541
N28310 G1 X0.2403 Y0.374
N28320 G1 X0.2138 Y0.3888
N28330 G1 X0.1698 Y0.4114
N28340 G3 X0.1361 Y0.3974 R0.025
N28350 G1 X-0.17 Y-0.4117
N28360 G3 X-0.1475 Y-0.4456 R0.025
N28370 G1 X-0.0467
N28380 G1 X-0.0382 Y-0.4451
N28390 G1 X-0.0286 Y-0.4439
N28400 G1 X-0.0173 Y-0.4414
N28410 G1 X-0.0052 Y-0.4378
N28420 G1 X0.0079 Y-0.4327
N28430 G1 X0.023 Y-0.4254
N28440 G1 X0.0386 Y-0.4162
N28450 G1 X0.0565 Y-0.4037
N28460 G1 X0.076 Y-0.3875
N28470 G1 X0.0978 Y-0.3661
N28480 G1 X0.1222 Y-0.3383
N28490 G1 X0.1443 Y-0.3086
N28500 G1 X0.1647 Y-0.2777
N28510 G1 X0.1838 Y-0.2461
N28520 G1 X0.2019 Y-0.2138
N28530 G1 X0.2193 Y-0.1811
N28540 G1 X0.236 Y-0.1481
N28550 G1 X0.2523 Y-0.1149
N28560 G1 X0.268 Y-0.0814
N28570 G1 X0.2833 Y-0.0477
N28580 G1 X0.298 Y-0.0137
N28590 G1 X0.3122 Y0.0204
N28600 G1 X0.3256 Y0.0549
N28610 G1 X0.3382 Y0.0897
N28620 G1 X0.3499 Y0.1248
N28630 G1 X0.3602 Y0.1603
N28640 G1 X0.369 Y0.1963
N28650 G1 X0.3719 Y0.2123
N28660 G1 X0.3728 Y0.2237
N28670 G1 X0.3715 Y0.2351
N28680 G1 X0.3679 Y0.246
N28690 G1 X0.3623 Y0.256
N28700 G1 X0.3562 Y0.2648
N28710 G1 X0.3315 Y0.2952
N28720 G1 X0.3042 Y0.3236
N28730 G1 X0.2979 Y0.3296
N28740 G1 X0.2673 Y0.3541
N28750 G3 X0.2296 Y0.3428 R0.025
N28760 G1 X-0.069 Y-0.4114
N28770 G3 X-0.0467 Y-0.4456 R0.025
N28780 G1 X-0.0046 Y-0.4452
N28790 G1 X0.0626 Y-0.44
N28800 G1 X0.0794 Y-0.4367
N28810 G1 X0.0954 Y-0.4326
N28820 G1 X0.1077 Y-0.4284
N28830 G1 X0.1221 Y-0.4222
N28840 G1 X0.1376 Y-0.4139
N28850 G1 X0.1552 Y-0.4027
N28860 G1 X0.1742 Y-0.3883
N28870 G1 X0.196 Y-0.3687
N28880 G1 X0.221 Y-0.3424
N28890 G1 X0.2442 Y-0.3136
N28900 G1 X0.2657 Y-0.2835
N28910 G1 X0.2856 Y-0.2523
N28920 G1 X0.3044 Y-0.2205
N28930 G1 X0.3223 Y-0.188
N28940 G1 X0.3393 Y-0.1552
N28950 G1 X0.3556 Y-0.122
N28960 G1 X0.3712 Y-0.0884
N28970 G1 X0.3862 Y-0.0546
N28980 G1 X0.4004 Y-0.0204
N28990 G1 X0.4139 Y0.0141
N29000 G1 X0.4264 Y0.0489
N29010 G1 X0.4321 Y0.0663
N29020 G1 X0.4346 Y0.0776
N29030 G1 X0.4348 Y0.0891
N29040 G1 X0.4327 Y0.1005
N29050 G1 X0.4192 Y0.1472
N29060 G1 X0.4053 Y0.1808
N29070 G1 X0.3892 Y0.2144
N29080 G1 X0.3735 Y0.24
N29090 G1 X0.3623 Y0.256
N29100 G3 X0.3192 Y0.2505 R0.025
N29110 G1 X0.0522 Y-0.4026
N29120 G3 X0.0794 Y-0.4367 R0.025
N29130 G1 X0.0991 Y-0.4325
N29140 G1 X0.1214 Y-0.427
N29150 G1 X0.1466 Y-0.4191
N29160 G1 X0.1562 Y-0.4157
N29170 G1 X0.1886 Y-0.4016
N29180 G1 X0.2126 Y-0.3905
N29190 G1 X0.2656 Y-0.3569
N29200 G1 X0.2757 Y-0.3485
N29210 G1 X0.3147 Y-0.3138
N29220 G1 X0.3315 Y-0.2955
N29230 G1 X0.3567 Y-0.2645
N29240 G1 X0.3651 Y-0.2527
N29250 G1 X0.374 Y-0.2393
N29260 G1 X0.3933 Y-0.2057
N29270 G1 X0.4071 Y-0.1777
N29280 G1 X0.4217 Y-0.1385
N29290 G1 X0.4276 Y-0.1217
N29300 G1 X0.4297 Y-0.1133
N29310 G1 X0.4407 Y-0.0578
N29320 G1 X0.4428 Y-0.0292
N29330 G1 X0.4438 Y0.0044
N29340 G1 X0.4433 Y0.0296
N29350 G1 X0.436 Y0.0884
N29360 G1 X0.4327 Y0.1005
N29370 G1 X0.4317 Y0.1024 Z-0.2997
N29380 G1 X0.4307 Y0.1042 Z-0.299
N29390 G1 X0.4299 Y0.1058 Z-0.2979
N29400 G1 X0.4291 Y0.1072 Z-0.2963
N29410 G1 X0.4286 Y0.1082 Z-0.2945
N29420 G1 X0.4281 Y0.1088 Z-0.2924
N29430 G1 X0.428 Y0.109 Z-0.2902
N29440 G0 Z0.2
N29450 G0 X-0.7068 Y1.0295
N29460 G0 Z-0.19
N29470 G1 Z-0.215 F20.
N29480 G1 X-0.7065 Y1.0296 Z-0.2189
N29490 G1 X-0.7056 Y1.0297 Z-0.2227
N29500 G1 X-0.7041 Y1.03 Z-0.2263
N29510 G1 X-0.7021 Y1.0304 Z-0.2297
N29520 G1 X-0.6996 Y1.0309 Z-0.2327
N29530 G1 X-0.6966 Y1.0315 Z-0.2352
N29540 G1 X-0.6934 Y1.0321 Z-0.2373
N29550 G1 X-0.6898 Y1.0328 Z-0.2388
N29560 G1 X-0.6861 Y1.0335 Z-0.2397
N29570 G1 X-0.6822 Y1.0343 Z-0.24
N29580 G3 X-0.5508 Y1.0748 R0.6382
N29590 G1 X-0.492 Y1.1011
N29600 G1 X-0.4416 Y1.1235
N29610 G3 X-0.4526 Y1.1709 R0.025
N29620 G1 X-0.5283 Y1.1706
N29630 G3 X-0.5532 Y1.145 R0.025
N29640 G3 X-0.5271 Y1.1207 R0.025
N29650 G3 X-0.4007 Y1.1391 R0.6382
N29660 G3 X-0.3912 Y1.1416 R0.6382
N29670 G1 X-0.3071 Y1.1672
N29680 G3 X-0.3114 Y1.2155 R0.025
N29690 G1 X-0.38 Y1.2262
N29700 G3 X-0.4087 Y1.2044 R0.025
N29710 G3 X-0.3858 Y1.1766 R0.025
N29720 G3 X-0.2483 Y1.1809 R0.6382
N29730 G1 X-0.1643 Y1.1956
N29740 G3 X-0.1637 Y1.2444 R0.025
N29750 G1 X-0.2388 Y1.2624
N29760 G3 X-0.2691 Y1.2434 R0.025
N29770 G3 X-0.2495 Y1.2136 R0.025
N29780 G3 X-0.1223 Y1.2016 R0.6382
N29790 G3 X-0.1125 Y1.2017 R0.6382
N29800 G1 X-0.013 Y1.207
N29810 G3 X-0.0073 Y1.2556 R0.025
N29820 G1 X-0.0886 Y1.2825
N29830 G3 X-0.1202 Y1.2666 R0.025
N29840 G3 X-0.1042 Y1.235 R0.025
N29850 G3 X0.0206 Y1.2078 R0.6382
N29860 G3 X0.0304 Y1.2068 R0.6382
N29870 G1 X0.1298 Y1.1999
N29880 G3 X0.1431 Y1.2466 R0.025
N29890 G1 X0.0832 Y1.2809
N29900 G3 X0.0486 Y1.2707 R0.025
N29910 G3 X0.0601 Y1.2366 R0.025
N29920 G3 X0.1805 Y1.1939 R0.6382
N29930 G3 X0.19 Y1.1916 R0.6382
N29940 G1 X0.2727 Y1.1757
N29950 G3 X0.2915 Y1.2204 R0.025
N29960 G1 X0.2363 Y1.2618
N29970 G3 X0.2007 Y1.256 R0.025
N29980 G3 X0.2079 Y1.2207 R0.025
N29990 G3 X0.3223 Y1.1637 R0.6382
N30000 G3 X0.3315 Y1.1603 R0.6382
N30010 G1 X0.4071 Y1.1359
N30020 G3 X0.4316 Y1.1777 R0.025
N30030 G1 X0.3839 Y1.2251
N30040 G3 X0.3477 Y1.2241 R0.025
N30050 G3 X0.3505 Y1.1879 R0.025
N30060 G3 X0.466 Y1.1133 R0.6382
N30070 G1 X0.5499 Y1.0744
N30080 G3 X0.5789 Y1.1134 R0.025
N30090 G1 X0.5346 Y1.1669
N30100 G3 X0.4987 Y1.1696 R0.025
N30110 G3 X0.4973 Y1.1336 R0.025
N30120 G3 X0.5946 Y1.0508 R0.6382
N30130 G3 X0.6028 Y1.0453 R0.6382
N30140 G1 X0.6829 Y0.9956
N30150 G3 X0.7158 Y1.0316 R0.025
N30160 G1 X0.673 Y1.0931
N30170 G3 X0.6379 Y1.0991 R0.025
N30180 G3 X0.6325 Y1.0639 R0.025
N30190 G3 X0.719 Y0.9699 R0.6382
N30200 G3 X0.7264 Y0.9634 R0.6382
N30210 G1 X0.7936 Y0.9095
N30220 G3 X0.8304 Y0.9416 R0.025
N30230 G1 X0.7897 Y1.0148
N30240 G3 X0.7556 Y1.0244 R0.025
N30250 G3 X0.7462 Y0.9902 R0.025
N30260 G3 X0.8207 Y0.8864 R0.6382
N30270 G3 X0.8272 Y0.8791 R0.6382
N30280 G1 X0.8939 Y0.8108
N30290 G3 X0.9348 Y0.8371 R0.025
N30300 G1 X0.9111 Y0.9055
N30310 G3 X0.8785 Y0.9207 R0.025
N30320 G3 X0.8645 Y0.8876 R0.025
N30330 G3 X0.9258 Y0.7755 R0.6382
N30340 G3 X0.9314 Y0.7675 R0.6382
N30350 G1 X0.9869 Y0.6947
N30360 G3 X1.0306 Y0.7163 R0.025
N30370 G1 X1.0134 Y0.7899
N30380 G3 X0.9828 Y0.8084 R0.025
N30390 G3 X0.965 Y0.7773 R0.025
N30400 G3 X1.017 Y0.65 R0.6382
N30410 G1 X1.0605 Y0.5756
N30420 G3 X1.1066 Y0.591 R0.025
N30430 G1 X1.101 Y0.6616
N30440 G3 X1.0731 Y0.6845 R0.025
N30450 G3 X1.0514 Y0.6557 R0.025
N30460 G3 X1.0842 Y0.5322 R0.6382
N30470 G3 X1.0877 Y0.5231 R0.6382
N30480 G1 X1.1213 Y0.4455
N30490 G3 X1.1689 Y0.4552 R0.025
N30500 G1 X1.1717 Y0.5254
N30510 G3 X1.1466 Y0.5514 R0.025
N30520 G3 X1.1217 Y0.5253 R0.025
N30530 G3 X1.14 Y0.3989 R0.6382
N30540 G3 X1.1425 Y0.3894 R0.6382
N30550 G1 X1.1669 Y0.3068
N30560 G3 X1.2152 Y0.3102 R0.025
N30570 G1 X1.2277 Y0.3788
N30580 G3 X1.2064 Y0.4081 R0.025
N30590 G3 X1.1782 Y0.3854 R0.025
N30600 G3 X1.1801 Y0.2577 R0.6382
N30610 G3 X1.1813 Y0.248 R0.6382
N30620 G1 X1.1968 Y0.1556
N30630 G3 X1.2455 Y0.1544 R0.025
N30640 G1 X1.2648 Y0.2307
N30650 G3 X1.2462 Y0.2612 R0.025
N30660 G3 X1.2161 Y0.242 R0.025
N30670 G3 X1.2026 Y0.115 R0.6382
N30680 G3 Y0.1052 R0.6382
N30690 G1 X1.207 Y0.0044
N30700 G3 X1.2553 Y-0.0026 R0.025
N30710 G1 X1.2829 Y0.0698
N30720 G3 X1.268 Y0.1022 R0.025
N30730 G3 X1.2359 Y0.0868 R0.025
N30740 G3 X1.206 Y-0.0474 R0.6382
N30750 G1 X1.1996 Y-0.1301
N30760 G3 X1.2461 Y-0.1437 R0.025
N30770 G1 X1.2819 Y-0.0825
N30780 G3 X1.2395 Y-0.056 R0.025
N30790 G3 X1.2377 Y-0.0591 R0.025
N30800 G3 X1.1945 Y-0.1793 R0.6382
N30810 G3 X1.1922 Y-0.1889 R0.6382
N30820 G1 X1.1753 Y-0.2729
N30830 G3 X1.2196 Y-0.2924 R0.025
N30840 G1 X1.2628 Y-0.2377
N30850 G3 X1.2576 Y-0.2018 R0.025
N30860 G3 X1.2221 Y-0.2087 R0.025
N30870 G3 X1.1641 Y-0.3225 R0.6382
N30880 G3 X1.1606 Y-0.3317 R0.6382
N30890 G1 X1.1328 Y-0.4157
N30900 G3 X1.1749 Y-0.4399 R0.025
N30910 G1 X1.227 Y-0.3845
N30920 G3 X1.2254 Y-0.3487 R0.025
N30930 G3 X1.1896 Y-0.3514 R0.025
N30940 G3 X1.1183 Y-0.4574 R0.6382
N30950 G3 X1.1137 Y-0.4661 R0.6382
N30960 G1 X1.0779 Y-0.5417
N30970 G3 X1.1151 Y-0.5721 R0.025
N30980 G1 X1.1662 Y-0.5367
N30990 G3 X1.1713 Y-0.5004 R0.025
N31000 G3 X1.1347 Y-0.498 R0.025
N31010 G3 X1.0513 Y-0.5947 R0.6382
N31020 G3 X1.0457 Y-0.6028 R0.6382
N31030 G1 X0.9953 Y-0.6826
N31040 G3 X1.0306 Y-0.7161 R0.025
N31050 G1 X1.0929 Y-0.6753
N31060 G3 X1.0998 Y-0.6401 R0.025
N31070 G3 X1.0644 Y-0.6343 R0.025
N31080 G3 X0.9697 Y-0.72 R0.6382
N31090 G3 X0.9632 Y-0.7273 R0.6382
N31100 G1 X0.9113 Y-0.7908
N31110 G3 X0.9425 Y-0.8282 R0.025
N31120 G1 X1.0151 Y-0.7913
N31130 G3 X1.0258 Y-0.7572 R0.025
N31140 G3 X0.9915 Y-0.7473 R0.025
N31150 G3 X0.8871 Y-0.8208 R0.6382
N31160 G3 X0.8797 Y-0.8273 R0.6382
N31170 G1 X0.8104 Y-0.8938
N31180 G3 X0.8361 Y-0.935 R0.025
N31190 G1 X0.9063 Y-0.9122
N31200 G3 X0.9221 Y-0.8798 R0.025
N31210 G3 X0.8891 Y-0.8653 R0.025
N31220 G3 X0.7765 Y-0.9257 R0.6382
N31230 G3 X0.7684 Y-0.9313 R0.6382
N31240 G1 X0.6941 Y-0.9869
N31250 G3 X0.7139 Y-1.0311 R0.025
N31260 G1 X0.781 Y-1.0198
N31270 G3 X0.8012 Y-0.9897 R0.025
N31280 G3 X0.7701 Y-0.971 R0.025
N31290 G3 X0.6511 Y-1.0173 R0.6382
N31300 G3 X0.6424 Y-1.0218 R0.6382
N31310 G1 X0.5668 Y-1.0653
N31320 G3 X0.5826 Y-1.1114 R0.025
N31330 G1 X0.6623 Y-1.1029
N31340 G3 X0.6844 Y-1.0749 R0.025
N31350 G3 X0.6559 Y-1.0533 R0.025
N31360 G3 X0.5321 Y-1.0849 R0.6382
N31370 G3 X0.5229 Y-1.0883 R0.6382
N31380 G1 X0.4407 Y-1.1231
N31390 G3 X0.4508 Y-1.1707 R0.025
N31400 G1 X0.5255 Y-1.1721
N31410 G3 X0.5509 Y-1.1467 R0.025
N31420 G3 X0.5248 Y-1.1221 R0.025
N31430 G3 X0.3984 Y-1.1406 R0.6382
N31440 G3 X0.3889 Y-1.143 R0.6382
N31450 G1 X0.2895 Y-1.1716
N31460 G3 X0.2944 Y-1.2202 R0.025
N31470 G1 X0.3798 Y-1.2297
N31480 G3 X0.4075 Y-1.2074 R0.025
N31490 G3 X0.3849 Y-1.1799 R0.025
N31500 G3 X0.2572 Y-1.1808 R0.6382
N31510 G3 X0.2474 Y-1.1819 R0.6382
N31520 G1 X0.1466 Y-1.1978
N31530 G3 X0.1442 Y-1.2463 R0.025
N31540 G1 X0.212 Y-1.2667
N31550 G3 X0.2434 Y-1.249 R0.025
N31560 G3 X0.2245 Y-1.2183 R0.025
N31570 G3 X0.0878 Y-1.2037 R0.6382
N31580 G1 X0.0122 Y-1.2064
N31590 G3 X0.0041 Y-1.2543 R0.025
N31600 G1 X0.0699 Y-1.2824
N31610 G3 X0.1031 Y-1.2683 R0.025
N31620 G3 X0.0877 Y-1.2357 R0.025
N31630 G3 X-0.0369 Y-1.2075 R0.6382
N31640 G3 X-0.0467 Y-1.2064 R0.6382
N31650 G1 X-0.1391 Y-1.1985
N31660 G3 X-0.1526 Y-1.2453 R0.025
N31670 G1 X-0.0837 Y-1.284
N31680 G3 X-0.0493 Y-1.2739 R0.025
N31690 G3 X-0.0604 Y-1.2398 R0.025
N31700 G3 X-0.18 Y-1.195 R0.6382
N31710 G3 X-0.1895 Y-1.1926 R0.6382
N31720 G1 X-0.2884 Y-1.1718
N31730 G3 X-0.3068 Y-1.217 R0.025
N31740 G1 X-0.2375 Y-1.2646
N31750 G3 X-0.2026 Y-1.2579 R0.025
N31760 G3 X-0.2097 Y-1.223 R0.025
N31770 G3 X-0.3324 Y-1.1609 R0.6382
N31780 G1 X-0.4248 Y-1.1294
N31790 G3 X-0.4487 Y-1.1719 R0.025
N31800 G1 X-0.3869 Y-1.2271
N31810 G3 X-0.3513 Y-1.2248 R0.025
N31820 G3 X-0.3542 Y-1.1893 R0.025
N31830 G3 X-0.4599 Y-1.1176 R0.6382
N31840 G3 X-0.4686 Y-1.1129 R0.6382
N31850 G1 X-0.5508 Y-1.0733
N31860 G3 X-0.581 Y-1.1111 R0.025
N31870 G1 X-0.5392 Y-1.1672
N31880 G3 X-0.5031 Y-1.1714 R0.025
N31890 G3 X-0.5008 Y-1.1352 R0.025
N31900 G3 X-0.5966 Y-1.0508 R0.6382
N31910 G3 X-0.6046 Y-1.0451 R0.6382
N31920 G1 X-0.6769 Y-0.9986
N31930 G3 X-0.7116 Y-1.032 R0.025
N31940 G1 X-0.6803 Y-1.0894
N31950 G3 X-0.645 Y-1.0985 R0.025
N31960 G3 X-0.6382 Y-1.0626 R0.025
N31970 G3 X-0.7234 Y-0.9675 R0.6382
N31980 G3 X-0.7307 Y-0.9609 R0.6382
N31990 G1 X-0.7903 Y-0.9113
N32000 G3 X-0.8294 Y-0.9388 R0.025
N32010 G1 X-0.8114 Y-0.9942
N32020 G3 X-0.7777 Y-1.0094 R0.025
N32030 G3 X-0.7658 Y-0.9743 R0.025
N32040 G3 X-0.8449 Y-0.8619 R0.6382
N32050 G1 X-0.9206 Y-0.7814
N32060 G1 X-0.9223 Y-0.7801 Z-0.2397
N32070 G1 X-0.924 Y-0.7789 Z-0.239
N32080 G1 X-0.9255 Y-0.7779 Z-0.2379
N32090 G1 X-0.9268 Y-0.777 Z-0.2363
N32100 G1 X-0.9278 Y-0.7763 Z-0.2345
N32110 G1 X-0.9284 Y-0.776 Z-0.2324
N32120 G1 X-0.9286 Y-0.7759 Z-0.2302
N32130 G0 Z0.2
N32140 G0 X-1.188 Y-0.7174
N32150 G0 Z-0.4
N32160 G1 Z-0.425 F20.
N32170 G1 X-1.1879 Y-0.7171 Z-0.4289
N32180 G1 X-1.1877 Y-0.7162 Z-0.4327
N32190 G1 X-1.1873 Y-0.7148 Z-0.4363
N32200 G1 X-1.1868 Y-0.7128 Z-0.4397
N32210 G1 X-1.1862 Y-0.7103 Z-0.4427
N32220 G1 X-1.1854 Y-0.7074 Z-0.4452
N32230 G1 X-1.1846 Y-0.7042 Z-0.4473
N32240 G1 X-1.1837 Y-0.7007 Z-0.4488
N32250 G1 X-1.1827 Y-0.697 Z-0.4497
N32260 G1 X-1.1818 Y-0.6932 Z-0.45
N32270 G3 X-1.1622 Y-0.5571 R0.6382
N32280 G1 Y-0.5478
N32290 G1 X-1.1563 Y-0.5113
N32300 G1 X-1.1515 Y-0.4981
N32310 G1 X-1.1485 Y-0.487
N32320 G1 X-1.1451 Y-0.4682
N32330 G1 X-1.1427 Y-0.4437
N32340 G1 X-1.1421 Y-0.411
N32350 G1 X-1.1444 Y-0.3741
N32360 G1 X-1.149 Y-0.3374
N32370 G1 X-1.1704 Y-0.1909
N32380 G1 X-1.1746 Y-0.1542
N32390 G1 X-1.1778 Y-0.1173
N32400 G1 X-1.1804 Y-0.0804
N32410 G1 X-1.1822 Y-0.0434
N32420 G1 X-1.1825 Y-0.0064
N32430 G1 X-1.1818 Y0.0306
N32440 G1 X-1.1803 Y0.0676
N32450 G1 X-1.1776 Y0.1045
N32460 G1 X-1.1734 Y0.1412
N32470 G1 X-1.1683 Y0.1779
N32480 G1 X-1.1624 Y0.2144
N32490 G1 X-1.1551 Y0.2507
N32500 G1 X-1.1465 Y0.2867
N32510 G1 X-1.1371 Y0.3225
N32520 G1 X-1.1264 Y0.3579
N32530 G1 X-1.1144 Y0.3929
N32540 G1 X-1.1014 Y0.4275
N32550 G1 X-1.0877 Y0.4619
N32560 G1 X-1.0729 Y0.4958
N32570 G1 X-1.0567 Y0.5291
N32580 G1 X-1.0395 Y0.5618
N32590 G1 X-1.0217 Y0.5943
N32600 G1 X-1.0026 Y0.626
N32610 G1 X-0.9823 Y0.6569
N32620 G1 X-0.9612 Y0.6873
N32630 G1 X-0.9395 Y0.7173
N32640 G1 X-0.9165 Y0.7463
N32650 G1 X-0.8926 Y0.7745
N32660 G1 X-0.8679 Y0.8021
N32670 G1 X-0.8426 Y0.829
N32680 G1 X-0.8161 Y0.8549
N32690 G1 X-0.7888 Y0.8799
N32700 G1 X-0.761 Y0.9043
N32710 G1 X-0.7324 Y0.9277
N32720 G1 X-0.7029 Y0.9501
N32730 G1 X-0.6728 Y0.9717
N32740 G1 X-0.6423 Y0.9926
N32750 G1 X-0.6324 Y0.9987
N32760 G1 X-0.6248 Y1.0043
N32770 G1 X-0.6182 Y1.0111
N32780 G1 X-0.6128 Y1.0188
N32790 G1 X-0.6097 Y1.024
N32800 G1 X-0.6013 Y1.0353
N32810 G1 X-0.5918 Y1.046
N32820 G1 X-0.5825 Y1.0544
N32830 G1 X-0.5716 Y1.0628
N32840 G1 X-0.5581 Y1.0712
N32850 G1 X-0.5004 Y1.0988
N32860 G1 X-0.4836 Y1.1065
N32870 G1 X-0.4416 Y1.1237
N32880 G1 X-0.408 Y1.1365
N32890 G1 X-0.3748 Y1.1469
N32900 G1 X-0.3492 Y1.1559
N32910 G1 X-0.3156 Y1.1654
N32920 G1 X-0.2735 Y1.1762
N32930 G1 X-0.2399 Y1.1825
N32940 G1 X-0.2063 Y1.1896
N32950 G1 X-0.1895 Y1.1928
N32960 G1 X-0.1545 Y1.1973
N32970 G1 X-0.1307 Y1.2007
N32980 G1 X-0.0971 Y1.2029
N32990 G1 X-0.0551 Y1.2065
N33000 G1 X-0.0383 Y1.2068
N33010 G1 X-0.0215
N33020 G1 X0.0038 Y1.2079
N33030 G1 X0.0626 Y1.2051
N33040 G1 X0.0878 Y1.2045
N33050 G1 X0.1466 Y1.1985
N33060 G1 X0.1718 Y1.1951
N33070 G1 X0.197 Y1.1903
N33080 G1 X0.2222 Y1.1867
N33090 G1 X0.2474 Y1.1819
N33100 G1 X0.3063 Y1.1683
N33110 G1 X0.3315 Y1.1603
N33120 G1 X0.3819 Y1.1457
N33130 G1 X0.3903 Y1.1429
N33140 G1 X0.4155 Y1.1332
N33150 G1 X0.4407 Y1.1247
N33160 G1 X0.4743 Y1.1096
N33170 G1 X0.5079 Y1.0955
N33180 G1 X0.5247 Y1.0877
N33190 G1 X0.5568 Y1.0712
N33200 G1 X0.5752 Y1.062
N33210 G1 X0.592 Y1.052
N33220 G1 X0.6088 Y1.0417
N33230 G1 X0.634 Y1.0279
N33240 G1 X0.6508 Y1.0173
N33250 G1 X0.6703 Y1.004
N33260 G1 X0.6959 Y0.9872
N33270 G1 X0.7282 Y0.962
N33280 G1 X0.7516 Y0.9448
N33290 G1 X0.7684 Y0.9317
N33300 G1 X0.802 Y0.9026
N33310 G1 X0.8114 Y0.8948
N33320 G1 X0.8628 Y0.8444
N33330 G1 X0.879 Y0.8276
N33340 G1 X0.8945 Y0.8102
N33350 G1 X0.9099 Y0.794
N33360 G1 X0.9449 Y0.751
N33370 G1 X0.9617 Y0.7308
N33380 G1 X0.9953 Y0.6834
N33390 G1 X1.0121 Y0.6583
N33400 G1 X1.0289 Y0.6307
N33410 G1 X1.0457 Y0.6047
N33420 G1 X1.0625 Y0.5723
N33430 G1 X1.0752 Y0.5504
N33440 G1 X1.1129 Y0.4688
N33450 G1 X1.1233 Y0.4412
N33460 G1 X1.1339 Y0.416
N33470 G1 X1.1382 Y0.4035
N33480 G1 X1.1475 Y0.374
N33490 G1 X1.156 Y0.3488
N33500 G1 X1.1612 Y0.332
N33510 G1 X1.1694 Y0.2984
N33520 G1 X1.1766 Y0.2732
N33530 G1 X1.188 Y0.2144
N33540 G1 X1.1914 Y0.1976
N33550 G1 X1.1928 Y0.1892
N33560 G1 X1.1956 Y0.164
N33570 G1 X1.1996 Y0.1388
N33580 G1 X1.2027 Y0.1052
N33590 G1 X1.2042 Y0.08
N33600 G1 X1.2067 Y0.0548
N33610 G1 X1.2074 Y-0.0292
N33620 G1 X1.2054 Y-0.0565
N33630 G1 X1.2048 Y-0.0797
N33640 G1 X1.202 Y-0.1133
N33650 G1 X1.1989 Y-0.1385
N33660 G1 X1.1968 Y-0.1637
N33670 G1 X1.1886 Y-0.2107
N33680 G1 X1.1821 Y-0.2477
N33690 G1 X1.1754 Y-0.2729
N33700 G1 X1.1702 Y-0.2981
N33710 G1 X1.1657 Y-0.3149
N33720 G1 X1.1531 Y-0.3569
N33730 G1 X1.1458 Y-0.3821
N33740 G1 X1.1329 Y-0.4157
N33750 G1 X1.1243 Y-0.4409
N33760 G1 X1.1063 Y-0.4829
N33770 G1 X1.0917 Y-0.5165
N33780 G1 X1.0876 Y-0.5249
N33790 G1 X1.0739 Y-0.5501
N33800 G1 X1.062 Y-0.5753
N33810 G1 X1.0326 Y-0.6257
N33820 G1 X1.0173 Y-0.6509
N33830 G1 X0.9942 Y-0.6845
N33840 G1 X0.9771 Y-0.7097
N33850 G1 X0.9533 Y-0.7403
N33860 G1 X0.9365 Y-0.7628
N33870 G1 X0.9113 Y-0.7912
N33880 G1 X0.8945 Y-0.8113
N33890 G1 X0.8861 Y-0.8208
N33900 G1 X0.8356 Y-0.8714
N33910 G1 X0.8272 Y-0.8795
N33920 G1 X0.8099 Y-0.8945
N33930 G1 X0.783 Y-0.9197
N33940 G1 X0.7408 Y-0.9533
N33950 G1 X0.7308 Y-0.9617
N33960 G1 X0.7067 Y-0.9785
N33970 G1 X0.6928 Y-0.988
N33980 G1 X0.6591 Y-1.0121
N33990 G1 X0.6307 Y-1.0289
N34000 G1 X0.6088 Y-1.0433
N34010 G1 X0.5668 Y-1.0655
N34020 G1 X0.5499 Y-1.0748
N34030 G1 X0.5243 Y-1.0877
N34040 G1 X0.4995 Y-1.0987
N34050 G1 X0.4692 Y-1.1129
N34060 G1 X0.4407 Y-1.1233
N34070 G1 X0.4155 Y-1.1337
N34080 G1 X0.3819 Y-1.1453
N34090 G1 X0.3315 Y-1.1614
N34100 G1 X0.3063 Y-1.1672
N34110 G1 X0.2573 Y-1.1802
N34120 G1 X0.2222 Y-1.1863
N34130 G1 X0.197 Y-1.1917
N34140 G1 X0.1466 Y-1.198
N34150 G1 X0.113 Y-1.2026
N34160 G1 X0.0878 Y-1.2037
N34170 G1 X0.0626 Y-1.206
N34180 G1 X0.0458 Y-1.2066
N34190 G1 X0.0038 Y-1.2067
N34200 G1 X-0.0215 Y-1.2075
N34210 G1 X-0.0887 Y-1.2042
N34220 G1 X-0.1055 Y-1.203
N34230 G1 X-0.1307 Y-1.1995
N34240 G1 X-0.1643 Y-1.1962
N34250 G1 X-0.1895 Y-1.1926
N34260 G1 X-0.2231 Y-1.1865
N34270 G1 X-0.2399 Y-1.1837
N34280 G1 X-0.2567 Y-1.1797
N34290 G1 X-0.2819 Y-1.1734
N34300 G1 X-0.325 Y-1.1634
N34310 G1 X-0.3504 Y-1.155
N34320 G1 X-0.3802 Y-1.1466
N34330 G1 X-0.4248 Y-1.1296
N34340 G1 X-0.4584 Y-1.1174
N34350 G1 X-0.4752 Y-1.1099
N34360 G1 X-0.492 Y-1.1022
N34370 G1 X-0.5172 Y-1.0916
N34380 G1 X-0.5592 Y-1.0692
N34390 G1 X-0.576 Y-1.0609
N34400 G1 X-0.6013 Y-1.0473
N34410 G1 X-0.6517 Y-1.0166
N34420 G1 X-0.6853 Y-0.9932
N34430 G1 X-0.7105 Y-0.9767
N34440 G1 X-0.7403 Y-0.9533
N34450 G1 X-0.7629 Y-0.9365
N34460 G1 X-0.7945 Y-0.908
N34470 G1 X-0.8205 Y-0.8861
N34480 G1 X-0.8298 Y-0.8777
N34490 G1 X-0.8459 Y-0.8609
N34500 G1 X-0.872 Y-0.8357
N34510 G1 X-0.929 Y-0.7721
N34520 G1 X-0.9376 Y-0.7601
N34530 G1 X-0.9458 Y-0.7461
N34540 G1 X-0.9471 Y-0.7433
N34550 G1 X-0.9637 Y-0.7102
N34560 G1 X-0.999 Y-0.6452
N34570 G1 X-1.0149 Y-0.6118
N34580 G1 X-1.0242 Y-0.576
N34590 G1 X-1.0298 Y-0.5394
N34600 G1 X-1.0335 Y-0.5026
N34610 G1 X-1.0398 Y-0.4288
N34620 G1 X-1.0436 Y-0.392
N34630 G1 X-1.0525 Y-0.3186
N34640 G1 X-1.0621 Y-0.2452
N34650 G1 X-1.0665 Y-0.2085
N34660 G1 X-1.0705 Y-0.1717
N34670 G1 X-1.0739 Y-0.1348
N34680 G1 X-1.0765 Y-0.0979
N34690 G1 X-1.0781 Y-0.0609
N34700 G1 X-1.0788 Y-0.0239
N34710 G1 X-1.0784 Y0.0131
N34720 G1 X-1.0768 Y0.05
N34730 G1 X-1.0741 Y0.0869
N34740 G1 X-1.0702 Y0.1237
N34750 G1 X-1.0652 Y0.1604
N34760 G1 X-1.0589 Y0.1969
N34770 G1 X-1.0515 Y0.2331
N34780 G1 X-1.0427 Y0.2691
N34790 G1 X-1.0327 Y0.3047
N34800 G1 X-1.0216 Y0.34
N34810 G1 X-1.0094 Y0.3749
N34820 G1 X-0.9959 Y0.4093
N34830 G1 X-0.9812 Y0.4433
N34840 G1 X-0.9654 Y0.4768
N34850 G1 X-0.9484 Y0.5097
N34860 G1 X-0.9303 Y0.5419
N34870 G1 X-0.9112 Y0.5736
N34880 G1 X-0.891 Y0.6046
N34890 G1 X-0.8697 Y0.6349
N34900 G1 X-0.8474 Y0.6644
N34910 G1 X-0.8241 Y0.6931
N34920 G1 X-0.7998 Y0.721
N34930 G1 X-0.7745 Y0.748
N34940 G1 X-0.7483 Y0.7742
N34950 G1 X-0.7213 Y0.7995
N34960 G1 X-0.6934 Y0.8238
N34970 G1 X-0.6647 Y0.8472
N34980 G1 X-0.6518 Y0.8572
N34990 G1 X-0.6425 Y0.8662
N35000 G1 X-0.6354 Y0.877
N35010 G1 X-0.6309 Y0.889
N35020 G1 X-0.6292 Y0.9018
N35030 G1 X-0.6303 Y0.9147
N35040 G1 X-0.6329 Y0.9284
N35050 G1 X-0.6333 Y0.951
N35060 G1 X-0.6331 Y0.955
N35070 G1 X-0.6307 Y0.9718
N35080 G1 X-0.6288 Y0.9802
N35090 G1 X-0.6239 Y0.9956
N35100 G1 X-0.6192 Y1.007
N35110 G1 X-0.6154 Y1.0144
N35120 G1 X-0.6128 Y1.0188
N35130 G3 X-0.6099 Y1.0281 R0.025
N35140 G1 X-0.6095 Y1.032 Z-0.4497
N35150 G1 X-0.6091 Y1.0358 Z-0.4488
N35160 G1 X-0.6088 Y1.0394 Z-0.4473
N35170 G1 X-0.6084 Y1.0427 Z-0.4452
N35180 G1 X-0.6081 Y1.0457 Z-0.4427
N35190 G1 X-0.6078 Y1.0482 Z-0.4397
N35200 G1 X-0.6076 Y1.0502 Z-0.4363
N35210 G1 X-0.6075 Y1.0517 Z-0.4327
N35220 G1 X-0.6074 Y1.0526 Z-0.4289
N35230 G1 X-0.6073 Y1.053 Z-0.425
N35240 G0 Z0.2
N35250 G0 X-0.9707 Y-0.7667
N35260 G0 Z-0.4
N35270 G1 Z-0.425 F20.
N35280 G1 X-0.9705 Y-0.7665 Z-0.4289
N35290 G1 X-0.9697 Y-0.766 Z-0.4327
N35300 G1 X-0.9685 Y-0.7651 Z-0.4363
N35310 G1 X-0.9668 Y-0.764 Z-0.4397
N35320 G1 X-0.9647 Y-0.7626 Z-0.4427
N35330 G1 X-0.9622 Y-0.7609 Z-0.4452
N35340 G1 X-0.9594 Y-0.759 Z-0.4473
N35350 G1 X-0.9564 Y-0.757 Z-0.4488
N35360 G1 X-0.9532 Y-0.7549 Z-0.4497
N35370 G1 X-0.95 Y-0.7527 Z-0.45
N35380 G3 X-0.9471 Y-0.7433 R0.0078
N35390 G1 X-0.9508 Y-0.7349
N35400 G1 X-0.9542 Y-0.7256
N35410 G1 X-0.9562 Y-0.7181
N35420 G1 X-0.9596 Y-0.7013
N35430 G1 X-0.9605 Y-0.6929
N35440 G1 X-0.9611 Y-0.6761
N35450 G1 X-0.9604 Y-0.6677
N35460 G1 X-0.9581 Y-0.6509
N35470 G1 X-0.9558 Y-0.6425
N35480 G1 X-0.9516 Y-0.6254
N35490 G1 X-0.9457 Y-0.5892
N35500 G1 X-0.9427 Y-0.5523
N35510 G1 X-0.9416 Y-0.5153
N35520 G1 X-0.942 Y-0.4783
N35530 G1 X-0.9435 Y-0.4413
N35540 G1 X-0.946 Y-0.4044
N35550 G1 X-0.9491 Y-0.3675
N35560 G1 X-0.9567 Y-0.2939
N35570 G1 X-0.9645 Y-0.2203
N35580 G1 X-0.968 Y-0.1835
N35590 G1 X-0.971 Y-0.1466
N35600 G1 X-0.9733 Y-0.1097
N35610 G1 X-0.9748 Y-0.0727
N35620 G1 X-0.9753 Y-0.0357
N35630 G1 X-0.9747 Y0.0013
N35640 G1 X-0.9731 Y0.0383
N35650 G1 X-0.9702 Y0.0752
N35660 G1 X-0.9661 Y0.1119
N35670 G1 X-0.9608 Y0.1486
N35680 G1 X-0.9541 Y0.185
N35690 G1 X-0.9462 Y0.2211
N35700 G1 X-0.937 Y0.2569
N35710 G1 X-0.9264 Y0.2924
N35720 G1 X-0.9145 Y0.3274
N35730 G1 X-0.9012 Y0.362
N35740 G1 X-0.8867 Y0.396
N35750 G1 X-0.871 Y0.4295
N35760 G1 X-0.854 Y0.4624
N35770 G1 X-0.8358 Y0.4946
N35780 G1 X-0.8163 Y0.5261
N35790 G1 X-0.7957 Y0.5568
N35800 G1 X-0.7739 Y0.5867
N35810 G1 X-0.751 Y0.6157
N35820 G1 X-0.727 Y0.6439
N35830 G1 X-0.7019 Y0.6711
N35840 G1 X-0.6759 Y0.6974
N35850 G1 X-0.6489 Y0.7227
N35860 G1 X-0.6223 Y0.7484
N35870 G1 X-0.6057 Y0.7673
N35880 G1 X-0.5975 Y0.7781
N35890 G1 X-0.5909 Y0.7894
N35900 G1 X-0.5869 Y0.8019
N35910 G1 X-0.5859 Y0.815
N35920 G1 X-0.5878 Y0.828
N35930 G1 X-0.5925 Y0.8402
N35940 G1 X-0.5999 Y0.8511
N35950 G3 X-0.6077 Y0.8568 R0.025
N35960 G1 X-0.6113 Y0.8585 Z-0.4497
N35970 G1 X-0.6147 Y0.8601 Z-0.4488
