%
(BELT CAPBOREV2)
(T1  D=0.25 CR=0. - ZMIN=-0.8268 - FLAT END MILL)
N10 G90 G54 G64 G50 G17 G40 G80 G94 G91.1 G49
N20 G20
N30 G28 G91 Z0.
N40 G90

(BORE1)
N50 M9
N60 M998
N70 T1 G43 H1 M6
N80 S5140 M3
N90 G4 P2.
N100 G54
N110 G0 X-0.0213 Y-0.0162
N120 M8
N130 G4 P2.
N140 G0 Z0.7
N150 G0 Z0.08
N160 G1 Z0.025 F12.
N170 G18 G2 X0.0037 Z0. R0.025
N180 G1 X0.0162
N190 G17 G3 X0.0325 Y0. R0.0162
N200 G3 X-0.0325 Z-0.0197 R0.0325 F20.
N210 G3 X0.0325 Z-0.0394 R0.0325
N220 G3 X-0.0325 Z-0.0591 R0.0325
N230 G3 X0.0325 Z-0.0787 R0.0325
N240 G3 X-0.0325 Z-0.0984 R0.0325
N250 G3 X0.0325 Z-0.1181 R0.0325
N260 G3 X-0.0325 Z-0.1378 R0.0325
N270 G3 X0.0325 Z-0.1575 R0.0325
N280 G3 X-0.0325 Z-0.1772 R0.0325
N290 G3 X0.0325 Z-0.1969 R0.0325
N300 G3 X-0.0325 Z-0.2165 R0.0325
N310 G3 X0.0325 Z-0.2362 R0.0325
N320 G3 X-0.0325 Z-0.2559 R0.0325
N330 G3 X0.0325 Z-0.2756 R0.0325
N340 G3 X-0.0325 Z-0.2953 R0.0325
N350 G3 X0.0325 Z-0.315 R0.0325
N360 G3 X-0.0325 Z-0.3346 R0.0325
N370 G3 X0.0325 Z-0.3543 R0.0325
N380 G3 X-0.0325 Z-0.374 R0.0325
N390 G3 X0.0325 Z-0.3937 R0.0325
N400 G3 X-0.0325 Z-0.4134 R0.0325
N410 G3 X0.0325 Z-0.4331 R0.0325
N420 G3 X-0.0325 Z-0.4528 R0.0325
N430 G3 X0.0325 Z-0.4724 R0.0325
N440 G3 X-0.0325 Z-0.4921 R0.0325
N450 G3 X0.0325 Z-0.5118 R0.0325
N460 G3 X-0.0325 Z-0.5315 R0.0325
N470 G3 X0.0325 Z-0.5512 R0.0325
N480 G3 X-0.0325 Z-0.5709 R0.0325
N490 G3 X0.0325 Z-0.5906 R0.0325
N500 G3 X-0.0325 Z-0.6102 R0.0325
N510 G3 X0.0325 Z-0.6299 R0.0325
N520 G3 X-0.0325 Z-0.6496 R0.0325
N530 G3 X0.0325 Z-0.6693 R0.0325
N540 G3 X-0.0325 Z-0.689 R0.0325
N550 G3 X0.0325 Z-0.7087 R0.0325
N560 G3 X-0.0325 Z-0.7283 R0.0325
N570 G3 X0.0325 Z-0.748 R0.0325
N580 G3 X-0.0325 Z-0.7677 R0.0325
N590 G3 X0.0325 Z-0.7874 R0.0325
N600 G3 X-0.0325 Z-0.8071 R0.0325
N610 G3 X0.0325 Z-0.8268 R0.0325
N620 G3 X-0.0325 R0.0325
N630 G3 X0.0325 R0.0325
N640 G3 X0.0162 Y0.0162 R0.0162 F12.
N650 G1 X0.0037
N660 G18 G3 X-0.0213 Z-0.8018 R0.025
N670 G0 Z0.7
N680 G17

N690 M9
N700 G28 G91 Z0.
N710 G28 X0. Y0.
N720 M30
