%
(BELT CAPV2_2)
(T1  D=0.25 CR=0. - ZMIN=-1.0843 - FLAT END MILL)
(T2  D=0.31 CR=0. TAPER=118DEG - ZMIN=-0.1375 - CENTER DRILL)
(T4  D=0.157 CR=0. TAPER=118DEG - ZMIN=-1.2575 - DRILL)
N10 G90 G54 G64 G50 G17 G40 G80 G94 G91.1 G49
N20 G20
N30 G28 G91 Z0.
N40 G90

(CONTOUR1)
N50 M9
N60 M998
N70 T1 G43 H1 M6
N80 S5140 M3
N90 G4 P2.
N100 G54
N110 G0 X-0.9909 Y-0.7481
N120 M8
N130 G4 P2.
N140 G0 Z0.6
N150 G0 Z-0.0357
N160 G1 Z-0.125 F20.
N170 G1 X-0.9906 Y-0.748 Z-0.1289
N180 G1 X-0.9897 Y-0.7478 Z-0.1327
N190 G1 X-0.9883 Y-0.7474 Z-0.1363
N200 G1 X-0.9863 Y-0.7469 Z-0.1397
N210 G1 X-0.9838 Y-0.7463 Z-0.1427
N220 G1 X-0.9809 Y-0.7455 Z-0.1452
N230 G1 X-0.9777 Y-0.7447 Z-0.1473
N240 G1 X-0.9742 Y-0.7438 Z-0.1488
N250 G1 X-0.9705 Y-0.7429 Z-0.1497
N260 G1 X-0.9667 Y-0.7419 Z-0.15
N270 G1 X-0.9563 Y-0.7393
N280 G3 X-0.9382 Y-0.7089 R0.025
N290 G1 X-0.9388 Y-0.706
N300 G1 X-0.9402 Y-0.6981
N310 G1 X-0.9411 Y-0.6901
N320 G1 X-0.9414 Y-0.6821
N330 G1 X-0.9413 Y-0.6741
N340 G1 X-0.9406 Y-0.6662
N350 G1 X-0.9394 Y-0.6582
N360 G1 X-0.9382 Y-0.6526
N370 G1 X-0.9376 Y-0.6502
N380 G1 X-0.9353 Y-0.6422
N390 G1 X-0.9325 Y-0.6342
N400 G1 X-0.9302 Y-0.629
N410 G1 X-0.9289 Y-0.6263
N420 G1 X-0.9247 Y-0.6183
N430 G1 X-0.9222 Y-0.6142
N440 G1 X-0.9197 Y-0.6103
N450 G1 X-0.9143 Y-0.6029
N460 G1 X-0.9138 Y-0.6023
N470 G1 X-0.9068 Y-0.5944
N480 G1 X-0.9063 Y-0.5938
N490 G1 X-0.8984 Y-0.5864
N500 G1 X-0.8983 Y-0.5863
N510 G1 X-0.8903 Y-0.5799
N520 G1 X-0.8882 Y-0.5784
N530 G1 X-0.8823 Y-0.5745
N540 G1 X-0.8752 Y-0.5704
N550 G1 X-0.8744 Y-0.57
N560 G1 X-0.8664 Y-0.5661
N570 G1 X-0.8584 Y-0.563
N580 G1 X-0.8568 Y-0.5624
N590 G1 X-0.8504 Y-0.5604
N600 G1 X-0.8424 Y-0.5585
N610 G1 X-0.4274 Y-0.4699
N620 G1 X-0.4194 Y-0.4682
N630 G1 X-0.4115 Y-0.4668
N640 G1 X-0.4107 Y-0.4667
N650 G1 X-0.4035 Y-0.4659
N660 G1 X-0.3955 Y-0.4656
N670 G1 X-0.3875
N680 G1 X-0.0044
N690 G1 X0.0036 Y-0.4654
N700 G1 X0.0195 Y-0.465
N710 G1 X0.0275 Y-0.4646
N720 G1 X0.0435 Y-0.4634
N730 G1 X0.0514 Y-0.4626
N740 G1 X0.0674 Y-0.4605
N750 G1 X0.0754 Y-0.4593
N760 G1 X0.0914 Y-0.4564
N770 G1 X0.0993 Y-0.4547
N780 G1 X0.116 Y-0.4507
N790 G1 X0.1233 Y-0.4488
N800 G1 X0.1392 Y-0.4441
N810 G1 X0.1436 Y-0.4428
N820 G1 X0.1632 Y-0.4359
N830 G1 X0.1662 Y-0.4348
N840 G1 X0.1871 Y-0.4262
N850 G1 X0.1951 Y-0.4225
N860 G1 X0.2031 Y-0.4187
N870 G1 X0.2111 Y-0.4149
N880 G1 X0.227 Y-0.4063
N890 G1 X0.2331 Y-0.4029
N900 G1 X0.251 Y-0.3921
N910 G1 X0.259 Y-0.3867
N920 G1 X0.2703 Y-0.3789
N930 G1 X0.2749 Y-0.3755
N940 G1 X0.2829 Y-0.3695
N950 G1 X0.2909 Y-0.3634
N960 G1 X0.3068 Y-0.35
N970 G1 X0.3102 Y-0.347
N980 G1 X0.3228 Y-0.3353
N990 G1 X0.3272 Y-0.3311
N1000 G1 X0.3426 Y-0.3151
N1010 G1 X0.3467 Y-0.3104
N1020 G1 X0.3565 Y-0.2992
N1030 G1 X0.3627 Y-0.2916
N1040 G1 X0.3707 Y-0.2814
N1050 G1 X0.3753 Y-0.2752
N1060 G1 X0.3867 Y-0.2592
N1070 G1 X0.3917 Y-0.2513
N1080 G1 X0.3967 Y-0.2433
N1090 G1 X0.4016 Y-0.2353
N1100 G1 X0.4106 Y-0.2192
N1110 G1 X0.4146 Y-0.2114
N1120 G1 X0.4225 Y-0.1955
N1130 G1 X0.4259 Y-0.1875
N1140 G1 X0.4294 Y-0.1795
N1150 G1 X0.4327 Y-0.1715
N1160 G1 X0.4386 Y-0.1556
N1170 G1 X0.4414 Y-0.1476
N1180 G1 X0.4464 Y-0.1316
N1190 G1 X0.4487 Y-0.1236
N1200 G1 X0.4528 Y-0.1077
N1210 G1 X0.4546 Y-0.0997
N1220 G1 X0.4585 Y-0.0805
N1230 G1 X0.4592 Y-0.0758
N1240 G1 X0.4616 Y-0.0598
N1250 G1 X0.4625 Y-0.0518
N1260 G1 X0.464 Y-0.0359
N1270 G1 X0.4646 Y-0.0279
N1280 G1 X0.4653 Y-0.012
N1290 G1 X0.4654 Y-0.004
N1300 G1 X0.4653 Y0.012
N1310 G1 X0.465 Y0.02
N1320 G1 X0.464 Y0.0359
N1330 G1 X0.4633 Y0.0439
N1340 G1 X0.4616 Y0.0598
N1350 G1 X0.4605 Y0.0678
N1360 G1 X0.4578 Y0.0838
N1370 G1 X0.4563 Y0.0918
N1380 G1 X0.4528 Y0.1077
N1390 G1 X0.4508 Y0.1157
N1400 G1 X0.4464 Y0.1316
N1410 G1 X0.444 Y0.1396
N1420 G1 X0.4387 Y0.1556
N1430 G1 X0.4357 Y0.1636
N1440 G1 X0.4295 Y0.1795
N1450 G1 X0.4266 Y0.1861
N1460 G1 X0.4223 Y0.1955
N1470 G1 X0.4186 Y0.2035
N1480 G1 X0.4105 Y0.2194
N1490 G1 X0.4061 Y0.2274
N1500 G1 X0.3968 Y0.2433
N1510 G1 X0.3946 Y0.2468
N1520 G1 X0.3865 Y0.2593
N1530 G1 X0.381 Y0.2673
N1540 G1 X0.3694 Y0.2832
N1550 G1 X0.363 Y0.2912
N1560 G1 X0.3547 Y0.3014
N1570 G1 X0.3496 Y0.3072
N1580 G1 X0.3388 Y0.3192
N1590 G1 X0.335 Y0.3231
N1600 G1 X0.3228 Y0.3353
N1610 G1 X0.3189 Y0.3391
N1620 G1 X0.3068 Y0.3499
N1630 G1 X0.301 Y0.355
N1640 G1 X0.2909 Y0.3633
N1650 G1 X0.2829 Y0.3696
N1660 G1 X0.2669 Y0.3813
N1670 G1 X0.259 Y0.3867
N1680 G1 X0.2463 Y0.3949
N1690 G1 X0.243 Y0.397
N1700 G1 X0.227 Y0.4063
N1710 G1 X0.219 Y0.4106
N1720 G1 X0.2031 Y0.4189
N1730 G1 X0.1951 Y0.4225
N1740 G1 X0.1791 Y0.4297
N1750 G1 X0.1712 Y0.4331
N1760 G1 X-0.18 Y0.5807
N1770 G1 X-0.188 Y0.5842
N1780 G1 X-0.1924 Y0.5864
N1790 G1 X-0.196 Y0.5884
N1800 G1 X-0.2039 Y0.5933
N1810 G1 X-0.2055 Y0.5944
N1820 G1 X-0.5551 Y0.8378
N1830 G1 X-0.5608 Y0.8417
N1840 G1 X-0.5631 Y0.8434
N1850 G1 X-0.571 Y0.8497
N1860 G1 X-0.5711 Y0.8498
N1870 G1 X-0.5751 Y0.8534
N1880 G1 X-0.5791 Y0.8574
N1890 G1 X-0.5793 Y0.8577
N1900 G1 X-0.5863 Y0.8656
N1910 G1 X-0.587 Y0.8666
N1920 G1 X-0.5922 Y0.8736
N1930 G1 X-0.595 Y0.878
N1940 G1 X-0.5972 Y0.8816
N1950 G1 X-0.6014 Y0.8896
N1960 G1 X-0.603 Y0.893
N1970 G1 X-0.6049 Y0.8975
N1980 G1 X-0.6078 Y0.9055
N1990 G1 X-0.6101 Y0.9135
N2000 G1 X-0.611 Y0.9174
N2010 G1 X-0.6118 Y0.9215
N2020 G1 X-0.613 Y0.9295
N2030 G1 X-0.6137 Y0.9374
N2040 G1 X-0.6138 Y0.9454
N2050 G1 X-0.6135 Y0.9534
N2060 G1 X-0.6126 Y0.9614
N2070 G1 X-0.6112 Y0.9693
N2080 G1 X-0.611 Y0.9705
N2090 G1 X-0.6093 Y0.9773
N2100 G1 X-0.6068 Y0.9853
N2110 G1 X-0.6037 Y0.9933
N2120 G1 X-0.603 Y0.9948
N2130 G1 X-0.5999 Y1.0013
N2140 G1 X-0.5954 Y1.0092
N2150 G1 X-0.595 Y1.0099
N2160 G1 X-0.5901 Y1.0172
N2170 G1 X-0.587 Y1.0213
N2180 G1 X-0.5838 Y1.0252
N2190 G1 X-0.5791 Y1.0304
N2200 G1 X-0.5764 Y1.0332
N2210 G1 X-0.5711 Y1.0381
N2220 G1 X-0.5674 Y1.0411
N2230 G1 X-0.5631 Y1.0445
N2240 G1 X-0.5563 Y1.0491
N2250 G1 X-0.5551 Y1.0499
N2260 G1 X-0.5471 Y1.0545
N2270 G1 X-0.5419 Y1.0571
N2280 G1 X-0.5072 Y1.0742
N2290 G1 X-0.4992 Y1.0779
N2300 G1 X-0.4673 Y1.0922
N2310 G1 X-0.4593 Y1.0955
N2320 G1 X-0.4274 Y1.1083
N2330 G1 X-0.4194 Y1.1115
N2340 G1 X-0.4153 Y1.113
N2350 G1 X-0.3795 Y1.1257
N2360 G1 X-0.3716 Y1.1283
N2370 G1 X-0.3396 Y1.1383
N2380 G1 X-0.3316 Y1.1408
N2390 G1 X-0.3237 Y1.1429
N2400 G1 X-0.2917 Y1.1516
N2410 G1 X-0.2868 Y1.1528
N2420 G1 X-0.2838 Y1.1535
N2430 G1 X-0.2518 Y1.1609
N2440 G1 X-0.2439 Y1.1627
N2450 G1 X-0.2359 Y1.1642
N2460 G1 X-0.2039 Y1.1703
N2470 G1 X-0.196 Y1.1717
N2480 G1 X-0.1561 Y1.1777
N2490 G1 X-0.1481 Y1.1787
N2500 G1 X-0.1162 Y1.1822
N2510 G1 X-0.1082 Y1.1831
N2520 G1 X-0.1002 Y1.1837
N2530 G1 X-0.0683 Y1.1859
N2540 G1 X-0.0603 Y1.1865
N2550 G1 X-0.0523 Y1.1867
N2560 G1 X-0.0204 Y1.1878
N2570 G1 X-0.0124 Y1.1879
N2580 G1 X0.0275 Y1.1876
N2590 G1 X0.0355 Y1.1874
N2600 G1 X0.0674 Y1.186
N2610 G1 X0.0754 Y1.1856
N2620 G1 X0.0834 Y1.185
N2630 G1 X0.1153 Y1.1823
N2640 G1 X0.1233 Y1.1816
N2650 G1 X0.1313 Y1.1806
N2660 G1 X0.1632 Y1.1767
N2670 G1 X0.1712 Y1.1756
N2680 G1 X0.2111 Y1.1691
N2690 G1 X0.2127 Y1.1688
N2700 G1 X0.219 Y1.1676
N2710 G1 X0.2522 Y1.1608
N2720 G1 X0.259 Y1.1594
N2730 G1 X0.2669 Y1.1575
N2740 G1 X0.2989 Y1.1497
N2750 G1 X0.3068 Y1.1476
N2760 G1 X0.3446 Y1.1369
N2770 G1 X0.3467 Y1.1363
N2780 G1 X0.3547 Y1.1337
N2790 G1 X0.3867 Y1.1232
N2800 G1 X0.3935 Y1.1209
N2810 G1 X0.3946 Y1.1205
N2820 G1 X0.4266 Y1.1086
N2830 G1 X0.4345 Y1.1057
N2840 G1 X0.4363 Y1.105
N2850 G1 X0.4425 Y1.1024
N2860 G1 X0.4747 Y1.089
N2870 G1 X0.4824 Y1.0856
N2880 G1 X0.5143 Y1.0708
N2890 G1 X0.5223 Y1.067
N2900 G1 X0.5573 Y1.0491
N2910 G1 X0.5622 Y1.0465
N2920 G1 X0.5942 Y1.0286
N2930 G1 X0.6003 Y1.0252
N2940 G1 X0.6021 Y1.0241
N2950 G1 X0.6341 Y1.0045
N2960 G1 X0.6394 Y1.0013
N2970 G1 X0.642 Y0.9995
N2980 G1 X0.6753 Y0.9773
N2990 G1 X0.682 Y0.9727
N3000 G1 X0.7086 Y0.9534
N3010 G1 X0.7139 Y0.9496
N3020 G1 X0.7193 Y0.9454
N3030 G1 X0.7458 Y0.9246
N3040 G1 X0.7498 Y0.9215
N3050 G1 X0.7538 Y0.9182
N3060 G1 X0.7781 Y0.8975
N3070 G1 X0.7857 Y0.8911
N3080 G1 X0.7874 Y0.8896
N3090 G1 X0.7937 Y0.8838
N3100 G1 X0.8176 Y0.8618
N3110 G1 X0.822 Y0.8577
N3120 G1 X0.8496 Y0.8303
N3130 G1 X0.8541 Y0.8257
N3140 G1 X0.8575 Y0.822
N3150 G1 X0.8815 Y0.7964
N3160 G1 X0.8838 Y0.7938
N3170 G1 X0.8895 Y0.7874
N3180 G1 X0.9114 Y0.7619
N3190 G1 X0.9134 Y0.7596
N3200 G1 X0.918 Y0.7539
N3210 G1 X0.9373 Y0.7297
N3220 G1 X0.9434 Y0.722
N3230 G1 X0.9453 Y0.7194
N3240 G1 X0.9669 Y0.6901
N3250 G1 X0.9693 Y0.6869
N3260 G1 X0.9726 Y0.6821
N3270 G1 X0.9942 Y0.6502
N3280 G1 X0.9993 Y0.6422
N3290 G1 X1.0192 Y0.6103
N3300 G1 X1.0239 Y0.6024
N3310 G1 X1.042 Y0.5704
N3320 G1 X1.0463 Y0.5625
N3330 G1 X1.0629 Y0.5306
N3340 G1 X1.065 Y0.5263
N3350 G1 X1.0668 Y0.5226
N3360 G1 X1.0819 Y0.4907
N3370 G1 X1.0855 Y0.4827
N3380 G1 X1.099 Y0.4508
N3390 G1 X1.1024 Y0.4428
N3400 G1 X1.105 Y0.4361
N3410 G1 X1.1176 Y0.4029
N3420 G1 X1.1204 Y0.3949
N3430 G1 X1.1311 Y0.363
N3440 G1 X1.1337 Y0.355
N3450 G1 X1.136 Y0.3471
N3460 G1 X1.1454 Y0.3151
N3470 G1 X1.1475 Y0.3072
N3480 G1 X1.1556 Y0.2753
N3490 G1 X1.1575 Y0.2673
N3500 G1 X1.1592 Y0.2593
N3510 G1 X1.166 Y0.2274
N3520 G1 X1.1675 Y0.2194
N3530 G1 X1.1743 Y0.1795
N3540 G1 X1.1755 Y0.1715
N3550 G1 X1.1797 Y0.1396
N3560 G1 X1.1807 Y0.1316
N3570 G1 X1.1814 Y0.1237
N3580 G1 X1.1844 Y0.0918
N3590 G1 X1.1848 Y0.0874
N3600 G1 X1.185 Y0.0838
N3610 G1 X1.1854 Y0.0758
N3620 G1 X1.1871 Y0.0439
N3630 G1 X1.1874 Y0.0359
N3640 G1 X1.188 Y-0.004
N3650 G1 X1.1879 Y-0.012
N3660 G1 X1.1871 Y-0.0439
N3670 G1 X1.1869 Y-0.0518
N3680 G1 X1.1864 Y-0.0598
N3690 G1 X1.1844 Y-0.0917
N3700 G1 X1.1838 Y-0.0997
N3710 G1 X1.183 Y-0.1077
N3720 G1 X1.1797 Y-0.1396
N3730 G1 X1.1787 Y-0.1476
N3740 G1 X1.1742 Y-0.1795
N3750 G1 X1.1731 Y-0.1875
N3760 G1 X1.1717 Y-0.1955
N3770 G1 X1.1659 Y-0.2274
N3780 G1 X1.1644 Y-0.2353
N3790 G1 X1.1627 Y-0.2433
N3800 G1 X1.1556 Y-0.2752
N3810 G1 X1.1537 Y-0.2832
N3820 G1 X1.1449 Y-0.3168
N3830 G1 X1.1432 Y-0.3231
N3840 G1 X1.1408 Y-0.3311
N3850 G1 X1.1311 Y-0.363
N3860 G1 X1.1289 Y-0.37
N3870 G1 X1.1286 Y-0.371
N3880 G1 X1.1175 Y-0.4029
N3890 G1 X1.1147 Y-0.4109
N3900 G1 X1.1129 Y-0.4155
N3910 G1 X1.0991 Y-0.4507
N3920 G1 X1.097 Y-0.456
N3930 G1 X1.0958 Y-0.4587
N3940 G1 X1.081 Y-0.4926
N3950 G1 X1.0783 Y-0.4986
N3960 G1 X1.0744 Y-0.5066
N3970 G1 X1.0628 Y-0.5305
N3980 G1 X1.0589 Y-0.5385
N3990 G1 X1.0571 Y-0.5421
N4000 G1 X1.0411 Y-0.572
N4010 G1 X1.0377 Y-0.5784
N4020 G1 X1.0331 Y-0.5863
N4030 G1 X1.0172 Y-0.6136
N4040 G1 X1.0144 Y-0.6183
N4050 G1 X1.0094 Y-0.6263
N4060 G1 X0.9932 Y-0.6516
N4070 G1 X0.989 Y-0.6582
N4080 G1 X0.9852 Y-0.6636
N4090 G1 X0.9669 Y-0.6901
N4100 G1 X0.9613 Y-0.698
N4110 G1 X0.9372 Y-0.73
N4120 G1 X0.9309 Y-0.738
N4130 G1 X0.9114 Y-0.7619
N4140 G1 X0.9054 Y-0.7691
N4150 G1 X0.9047 Y-0.7699
N4160 G1 X0.8815 Y-0.7963
N4170 G1 X0.8766 Y-0.8018
N4180 G1 X0.8735 Y-0.8051
N4190 G1 X0.8463 Y-0.8337
N4200 G1 X0.8416 Y-0.8384
N4210 G1 X0.8136 Y-0.8656
N4220 G1 X0.8096 Y-0.8693
N4230 G1 X0.7857 Y-0.8909
N4240 G1 X0.7783 Y-0.8975
N4250 G1 X0.7777 Y-0.898
N4260 G1 X0.7697 Y-0.9047
N4270 G1 X0.7458 Y-0.9246
N4280 G1 X0.7399 Y-0.9294
N4290 G1 X0.7087 Y-0.9534
N4300 G1 X0.7059 Y-0.9555
N4310 G1 X0.6979 Y-0.9612
N4320 G1 X0.674 Y-0.9782
N4330 G1 X0.666 Y-0.9837
N4340 G1 X0.6636 Y-0.9853
N4350 G1 X0.6341 Y-1.0045
N4360 G1 X0.6267 Y-1.0092
N4370 G1 X0.5942 Y-1.0287
N4380 G1 X0.5864 Y-1.0331
N4390 G1 X0.5543 Y-1.0507
N4400 G1 X0.5463 Y-1.0549
N4410 G1 X0.5143 Y-1.0708
N4420 G1 X0.5098 Y-1.073
N4430 G1 X0.5064 Y-1.0747
N4440 G1 X0.4984 Y-1.0782
N4450 G1 X0.4744 Y-1.089
N4460 G1 X0.4665 Y-1.0926
N4470 G1 X0.4585 Y-1.0958
N4480 G1 X0.4266 Y-1.1087
N4490 G1 X0.4186 Y-1.1117
N4500 G1 X0.3867 Y-1.1232
N4510 G1 X0.3787 Y-1.126
N4520 G1 X0.3707 Y-1.1285
N4530 G1 X0.3388 Y-1.1386
N4540 G1 X0.3308 Y-1.1409
N4550 G1 X0.2989 Y-1.1497
N4560 G1 X0.2909 Y-1.1518
N4570 G1 X0.2867 Y-1.1528
N4580 G1 X0.251 Y-1.1611
N4590 G1 X0.243 Y-1.1628
N4600 G1 X0.2111 Y-1.169
N4610 G1 X0.2031 Y-1.1705
N4620 G1 X0.1951 Y-1.1718
N4630 G1 X0.1624 Y-1.1768
N4640 G1 X0.1552 Y-1.1778
N4650 G1 X0.1472 Y-1.1787
N4660 G1 X0.1153 Y-1.1823
N4670 G1 X0.1073 Y-1.1831
N4680 G1 X0.0674 Y-1.186
N4690 G1 X0.0594 Y-1.1864
N4700 G1 X0.0275 Y-1.1876
N4710 G1 X0.0195 Y-1.1878
N4720 G1 X0.0115
N4730 G1 X-0.0204 Y-1.1877
N4740 G1 X-0.0284
N4750 G1 X-0.0363 Y-1.1873
N4760 G1 X-0.0683 Y-1.186
N4770 G1 X-0.0763 Y-1.1855
N4780 G1 X-0.1162 Y-1.1823
N4790 G1 X-0.1241 Y-1.1814
N4800 G1 X-0.1629 Y-1.1768
N4810 G1 X-0.164 Y-1.1766
N4820 G1 X-0.172 Y-1.1754
N4830 G1 X-0.2039 Y-1.1703
N4840 G1 X-0.2119 Y-1.1689
N4850 G1 X-0.2127 Y-1.1688
N4860 G1 X-0.2279 Y-1.1657
N4870 G1 X-0.2526 Y-1.1608
N4880 G1 X-0.2598 Y-1.1592
N4890 G1 X-0.2917 Y-1.1515
N4900 G1 X-0.2997 Y-1.1496
N4910 G1 X-0.3077 Y-1.1474
N4920 G1 X-0.3396 Y-1.1383
N4930 G1 X-0.3448 Y-1.1369
N4940 G1 X-0.3476 Y-1.136
N4950 G1 X-0.3795 Y-1.1256
N4960 G1 X-0.3875 Y-1.123
N4970 G1 X-0.3934 Y-1.1209
N4980 G1 X-0.4274 Y-1.1084
N4990 G1 X-0.4354 Y-1.1053
N5000 G1 X-0.4673 Y-1.0921
N5010 G1 X-0.4748 Y-1.089
N5020 G1 X-0.4753 Y-1.0888
N5030 G1 X-0.4833 Y-1.0851
N5040 G1 X-0.5096 Y-1.073
N5050 G1 X-0.5152 Y-1.0705
N5060 G1 X-0.5232 Y-1.0665
N5070 G1 X-0.5551 Y-1.0503
N5080 G1 X-0.5574 Y-1.0491
N5090 G1 X-0.5631 Y-1.046
N5100 G1 X-0.595 Y-1.0282
N5110 G1 X-0.6002 Y-1.0252
N5120 G1 X-0.6349 Y-1.0041
N5130 G1 X-0.6394 Y-1.0012
N5140 G1 X-0.6669 Y-0.983
N5150 G1 X-0.6748 Y-0.9777
N5160 G1 X-0.6754 Y-0.9773
N5170 G1 X-0.6828 Y-0.972
N5180 G1 X-0.7087 Y-0.9534
N5190 G1 X-0.7147 Y-0.9489
N5200 G1 X-0.7467 Y-0.924
N5210 G1 X-0.7498 Y-0.9215
N5220 G1 X-0.7546 Y-0.9174
N5230 G1 X-0.7786 Y-0.8972
N5240 G1 X-0.7866 Y-0.8903
N5250 G1 X-0.8135 Y-0.8656
N5260 G1 X-0.8185 Y-0.861
N5270 G1 X-0.822 Y-0.8576
N5280 G1 X-0.8462 Y-0.8337
N5290 G1 X-0.8504 Y-0.8295
N5300 G1 X-0.854 Y-0.8257
N5310 G1 X-0.8765 Y-0.8018
N5320 G1 X-0.8823 Y-0.7955
N5330 G1 X-0.8838 Y-0.7938
N5340 G1 X-0.9063 Y-0.7679
N5350 G1 X-0.9115 Y-0.7619
N5360 G1 X-0.9143 Y-0.7585
N5370 G1 X-0.9178 Y-0.7539
N5380 G1 X-0.9222 Y-0.7473
N5390 G1 X-0.9231 Y-0.7459
N5400 G1 X-0.9276 Y-0.738
N5410 G1 X-0.9302 Y-0.7324
N5420 G1 X-0.9313 Y-0.73
N5430 G1 X-0.9344 Y-0.722
N5440 G1 X-0.9369 Y-0.714
N5450 G1 X-0.9382 Y-0.7089
N5460 G1 X-0.9383 Y-0.7085
N5470 G1 X-0.9384 Y-0.7081
N5480 G1 X-0.9386 Y-0.7072
N5490 G1 X-0.939 Y-0.7055
N5500 G1 X-0.9396 Y-0.702
N5510 G1 X-0.9406 Y-0.695
N5520 G1 X-0.9412 Y-0.688
N5530 G1 X-0.9414 Y-0.681
N5540 G1 X-0.9412 Y-0.6739 Z-0.1501
N5550 G1 X-0.9407 Y-0.6669
N5560 G1 X-0.9397 Y-0.6599
N5570 G1 X-0.9383 Y-0.653 Z-0.1502
N5580 G1 X-0.9366 Y-0.6462
N5590 G1 X-0.9344 Y-0.6395
N5600 G1 X-0.9319 Y-0.6329 Z-0.1503
N5610 G1 X-0.929 Y-0.6265
N5620 G1 X-0.9258 Y-0.6202 Z-0.1504
N5630 G1 X-0.9222 Y-0.6142 Z-0.1505
N5640 G1 X-0.9183 Y-0.6083
N5650 G1 X-0.9141 Y-0.6027 Z-0.1506
N5660 G1 X-0.9095 Y-0.5973 Z-0.1507
N5670 G1 X-0.9047 Y-0.5922 Z-0.1508
N5680 G1 X-0.8996 Y-0.5874
N5690 G1 X-0.8942 Y-0.5828 Z-0.1509
N5700 G1 X-0.8885 Y-0.5786 Z-0.151
N5710 G1 X-0.8827 Y-0.5747 Z-0.1511
N5720 G1 X-0.8766 Y-0.5712 Z-0.1512
N5730 G1 X-0.8703 Y-0.5679 Z-0.1513
N5740 G1 X-0.8639 Y-0.5651 Z-0.1514
N5750 G1 X-0.8573 Y-0.5626 Z-0.1516
N5760 G1 X-0.8506 Y-0.5605 Z-0.1517
N5770 G1 X-0.8437 Y-0.5588 Z-0.1518
N5780 G1 X-0.8369 Y-0.5573 Z-0.1519
N5790 G1 X-0.83 Y-0.5558 Z-0.152
N5800 G1 X-0.8231 Y-0.5543 Z-0.1522
N5810 G1 X-0.8162 Y-0.5529 Z-0.1523
N5820 G1 X-0.8093 Y-0.5514 Z-0.1525
N5830 G1 X-0.8024 Y-0.5499 Z-0.1526
N5840 G1 X-0.7955 Y-0.5485 Z-0.1527
N5850 G1 X-0.7886 Y-0.547 Z-0.1529
N5860 G1 X-0.7818 Y-0.5455 Z-0.1531
N5870 G1 X-0.7749 Y-0.5441 Z-0.1532
N5880 G1 X-0.768 Y-0.5426 Z-0.1534
N5890 G1 X-0.7611 Y-0.5411 Z-0.1535
N5900 G1 X-0.7542 Y-0.5396 Z-0.1537
N5910 G1 X-0.7473 Y-0.5382 Z-0.1539
N5920 G1 X-0.7404 Y-0.5367 Z-0.154
N5930 G1 X-0.7335 Y-0.5352 Z-0.1542
N5940 G1 X-0.7267 Y-0.5338 Z-0.1544
N5950 G1 X-0.7198 Y-0.5323 Z-0.1546
N5960 G1 X-0.7129 Y-0.5308 Z-0.1548
N5970 G1 X-0.706 Y-0.5294 Z-0.155
N5980 G1 X-0.6991 Y-0.5279 Z-0.1552
N5990 G1 X-0.6922 Y-0.5264 Z-0.1554
N6000 G1 X-0.6853 Y-0.525 Z-0.1556
N6010 G1 X-0.6819 Y-0.5242 Z-0.1557
N6020 G1 X-0.6784 Y-0.5235 Z-0.1558
N6030 G1 X-0.675 Y-0.5227 Z-0.1559
N6040 G1 X-0.6716 Y-0.522 Z-0.156
N6050 G1 X-0.6681 Y-0.5213 Z-0.1561
N6060 G1 X-0.6647 Y-0.5205 Z-0.1562
N6070 G1 X-0.6612 Y-0.5198 Z-0.1563
N6080 G1 X-0.6578 Y-0.5191 Z-0.1564
N6090 G1 X-0.6543 Y-0.5183 Z-0.1565
N6100 G1 X-0.6509 Y-0.5176 Z-0.1566
N6110 G1 X-0.6474 Y-0.5169 Z-0.1567
N6120 G1 X-0.644 Y-0.5161 Z-0.1568
N6130 G1 X-0.6406 Y-0.5154 Z-0.1569
N6140 G1 X-0.6371 Y-0.5147 Z-0.157
N6150 G1 X-0.6337 Y-0.5139 Z-0.1571
N6160 G1 X-0.6302 Y-0.5132 Z-0.1572
N6170 G1 X-0.6268 Y-0.5125 Z-0.1574
N6180 G1 X-0.6233 Y-0.5117 Z-0.1575
N6190 G1 X-0.6199 Y-0.511 Z-0.1576
N6200 G1 X-0.6165 Y-0.5103 Z-0.1577
N6210 G1 X-0.613 Y-0.5095 Z-0.1578
N6220 G1 X-0.6096 Y-0.5088 Z-0.1579
N6230 G1 X-0.6061 Y-0.5081 Z-0.158
N6240 G1 X-0.6027 Y-0.5073 Z-0.1582
N6250 G1 X-0.5958 Y-0.5059 Z-0.1584
N6260 G1 X-0.5889 Y-0.5044 Z-0.1586
N6270 G1 X-0.582 Y-0.5029 Z-0.1589
N6280 G1 X-0.5751 Y-0.5014 Z-0.1591
N6290 G1 X-0.5682 Y-0.5 Z-0.1593
N6300 G1 X-0.5614 Y-0.4985 Z-0.1596
N6310 G1 X-0.551 Y-0.4963 Z-0.16
N6320 G1 X-0.5441 Y-0.4948 Z-0.1602
N6330 G1 X-0.5407 Y-0.4941 Z-0.1603
N6340 G1 X-0.5338 Y-0.4926 Z-0.1606
N6350 G1 X-0.5235 Y-0.4904 Z-0.1609
N6360 G1 X-0.5166 Y-0.489 Z-0.1612
N6370 G1 X-0.5131 Y-0.4882 Z-0.1613
N6380 G1 X-0.5063 Y-0.4867 Z-0.1616
N6390 G1 X-0.4959 Y-0.4845 Z-0.1619
N6400 G1 X-0.489 Y-0.4831 Z-0.1622
N6410 G1 X-0.4856 Y-0.4823 Z-0.1623
N6420 G1 X-0.4787 Y-0.4809 Z-0.1625
N6430 G1 X-0.4684 Y-0.4787 Z-0.1629
N6440 G1 X-0.4615 Y-0.4772 Z-0.1632
N6450 G1 X-0.458 Y-0.4765 Z-0.1633
N6460 G1 X-0.4512 Y-0.475 Z-0.1635
N6470 G1 X-0.4374 Y-0.4721 Z-0.164
N6480 G1 X-0.4202 Y-0.4684 Z-0.1646
N6490 G1 X-0.4167 Y-0.4677 Z-0.1648
N6500 G1 X-0.4132 Y-0.4671 Z-0.1649
N6510 G1 X-0.4097 Y-0.4666 Z-0.165
N6520 G1 X-0.4062 Y-0.4662 Z-0.1651
N6530 G1 X-0.4027 Y-0.4659 Z-0.1653
N6540 G1 X-0.3992 Y-0.4657 Z-0.1654
N6550 G1 X-0.3957 Y-0.4656 Z-0.1655
N6560 G1 X-0.3922 Z-0.1656
N6570 G1 X-0.3887 Z-0.1657
N6580 G1 X-0.3816 Z-0.166
N6590 G1 X-0.3605 Z-0.1667
N6600 G1 X-0.3499 Z-0.1671
N6610 G1 X-0.3429 Z-0.1673
N6620 G1 X-0.3218 Z-0.1681
N6630 G1 X-0.3147 Z-0.1683
N6640 G1 X-0.2936 Z-0.1691
N6650 G1 X-0.2865 Z-0.1693
N6660 G1 X-0.2654 Z-0.17
N6670 G1 X-0.2549 Z-0.1704
N6680 G1 X-0.2056 Z-0.1721
N6690 G1 X-0.1809 Z-0.173
N6700 G1 X-0.1492 Z-0.1741
N6710 G1 X-0.0506 Z-0.1775
N6720 G1 X-0.026 Z-0.1784
N6730 G1 X-0.0084 Z-0.179
N6740 G1 X-0.0048 Z-0.1791
N6750 G1 X-0.0013 Y-0.4655 Z-0.1793
N6760 G1 X0.0233 Y-0.4649 Z-0.1801
N6770 G1 X0.0268 Y-0.4647 Z-0.1803
N6780 G1 X0.0479 Y-0.463 Z-0.181
N6790 G1 X0.0514 Y-0.4626 Z-0.1811
N6800 G1 X0.0689 Y-0.4603 Z-0.1817
N6810 G1 X0.0724 Y-0.4598 Z-0.1819
N6820 G1 X0.0793 Y-0.4586 Z-0.1821
N6830 G1 X0.0931 Y-0.456 Z-0.1826
N6840 G1 X0.0966 Y-0.4554 Z-0.1827
N6850 G1 X0.1171 Y-0.4505 Z-0.1834
N6860 G1 X0.1206 Y-0.4496 Z-0.1836
N6870 G1 X0.1273 Y-0.4476 Z-0.1838
N6880 G1 X0.1307 Y-0.4466 Z-0.1839
N6890 G1 X0.1375 Y-0.4446 Z-0.1842
N6900 G1 X0.1408 Y-0.4437 Z-0.1843
N6910 G1 X0.1442 Y-0.4426 Z-0.1844
N6920 G1 X0.1508 Y-0.4402 Z-0.1847
N6930 G1 X0.1641 Y-0.4356 Z-0.1852
N6940 G1 X0.1674 Y-0.4343 Z-0.1853
N6950 G1 X0.1707 Y-0.433 Z-0.1854
N6960 G1 X0.1772 Y-0.4303 Z-0.1857
N6970 G1 X0.187 Y-0.4263 Z-0.186
N6980 G1 X0.1902 Y-0.4248 Z-0.1862
N6990 G1 X0.1997 Y-0.4203 Z-0.1865
N7000 G1 X0.2061 Y-0.4173 Z-0.1868
N7010 G1 X0.2093 Y-0.4158 Z-0.1869
N7020 G1 X0.2155 Y-0.4125 Z-0.1871
N7030 G1 X0.2248 Y-0.4075 Z-0.1875
N7040 G1 X0.2279 Y-0.4058 Z-0.1876
N7050 G1 X0.231 Y-0.4041 Z-0.1878
N7060 G1 X0.234 Y-0.4023 Z-0.1879
N7070 G1 X0.24 Y-0.3987 Z-0.1881
N7080 G1 X0.2491 Y-0.3932 Z-0.1885
N7090 G1 X0.252 Y-0.3913 Z-0.1886
N7100 G1 X0.2608 Y-0.3854 Z-0.189
N7110 G1 X0.2666 Y-0.3815 Z-0.1892
N7120 G1 X0.2695 Y-0.3795 Z-0.1894
N7130 G1 X0.2724 Y-0.3774 Z-0.1895
N7140 G1 X0.278 Y-0.3732 Z-0.1897
N7150 G1 X0.2808 Y-0.3711 Z-0.1898
N7160 G1 X0.2864 Y-0.3668 Z-0.1901
N7170 G1 X0.2893 Y-0.3647 Z-0.1902
N7180 G1 X0.292 Y-0.3625 Z-0.1903
N7190 G1 X0.2974 Y-0.3579 Z-0.1906
N7200 G1 X0.3028 Y-0.3534 Z-0.1908
N7210 G1 X0.3082 Y-0.3489 Z-0.1911
N7220 G1 X0.3108 Y-0.3465 Z-0.1912
N7230 G1 X0.3159 Y-0.3417 Z-0.1914
N7240 G1 X0.3211 Y-0.3369 Z-0.1917
N7250 G1 X0.3236 Y-0.3345 Z-0.1918
N7260 G1 X0.3262 Y-0.3321 Z-0.1919
N7270 G1 X0.3287 Y-0.3296 Z-0.192
N7280 G1 X0.3311 Y-0.327 Z-0.1921
N7290 G1 X0.3335 Y-0.3245 Z-0.1922
N7300 G1 X0.336 Y-0.322 Z-0.1923
N7310 G1 X0.3384 Y-0.3194 Z-0.1925
N7320 G1 X0.3409 Y-0.3169 Z-0.1926
N7330 G1 X0.3433 Y-0.3144 Z-0.1927
N7340 G1 X0.3456 Y-0.3117 Z-0.1928
N7350 G1 X0.3479 Y-0.309 Z-0.1929
N7360 G1 X0.3503 Y-0.3064 Z-0.193
N7370 G1 X0.3526 Y-0.3037 Z-0.1931
N7380 G1 X0.3549 Y-0.3011 Z-0.1932
N7390 G1 X0.3572 Y-0.2984 Z-0.1933
N7400 G1 X0.3595 Y-0.2957 Z-0.1935
N7410 G1 X0.3616 Y-0.293 Z-0.1936
N7420 G1 X0.3638 Y-0.2902 Z-0.1937
N7430 G1 X0.366 Y-0.2874 Z-0.1938
N7440 G1 X0.3682 Y-0.2846 Z-0.1939
N7450 G1 X0.3703 Y-0.2819 Z-0.194
N7460 G1 X0.3725 Y-0.2791 Z-0.1941
N7470 G1 X0.3746 Y-0.2763 Z-0.1942
N7480 G1 X0.3766 Y-0.2734 Z-0.1943
N7490 G1 X0.3787 Y-0.2705 Z-0.1944
N7500 G1 X0.3827 Y-0.2648 Z-0.1946
N7510 G1 X0.3868 Y-0.259 Z-0.1948
N7520 G1 X0.3906 Y-0.2531 Z-0.195
N7530 G1 X0.3943 Y-0.2471 Z-0.1952
N7540 G1 X0.3981 Y-0.2411 Z-0.1954
N7550 G1 X0.4017 Y-0.2351 Z-0.1955
N7560 G1 X0.4051 Y-0.229 Z-0.1957
N7570 G1 X0.4086 Y-0.2228 Z-0.1959
N7580 G1 X0.412 Y-0.2167 Z-0.1961
N7590 G1 X0.4151 Y-0.2104 Z-0.1962
N7600 G1 X0.4182 Y-0.204 Z-0.1964
N7610 G1 X0.4214 Y-0.1977 Z-0.1966
N7620 G1 X0.4243 Y-0.1913 Z-0.1967
N7630 G1 X0.4271 Y-0.1848 Z-0.1969
N7640 G1 X0.4298 Y-0.1784 Z-0.1971
N7650 G1 X0.4326 Y-0.1719 Z-0.1972
N7660 G1 X0.435 Y-0.1653 Z-0.1974
N7670 G1 X0.4375 Y-0.1587 Z-0.1975
N7680 G1 X0.4399 Y-0.1521 Z-0.1976
N7690 G1 X0.4421 Y-0.1454 Z-0.1978
N7700 G1 X0.4442 Y-0.1387 Z-0.1979
N7710 G1 X0.4463 Y-0.1319 Z-0.198
N7720 G1 X0.4483 Y-0.1252 Z-0.1982
N7730 G1 X0.4501 Y-0.1184 Z-0.1983
N7740 G1 X0.4518 Y-0.1115 Z-0.1984
N7750 G1 X0.4536 Y-0.1047 Z-0.1985
N7760 G1 X0.455 Y-0.0978 Z-0.1986
N7770 G1 X0.4564 Y-0.0909 Z-0.1987
N7780 G1 X0.4578 Y-0.084 Z-0.1988
N7790 G1 X0.459 Y-0.0771 Z-0.1989
N7800 G1 X0.4611 Y-0.0631 Z-0.1991
N7810 G1 X0.4628 Y-0.0492 Z-0.1993
N7820 G1 X0.4641 Y-0.0351 Z-0.1994
N7830 G1 X0.4649 Y-0.0211 Z-0.1996
N7840 G1 X0.4654 Y-0.007 Z-0.1997
N7850 G1 X0.4653 Y0.0071 Z-0.1998
N7860 G1 X0.4649 Y0.0212 Z-0.1999
N7870 G1 X0.4641 Y0.0352
N7880 G1 X0.4627 Y0.0492 Z-0.2
N7890 G1 X0.4612 Y0.0632
N7900 G1 X0.4605 Y0.0677
N7910 G1 X0.4597 Y0.0722
N7920 G1 X0.4578 Y0.0838
N7930 G1 X0.4563 Y0.0918
N7940 G1 X0.4528 Y0.1077
N7950 G1 X0.4508 Y0.1157
N7960 G1 X0.4464 Y0.1316
N7970 G1 X0.444 Y0.1396
N7980 G1 X0.4387 Y0.1556
N7990 G1 X0.4357 Y0.1636
N8000 G1 X0.4295 Y0.1795
N8010 G1 X0.4266 Y0.1861
N8020 G1 X0.4223 Y0.1955
N8030 G1 X0.4186 Y0.2035
N8040 G1 X0.4105 Y0.2194
N8050 G1 X0.4061 Y0.2274
N8060 G1 X0.3968 Y0.2433
N8070 G1 X0.3946 Y0.2468
N8080 G1 X0.3865 Y0.2593
N8090 G1 X0.381 Y0.2673
N8100 G1 X0.3694 Y0.2832
N8110 G1 X0.363 Y0.2912
N8120 G1 X0.3547 Y0.3014
N8130 G1 X0.3496 Y0.3072
N8140 G1 X0.3388 Y0.3192
N8150 G1 X0.335 Y0.3231
N8160 G1 X0.3228 Y0.3353
N8170 G1 X0.3189 Y0.3391
N8180 G1 X0.3068 Y0.3499
N8190 G1 X0.301 Y0.355
N8200 G1 X0.2909 Y0.3633
N8210 G1 X0.2829 Y0.3696
N8220 G1 X0.2669 Y0.3813
N8230 G1 X0.259 Y0.3867
N8240 G1 X0.2463 Y0.3949
N8250 G1 X0.243 Y0.397
N8260 G1 X0.227 Y0.4063
N8270 G1 X0.219 Y0.4106
N8280 G1 X0.2031 Y0.4189
N8290 G1 X0.1951 Y0.4225
N8300 G1 X0.1791 Y0.4297
N8310 G1 X0.1712 Y0.4331
N8320 G1 X-0.18 Y0.5807
N8330 G1 X-0.188 Y0.5842
N8340 G1 X-0.1924 Y0.5864
N8350 G1 X-0.196 Y0.5884
N8360 G1 X-0.2039 Y0.5933
N8370 G1 X-0.2055 Y0.5944
N8380 G1 X-0.5551 Y0.8378
N8390 G1 X-0.5608 Y0.8417
N8400 G1 X-0.5631 Y0.8434
N8410 G1 X-0.571 Y0.8497
N8420 G1 X-0.5711 Y0.8498
N8430 G1 X-0.5751 Y0.8534
N8440 G1 X-0.5791 Y0.8574
N8450 G1 X-0.5793 Y0.8577
N8460 G1 X-0.5863 Y0.8656
N8470 G1 X-0.587 Y0.8666
N8480 G1 X-0.5922 Y0.8736
N8490 G1 X-0.595 Y0.878
N8500 G1 X-0.5972 Y0.8816
N8510 G1 X-0.6014 Y0.8896
N8520 G1 X-0.603 Y0.893
N8530 G1 X-0.6049 Y0.8975
N8540 G1 X-0.6078 Y0.9055
N8550 G1 X-0.6101 Y0.9135
N8560 G1 X-0.611 Y0.9174
N8570 G1 X-0.6118 Y0.9215
N8580 G1 X-0.613 Y0.9295
N8590 G1 X-0.6137 Y0.9374
N8600 G1 X-0.6138 Y0.9454
N8610 G1 X-0.6135 Y0.9534
N8620 G1 X-0.6126 Y0.9614
N8630 G1 X-0.6112 Y0.9693
N8640 G1 X-0.611 Y0.9705
N8650 G1 X-0.6093 Y0.9773
N8660 G1 X-0.6068 Y0.9853
N8670 G1 X-0.6037 Y0.9933
N8680 G1 X-0.603 Y0.9948
N8690 G1 X-0.5999 Y1.0013
N8700 G1 X-0.5954 Y1.0092
N8710 G1 X-0.595 Y1.0099
N8720 G1 X-0.5901 Y1.0172
N8730 G1 X-0.587 Y1.0213
N8740 G1 X-0.5838 Y1.0252
N8750 G1 X-0.5791 Y1.0304
N8760 G1 X-0.5764 Y1.0332
N8770 G1 X-0.5711 Y1.0381
N8780 G1 X-0.5674 Y1.0411
N8790 G1 X-0.5631 Y1.0445
N8800 G1 X-0.5563 Y1.0491
N8810 G1 X-0.5551 Y1.0499
N8820 G1 X-0.5471 Y1.0545
N8830 G1 X-0.5419 Y1.0571
N8840 G1 X-0.5072 Y1.0742
N8850 G1 X-0.4992 Y1.0779
N8860 G1 X-0.4673 Y1.0922
N8870 G1 X-0.4593 Y1.0955
N8880 G1 X-0.4274 Y1.1083
N8890 G1 X-0.4194 Y1.1115
N8900 G1 X-0.4153 Y1.113
N8910 G1 X-0.3795 Y1.1257
N8920 G1 X-0.3716 Y1.1283
N8930 G1 X-0.3396 Y1.1383
N8940 G1 X-0.3316 Y1.1408
N8950 G1 X-0.3237 Y1.1429
N8960 G1 X-0.2917 Y1.1516
N8970 G1 X-0.2868 Y1.1528
N8980 G1 X-0.2838 Y1.1535
N8990 G1 X-0.2518 Y1.1609
N9000 G1 X-0.2439 Y1.1627
N9010 G1 X-0.2359 Y1.1642
N9020 G1 X-0.2039 Y1.1703
N9030 G1 X-0.196 Y1.1717
N9040 G1 X-0.1561 Y1.1777
N9050 G1 X-0.1481 Y1.1787
N9060 G1 X-0.1162 Y1.1822
N9070 G1 X-0.1082 Y1.1831
N9080 G1 X-0.1002 Y1.1837
N9090 G1 X-0.0683 Y1.1859
N9100 G1 X-0.0603 Y1.1865
N9110 G1 X-0.0523 Y1.1867
N9120 G1 X-0.0204 Y1.1878
N9130 G1 X-0.0124 Y1.1879
N9140 G1 X0.0275 Y1.1876
N9150 G1 X0.0355 Y1.1874
N9160 G1 X0.0674 Y1.186
N9170 G1 X0.0754 Y1.1856
N9180 G1 X0.0834 Y1.185
N9190 G1 X0.1153 Y1.1823
N9200 G1 X0.1233 Y1.1816
N9210 G1 X0.1313 Y1.1806
N9220 G1 X0.1632 Y1.1767
N9230 G1 X0.1712 Y1.1756
N9240 G1 X0.2111 Y1.1691
N9250 G1 X0.2127 Y1.1688
N9260 G1 X0.219 Y1.1676
N9270 G1 X0.2522 Y1.1608
N9280 G1 X0.259 Y1.1594
N9290 G1 X0.2669 Y1.1575
N9300 G1 X0.2989 Y1.1497
N9310 G1 X0.3068 Y1.1476
N9320 G1 X0.3446 Y1.1369
N9330 G1 X0.3467 Y1.1363
N9340 G1 X0.3547 Y1.1337
N9350 G1 X0.3867 Y1.1232
N9360 G1 X0.3935 Y1.1209
N9370 G1 X0.3946 Y1.1205
N9380 G1 X0.4266 Y1.1086
N9390 G1 X0.4345 Y1.1057
N9400 G1 X0.4363 Y1.105
N9410 G1 X0.4425 Y1.1024
N9420 G1 X0.4747 Y1.089
N9430 G1 X0.4824 Y1.0856
N9440 G1 X0.5143 Y1.0708
N9450 G1 X0.5223 Y1.067
N9460 G1 X0.5573 Y1.0491
N9470 G1 X0.5622 Y1.0465
N9480 G1 X0.5942 Y1.0286
N9490 G1 X0.6003 Y1.0252
N9500 G1 X0.6021 Y1.0241
N9510 G1 X0.6341 Y1.0045
N9520 G1 X0.6394 Y1.0013
N9530 G1 X0.642 Y0.9995
N9540 G1 X0.6753 Y0.9773
N9550 G1 X0.682 Y0.9727
N9560 G1 X0.7086 Y0.9534
N9570 G1 X0.7139 Y0.9496
N9580 G1 X0.7193 Y0.9454
N9590 G1 X0.7458 Y0.9246
N9600 G1 X0.7498 Y0.9215
N9610 G1 X0.7538 Y0.9182
N9620 G1 X0.7781 Y0.8975
N9630 G1 X0.7857 Y0.8911
N9640 G1 X0.7874 Y0.8896
N9650 G1 X0.7937 Y0.8838
N9660 G1 X0.8176 Y0.8618
N9670 G1 X0.822 Y0.8577
N9680 G1 X0.8496 Y0.8303
N9690 G1 X0.8541 Y0.8257
N9700 G1 X0.8575 Y0.822
N9710 G1 X0.8815 Y0.7964
N9720 G1 X0.8838 Y0.7938
N9730 G1 X0.8895 Y0.7874
N9740 G1 X0.9114 Y0.7619
N9750 G1 X0.9134 Y0.7596
N9760 G1 X0.918 Y0.7539
N9770 G1 X0.9373 Y0.7297
N9780 G1 X0.9434 Y0.722
N9790 G1 X0.9453 Y0.7194
N9800 G1 X0.9669 Y0.6901
N9810 G1 X0.9693 Y0.6869
N9820 G1 X0.9726 Y0.6821
N9830 G1 X0.9942 Y0.6502
N9840 G1 X0.9993 Y0.6422
N9850 G1 X1.0192 Y0.6103
N9860 G1 X1.0239 Y0.6024
N9870 G1 X1.042 Y0.5704
N9880 G1 X1.0463 Y0.5625
N9890 G1 X1.0629 Y0.5306
N9900 G1 X1.065 Y0.5263
N9910 G1 X1.0668 Y0.5226
N9920 G1 X1.0819 Y0.4907
N9930 G1 X1.0855 Y0.4827
N9940 G1 X1.099 Y0.4508
N9950 G1 X1.1024 Y0.4428
N9960 G1 X1.105 Y0.4361
N9970 G1 X1.1176 Y0.4029
N9980 G1 X1.1204 Y0.3949
N9990 G1 X1.1311 Y0.363
N10000 G1 X1.1337 Y0.355
N10010 G1 X1.136 Y0.3471
N10020 G1 X1.1454 Y0.3151
N10030 G1 X1.1475 Y0.3072
N10040 G1 X1.1556 Y0.2753
N10050 G1 X1.1575 Y0.2673
N10060 G1 X1.1592 Y0.2593
N10070 G1 X1.166 Y0.2274
N10080 G1 X1.1675 Y0.2194
N10090 G1 X1.1743 Y0.1795
N10100 G1 X1.1755 Y0.1715
N10110 G1 X1.1797 Y0.1396
N10120 G1 X1.1807 Y0.1316
N10130 G1 X1.1814 Y0.1237
N10140 G1 X1.1844 Y0.0918
N10150 G1 X1.1848 Y0.0874
N10160 G1 X1.185 Y0.0838
N10170 G1 X1.1854 Y0.0758
N10180 G1 X1.1871 Y0.0439
N10190 G1 X1.1874 Y0.0359
N10200 G1 X1.188 Y-0.004
N10210 G1 X1.1879 Y-0.012
N10220 G1 X1.1871 Y-0.0439
N10230 G1 X1.1869 Y-0.0518
N10240 G1 X1.1864 Y-0.0598
N10250 G1 X1.1844 Y-0.0917
N10260 G1 X1.1838 Y-0.0997
N10270 G1 X1.183 Y-0.1077
N10280 G1 X1.1797 Y-0.1396
N10290 G1 X1.1787 Y-0.1476
N10300 G1 X1.1742 Y-0.1795
N10310 G1 X1.1731 Y-0.1875
N10320 G1 X1.1717 Y-0.1955
N10330 G1 X1.1659 Y-0.2274
N10340 G1 X1.1644 Y-0.2353
N10350 G1 X1.1627 Y-0.2433
N10360 G1 X1.1556 Y-0.2752
N10370 G1 X1.1537 Y-0.2832
N10380 G1 X1.1449 Y-0.3168
N10390 G1 X1.1432 Y-0.3231
N10400 G1 X1.1408 Y-0.3311
N10410 G1 X1.1311 Y-0.363
N10420 G1 X1.1289 Y-0.37
N10430 G1 X1.1286 Y-0.371
N10440 G1 X1.1175 Y-0.4029
N10450 G1 X1.1147 Y-0.4109
N10460 G1 X1.1129 Y-0.4155
N10470 G1 X1.0991 Y-0.4507
N10480 G1 X1.097 Y-0.456
N10490 G1 X1.0958 Y-0.4587
N10500 G1 X1.081 Y-0.4926
N10510 G1 X1.0783 Y-0.4986
N10520 G1 X1.0744 Y-0.5066
N10530 G1 X1.0628 Y-0.5305
N10540 G1 X1.0589 Y-0.5385
N10550 G1 X1.0571 Y-0.5421
N10560 G1 X1.0411 Y-0.572
N10570 G1 X1.0377 Y-0.5784
N10580 G1 X1.0331 Y-0.5863
N10590 G1 X1.0172 Y-0.6136
N10600 G1 X1.0144 Y-0.6183
N10610 G1 X1.0094 Y-0.6263
N10620 G1 X0.9932 Y-0.6516
N10630 G1 X0.989 Y-0.6582
N10640 G1 X0.9852 Y-0.6636
N10650 G1 X0.9669 Y-0.6901
N10660 G1 X0.9613 Y-0.698
N10670 G1 X0.9372 Y-0.73
N10680 G1 X0.9309 Y-0.738
N10690 G1 X0.9114 Y-0.7619
N10700 G1 X0.9054 Y-0.7691
N10710 G1 X0.9047 Y-0.7699
N10720 G1 X0.8815 Y-0.7963
N10730 G1 X0.8766 Y-0.8018
N10740 G1 X0.8735 Y-0.8051
N10750 G1 X0.8463 Y-0.8337
N10760 G1 X0.8416 Y-0.8384
N10770 G1 X0.8136 Y-0.8656
N10780 G1 X0.8096 Y-0.8693
N10790 G1 X0.7857 Y-0.8909
N10800 G1 X0.7783 Y-0.8975
N10810 G1 X0.7777 Y-0.898
N10820 G1 X0.7697 Y-0.9047
N10830 G1 X0.7458 Y-0.9246
N10840 G1 X0.7399 Y-0.9294
N10850 G1 X0.7087 Y-0.9534
N10860 G1 X0.7059 Y-0.9555
N10870 G1 X0.6979 Y-0.9612
N10880 G1 X0.674 Y-0.9782
N10890 G1 X0.666 Y-0.9837
N10900 G1 X0.6636 Y-0.9853
N10910 G1 X0.6341 Y-1.0045
N10920 G1 X0.6267 Y-1.0092
N10930 G1 X0.5942 Y-1.0287
N10940 G1 X0.5864 Y-1.0331
N10950 G1 X0.5543 Y-1.0507
N10960 G1 X0.5463 Y-1.0549
N10970 G1 X0.5143 Y-1.0708
N10980 G1 X0.5098 Y-1.073
N10990 G1 X0.5064 Y-1.0747
N11000 G1 X0.4984 Y-1.0782
N11010 G1 X0.4744 Y-1.089
N11020 G1 X0.4665 Y-1.0926
N11030 G1 X0.4585 Y-1.0958
N11040 G1 X0.4266 Y-1.1087
N11050 G1 X0.4186 Y-1.1117
N11060 G1 X0.3867 Y-1.1232
N11070 G1 X0.3787 Y-1.126
N11080 G1 X0.3707 Y-1.1285
N11090 G1 X0.3388 Y-1.1386
N11100 G1 X0.3308 Y-1.1409
N11110 G1 X0.2989 Y-1.1497
N11120 G1 X0.2909 Y-1.1518
N11130 G1 X0.2867 Y-1.1528
N11140 G1 X0.251 Y-1.1611
N11150 G1 X0.243 Y-1.1628
N11160 G1 X0.2111 Y-1.169
N11170 G1 X0.2031 Y-1.1705
N11180 G1 X0.1951 Y-1.1718
N11190 G1 X0.1624 Y-1.1768
N11200 G1 X0.1552 Y-1.1778
N11210 G1 X0.1472 Y-1.1787
N11220 G1 X0.1153 Y-1.1823
N11230 G1 X0.1073 Y-1.1831
N11240 G1 X0.0674 Y-1.186
N11250 G1 X0.0594 Y-1.1864
N11260 G1 X0.0275 Y-1.1876
N11270 G1 X0.0195 Y-1.1878
N11280 G1 X0.0115
N11290 G1 X-0.0204 Y-1.1877
N11300 G1 X-0.0284
N11310 G1 X-0.0363 Y-1.1873
N11320 G1 X-0.0683 Y-1.186
N11330 G1 X-0.0763 Y-1.1855
N11340 G1 X-0.1162 Y-1.1823
N11350 G1 X-0.1241 Y-1.1814
N11360 G1 X-0.1629 Y-1.1768
N11370 G1 X-0.164 Y-1.1766
N11380 G1 X-0.172 Y-1.1754
N11390 G1 X-0.2039 Y-1.1703
N11400 G1 X-0.2119 Y-1.1689
N11410 G1 X-0.2127 Y-1.1688
N11420 G1 X-0.2279 Y-1.1657
N11430 G1 X-0.2526 Y-1.1608
N11440 G1 X-0.2598 Y-1.1592
N11450 G1 X-0.2917 Y-1.1515
N11460 G1 X-0.2997 Y-1.1496
N11470 G1 X-0.3077 Y-1.1474
N11480 G1 X-0.3396 Y-1.1383
N11490 G1 X-0.3448 Y-1.1369
N11500 G1 X-0.3476 Y-1.136
N11510 G1 X-0.3795 Y-1.1256
N11520 G1 X-0.3875 Y-1.123
N11530 G1 X-0.3934 Y-1.1209
N11540 G1 X-0.4274 Y-1.1084
N11550 G1 X-0.4354 Y-1.1053
N11560 G1 X-0.4673 Y-1.0921
N11570 G1 X-0.4748 Y-1.089
N11580 G1 X-0.4753 Y-1.0888
N11590 G1 X-0.4833 Y-1.0851
N11600 G1 X-0.5096 Y-1.073
N11610 G1 X-0.5152 Y-1.0705
N11620 G1 X-0.5232 Y-1.0665
N11630 G1 X-0.5551 Y-1.0503
N11640 G1 X-0.5574 Y-1.0491
N11650 G1 X-0.5631 Y-1.046
N11660 G1 X-0.595 Y-1.0282
N11670 G1 X-0.6002 Y-1.0252
N11680 G1 X-0.6349 Y-1.0041
N11690 G1 X-0.6394 Y-1.0012
N11700 G1 X-0.6669 Y-0.983
N11710 G1 X-0.6748 Y-0.9777
N11720 G1 X-0.6754 Y-0.9773
N11730 G1 X-0.6828 Y-0.972
N11740 G1 X-0.7087 Y-0.9534
N11750 G1 X-0.7147 Y-0.9489
N11760 G1 X-0.7467 Y-0.924
N11770 G1 X-0.7498 Y-0.9215
N11780 G1 X-0.7546 Y-0.9174
N11790 G1 X-0.7786 Y-0.8972
N11800 G1 X-0.7866 Y-0.8903
N11810 G1 X-0.8135 Y-0.8656
N11820 G1 X-0.8185 Y-0.861
N11830 G1 X-0.822 Y-0.8576
N11840 G1 X-0.8462 Y-0.8337
N11850 G1 X-0.8504 Y-0.8295
N11860 G1 X-0.854 Y-0.8257
N11870 G1 X-0.8765 Y-0.8018
N11880 G1 X-0.8823 Y-0.7955
N11890 G1 X-0.8838 Y-0.7938
N11900 G1 X-0.9063 Y-0.7679
N11910 G1 X-0.9115 Y-0.7619
N11920 G1 X-0.9143 Y-0.7585
N11930 G1 X-0.9178 Y-0.7539
N11940 G1 X-0.9222 Y-0.7473
N11950 G1 X-0.9231 Y-0.7459
N11960 G1 X-0.9276 Y-0.738
N11970 G1 X-0.9302 Y-0.7324
N11980 G1 X-0.9313 Y-0.73
N11990 G1 X-0.9344 Y-0.722
N12000 G1 X-0.9369 Y-0.714
N12010 G1 X-0.9382 Y-0.7089
N12020 G1 X-0.9388 Y-0.706
N12030 G1 X-0.9402 Y-0.6981
N12040 G1 X-0.9411 Y-0.6901
N12050 G1 X-0.9414 Y-0.6821
N12060 G1 X-0.9413 Y-0.6741
N12070 G1 X-0.9406 Y-0.6662
N12080 G1 X-0.9394 Y-0.6582
N12090 G1 X-0.9382 Y-0.6526
N12100 G1 X-0.9376 Y-0.6502
N12110 G1 X-0.9353 Y-0.6422
N12120 G1 X-0.9325 Y-0.6342
N12130 G1 X-0.9302 Y-0.629
N12140 G1 X-0.9289 Y-0.6263
N12150 G1 X-0.9247 Y-0.6183
N12160 G1 X-0.9222 Y-0.6142
N12170 G1 X-0.9197 Y-0.6103
N12180 G1 X-0.9143 Y-0.6029
N12190 G1 X-0.9138 Y-0.6023
N12200 G1 X-0.9068 Y-0.5944
N12210 G1 X-0.9063 Y-0.5938
N12220 G1 X-0.8984 Y-0.5864
N12230 G1 X-0.8983 Y-0.5863
N12240 G1 X-0.8903 Y-0.5799
N12250 G1 X-0.8882 Y-0.5784
N12260 G1 X-0.8823 Y-0.5745
N12270 G1 X-0.8752 Y-0.5704
N12280 G1 X-0.8744 Y-0.57
N12290 G1 X-0.8664 Y-0.5661
N12300 G1 X-0.8584 Y-0.563
N12310 G1 X-0.8568 Y-0.5624
N12320 G1 X-0.8504 Y-0.5604
N12330 G1 X-0.8424 Y-0.5585
N12340 G1 X-0.4274 Y-0.4699
N12350 G1 X-0.4194 Y-0.4682
N12360 G1 X-0.4115 Y-0.4668
N12370 G1 X-0.4107 Y-0.4667
N12380 G1 X-0.4035 Y-0.4659
N12390 G1 X-0.3955 Y-0.4656
N12400 G1 X-0.3875
N12410 G1 X-0.0044
N12420 G1 X0.0036 Y-0.4654
N12430 G1 X0.0195 Y-0.465
N12440 G1 X0.0275 Y-0.4646
N12450 G1 X0.0435 Y-0.4634
N12460 G1 X0.0514 Y-0.4626
N12470 G1 X0.0674 Y-0.4605
N12480 G1 X0.0754 Y-0.4593
N12490 G1 X0.0914 Y-0.4564
N12500 G1 X0.0993 Y-0.4547
N12510 G1 X0.116 Y-0.4507
N12520 G1 X0.1233 Y-0.4488
N12530 G1 X0.1392 Y-0.4441
N12540 G1 X0.1436 Y-0.4428
N12550 G1 X0.1632 Y-0.4359
N12560 G1 X0.1662 Y-0.4348
N12570 G1 X0.1871 Y-0.4262
N12580 G1 X0.1951 Y-0.4225
N12590 G1 X0.2031 Y-0.4187
N12600 G1 X0.2111 Y-0.4149
N12610 G1 X0.227 Y-0.4063
N12620 G1 X0.2331 Y-0.4029
N12630 G1 X0.251 Y-0.3921
N12640 G1 X0.259 Y-0.3867
N12650 G1 X0.2703 Y-0.3789
N12660 G1 X0.2749 Y-0.3755
N12670 G1 X0.2829 Y-0.3695
N12680 G1 X0.2909 Y-0.3634
N12690 G1 X0.3068 Y-0.35
N12700 G1 X0.3102 Y-0.347
N12710 G1 X0.3228 Y-0.3353
N12720 G1 X0.3272 Y-0.3311
N12730 G1 X0.3426 Y-0.3151
N12740 G1 X0.3467 Y-0.3104
N12750 G1 X0.3565 Y-0.2992
N12760 G1 X0.3627 Y-0.2916
N12770 G1 X0.3707 Y-0.2814
N12780 G1 X0.3753 Y-0.2752
N12790 G1 X0.3867 Y-0.2592
N12800 G1 X0.3917 Y-0.2513
N12810 G1 X0.3967 Y-0.2433
N12820 G1 X0.4016 Y-0.2353
N12830 G1 X0.4106 Y-0.2192
N12840 G1 X0.4146 Y-0.2114
N12850 G1 X0.4225 Y-0.1955
N12860 G1 X0.4259 Y-0.1875
N12870 G1 X0.4294 Y-0.1795
N12880 G1 X0.4327 Y-0.1715
N12890 G1 X0.4386 Y-0.1556
N12900 G1 X0.4414 Y-0.1476
N12910 G1 X0.4464 Y-0.1316
N12920 G1 X0.4487 Y-0.1236
N12930 G1 X0.4528 Y-0.1077
N12940 G1 X0.4546 Y-0.0997
N12950 G1 X0.4585 Y-0.0805
N12960 G1 X0.4592 Y-0.0758
N12970 G1 X0.4616 Y-0.0598
N12980 G1 X0.4625 Y-0.0518
N12990 G1 X0.464 Y-0.0359
N13000 G1 X0.4646 Y-0.0279
N13010 G1 X0.4653 Y-0.012
N13020 G1 X0.4654 Y-0.004
N13030 G1 X0.4653 Y0.012
N13040 G1 X0.465 Y0.02
N13050 G1 X0.464 Y0.0359
N13060 G1 X0.4633 Y0.0439
N13070 G1 X0.4616 Y0.0598
N13080 G1 X0.4605 Y0.0678
N13090 G1 X0.4597 Y0.0722
N13100 G1 X0.4592 Y0.0757
N13110 G1 X0.4586 Y0.0792
N13120 G1 X0.4574 Y0.0861
N13130 G1 X0.4545 Y0.0999
N13140 G1 X0.4514 Y0.1136 Z-0.2001
N13150 G1 X0.4477 Y0.1272 Z-0.2002
N13160 G1 X0.4436 Y0.1407
N13170 G1 X0.4392 Y0.1541 Z-0.2003
N13180 G1 X0.4343 Y0.1673 Z-0.2005
N13190 G1 X0.4291 Y0.1804 Z-0.2006
N13200 G1 X0.4233 Y0.1932 Z-0.2008
N13210 G1 X0.4173 Y0.206 Z-0.2009
N13220 G1 X0.4109 Y0.2185 Z-0.2011
N13230 G1 X0.4076 Y0.2247 Z-0.2012
N13240 G1 X0.4041 Y0.2308 Z-0.2013
N13250 G1 X0.4005 Y0.2369 Z-0.2014
N13260 G1 X0.397 Y0.243 Z-0.2016
N13270 G1 X0.3932 Y0.2489 Z-0.2017
N13280 G1 X0.3894 Y0.2548 Z-0.2018
N13290 G1 X0.3855 Y0.2607 Z-0.2019
N13300 G1 X0.3816 Y0.2666 Z-0.202
N13310 G1 X0.3774 Y0.2722 Z-0.2022
N13320 G1 X0.3733 Y0.2779 Z-0.2023
N13330 G1 X0.3691 Y0.2836 Z-0.2025
N13340 G1 X0.3647 Y0.2891 Z-0.2026
N13350 G1 X0.3603 Y0.2946 Z-0.2027
N13360 G1 X0.3558 Y0.3001 Z-0.2029
N13370 G1 X0.3512 Y0.3054 Z-0.2031
N13380 G1 X0.3465 Y0.3106 Z-0.2032
N13390 G1 X0.3418 Y0.3159 Z-0.2034
N13400 G1 X0.337 Y0.3211 Z-0.2035
N13410 G1 X0.3321 Y0.326 Z-0.2037
N13420 G1 X0.3271 Y0.331 Z-0.2039
N13430 G1 X0.3221 Y0.336 Z-0.204
N13440 G1 X0.317 Y0.3408 Z-0.2042
N13450 G1 X0.3117 Y0.3455 Z-0.2044
N13460 G1 X0.3065 Y0.3502 Z-0.2046
N13470 G1 X0.3012 Y0.3549 Z-0.2048
N13480 G1 X0.2957 Y0.3593 Z-0.205
N13490 G1 X0.2903 Y0.3638 Z-0.2052
N13500 G1 X0.2848 Y0.3682 Z-0.2054
N13510 G1 X0.2791 Y0.3724 Z-0.2056
N13520 G1 X0.2763 Y0.3745 Z-0.2057
N13530 G1 X0.2735 Y0.3765 Z-0.2058
N13540 G1 X0.2706 Y0.3786 Z-0.2059
N13550 G1 X0.2678 Y0.3807 Z-0.206
N13560 G1 X0.2649 Y0.3828 Z-0.2061
N13570 G1 X0.262 Y0.3847 Z-0.2062
N13580 G1 X0.259 Y0.3866 Z-0.2063
N13590 G1 X0.2561 Y0.3886 Z-0.2064
N13600 G1 X0.2531 Y0.3905 Z-0.2065
N13610 G1 X0.2502 Y0.3924 Z-0.2066
N13620 G1 X0.2472 Y0.3943 Z-0.2067
N13630 G1 X0.2443 Y0.3963 Z-0.2068
N13640 G1 X0.2412 Y0.398 Z-0.2069
N13650 G1 X0.2382 Y0.3998 Z-0.207
N13660 G1 X0.2352 Y0.4016 Z-0.2071
N13670 G1 X0.2321 Y0.4033 Z-0.2072
N13680 G1 X0.2291 Y0.4051 Z-0.2074
N13690 G1 X0.226 Y0.4069 Z-0.2075
N13700 G1 X0.223 Y0.4086 Z-0.2076
N13710 G1 X0.2198 Y0.4102 Z-0.2077
N13720 G1 X0.2167 Y0.4118 Z-0.2078
N13730 G1 X0.2136 Y0.4135 Z-0.2079
N13740 G1 X0.2104 Y0.4151 Z-0.208
N13750 G1 X0.2042 Y0.4183 Z-0.2083
N13760 G1 X0.201 Y0.4198 Z-0.2084
N13770 G1 X0.1946 Y0.4227 Z-0.2086
N13780 G1 X0.1882 Y0.4256 Z-0.2089
N13790 G1 X0.1818 Y0.4285 Z-0.2091
N13800 G1 X0.1785 Y0.43 Z-0.2092
N13810 G1 X0.172 Y0.4327 Z-0.2095
N13820 G1 X0.1656 Y0.4354 Z-0.2097
N13830 G1 X0.1623 Y0.4368 Z-0.2098
N13840 G1 X0.1558 Y0.4395 Z-0.2101
N13850 G1 X0.1461 Y0.4436 Z-0.2105
N13860 G1 X0.1396 Y0.4463 Z-0.2107
N13870 G1 X0.1363 Y0.4477 Z-0.2108
N13880 G1 X0.1298 Y0.4504 Z-0.2111
N13890 G1 X0.1201 Y0.4545 Z-0.2114
N13900 G1 X0.1136 Y0.4573 Z-0.2117
N13910 G1 X0.1104 Y0.4586 Z-0.2118
N13920 G1 X0.1039 Y0.4613 Z-0.2121
N13930 G1 X0.0941 Y0.4654 Z-0.2124
N13940 G1 X0.0876 Y0.4682 Z-0.2127
N13950 G1 X0.0844 Y0.4695 Z-0.2128
N13960 G1 X0.0779 Y0.4723 Z-0.213
N13970 G1 X0.0682 Y0.4764 Z-0.2134
N13980 G1 X0.0617 Y0.4791 Z-0.2137
N13990 G1 X0.0584 Y0.4805 Z-0.2138
N14000 G1 X0.0519 Y0.4832 Z-0.214
N14010 G1 X0.0325 Y0.4914 Z-0.2148
N14020 G1 X0.026 Y0.4941 Z-0.215
N14030 G1 X0.0065 Y0.5023 Z-0.2157
N14040 G1 X0. Y0.505 Z-0.216
N14050 G1 X-0.0195 Y0.5132 Z-0.2167
N14060 G1 X-0.0292 Y0.5173 Z-0.2171
N14070 G1 X-0.0357 Y0.52 Z-0.2173
N14080 G1 X-0.0552 Y0.5282 Z-0.2181
N14090 G1 X-0.0617 Y0.5309 Z-0.2183
N14100 G1 X-0.0812 Y0.5391 Z-0.2191
N14110 G1 X-0.0877 Y0.5419 Z-0.2193
N14120 G1 X-0.1071 Y0.55 Z-0.22
N14130 G1 X-0.1169 Y0.5541 Z-0.2204
N14140 G1 X-0.1623 Y0.5732 Z-0.2221
N14150 G1 X-0.1818 Y0.5814 Z-0.2229
N14160 G1 X-0.185 Y0.5828 Z-0.223
N14170 G1 X-0.1882 Y0.5843 Z-0.2231
N14180 G1 X-0.1914 Y0.5859 Z-0.2232
N14190 G1 X-0.1945 Y0.5875 Z-0.2234
N14200 G1 X-0.1975 Y0.5893 Z-0.2235
N14210 G1 X-0.2005 Y0.5911 Z-0.2236
N14220 G1 X-0.2035 Y0.593 Z-0.2237
N14230 G1 X-0.2064 Y0.595 Z-0.2239
N14240 G1 X-0.3365 Y0.6855 Z-0.2294
N14250 G1 X-0.3509 Y0.6956 Z-0.23
N14260 G1 X-0.3596 Y0.7016 Z-0.2304
N14270 G1 X-0.3654 Y0.7057 Z-0.2306
N14280 G1 X-0.3827 Y0.7177 Z-0.2314
N14290 G1 X-0.3885 Y0.7218 Z-0.2316
N14300 G1 X-0.4058 Y0.7338 Z-0.2323
N14310 G1 X-0.4116 Y0.7378 Z-0.2326
N14320 G1 X-0.4289 Y0.7499 Z-0.2333
N14330 G1 X-0.4318 Y0.7519 Z-0.2334
N14340 G1 X-0.4376 Y0.756 Z-0.2337
N14350 G1 X-0.455 Y0.768 Z-0.2344
N14360 G1 X-0.4607 Y0.7721 Z-0.2347
N14370 G1 X-0.4781 Y0.7841 Z-0.2354
N14380 G1 X-0.4839 Y0.7881 Z-0.2357
N14390 G1 X-0.5012 Y0.8002 Z-0.2364
N14400 G1 X-0.507 Y0.8042 Z-0.2366
N14410 G1 X-0.5156 Y0.8103 Z-0.237
N14420 G1 X-0.5214 Y0.8143 Z-0.2373
N14430 G1 X-0.5243 Y0.8163 Z-0.2374
N14440 G1 X-0.5301 Y0.8203 Z-0.2376
N14450 G1 X-0.5388 Y0.8264 Z-0.238
N14460 G1 X-0.5445 Y0.8304 Z-0.2382
N14470 G1 X-0.5474 Y0.8324 Z-0.2384
N14480 G1 X-0.5532 Y0.8364 Z-0.2386
N14490 G1 X-0.559 Y0.8405 Z-0.2389
N14500 G1 X-0.5619 Y0.8425 Z-0.239
N14510 G1 X-0.5647 Y0.8446 Z-0.2391
N14520 G1 X-0.5675 Y0.8468 Z-0.2392
N14530 G1 X-0.5702 Y0.849 Z-0.2394
N14540 G1 X-0.5728 Y0.8513 Z-0.2395
N14550 G1 X-0.5754 Y0.8537 Z-0.2396
N14560 G1 X-0.5779 Y0.8562 Z-0.2397
N14570 G1 X-0.5803 Y0.8588 Z-0.2398
N14580 G1 X-0.5827 Y0.8614 Z-0.24
N14590 G1 X-0.585 Y0.864 Z-0.2401
N14600 G1 X-0.5872 Y0.8668 Z-0.2402
N14610 G1 X-0.5893 Y0.8696 Z-0.2403
N14620 G1 X-0.5914 Y0.8724 Z-0.2405
N14630 G1 X-0.5934 Y0.8754 Z-0.2406
N14640 G1 X-0.5953 Y0.8783 Z-0.2407
N14650 G1 X-0.5971 Y0.8814 Z-0.2408
N14660 G1 X-0.5988 Y0.8844 Z-0.2409
N14670 G1 X-0.6004 Y0.8876 Z-0.2411
N14680 G1 X-0.602 Y0.8907 Z-0.2412
N14690 G1 X-0.6034 Y0.8939 Z-0.2413
N14700 G1 X-0.6048 Y0.8972 Z-0.2414
N14710 G1 X-0.606 Y0.9005 Z-0.2415
N14720 G1 X-0.6072 Y0.9038 Z-0.2417
N14730 G1 X-0.6083 Y0.9071 Z-0.2418
N14740 G1 X-0.6093 Y0.9105 Z-0.2419
N14750 G1 X-0.6102 Y0.9139 Z-0.242
N14760 G1 X-0.611 Y0.9173 Z-0.2421
N14770 G1 X-0.6117 Y0.9208 Z-0.2422
N14780 G1 X-0.6123 Y0.9243 Z-0.2423
N14790 G1 X-0.6128 Y0.9278 Z-0.2425
N14800 G1 X-0.6132 Y0.9312 Z-0.2426
N14810 G1 X-0.6135 Y0.9348 Z-0.2427
N14820 G1 X-0.6137 Y0.9383 Z-0.2428
N14830 G1 X-0.6138 Y0.9418 Z-0.2429
N14840 G1 Y0.9453 Z-0.243
N14850 G1 X-0.6137 Y0.9488 Z-0.2431
N14860 G1 X-0.6136 Y0.9524 Z-0.2432
N14870 G1 X-0.6133 Y0.9559 Z-0.2433
N14880 G1 X-0.6129 Y0.9594 Z-0.2435
N14890 G1 X-0.6124 Y0.9629 Z-0.2436
N14900 G1 X-0.6118 Y0.9663 Z-0.2437
N14910 G1 X-0.6111 Y0.9698 Z-0.2438
N14920 G1 X-0.6104 Y0.9732 Z-0.2439
N14930 G1 X-0.6095 Y0.9766 Z-0.244
N14940 G1 X-0.6085 Y0.98 Z-0.2441
N14950 G1 X-0.6075 Y0.9834 Z-0.2442
N14960 G1 X-0.6063 Y0.9867 Z-0.2443
N14970 G1 X-0.605 Y0.99 Z-0.2444
N14980 G1 X-0.6023 Y0.9965 Z-0.2446
N14990 G1 X-0.5991 Y1.0028 Z-0.2448
N15000 G1 X-0.5956 Y1.0089 Z-0.245
N15010 G1 X-0.5918 Y1.0148 Z-0.2452
N15020 G1 X-0.5877 Y1.0205 Z-0.2454
N15030 G1 X-0.5832 Y1.0259 Z-0.2455
N15040 G1 X-0.5784 Y1.0311 Z-0.2457
N15050 G1 X-0.5734 Y1.036 Z-0.2459
N15060 G1 X-0.568 Y1.0406 Z-0.2461
N15070 G1 X-0.5625 Y1.0449 Z-0.2462
N15080 G1 X-0.5567 Y1.0489 Z-0.2464
N15090 G1 X-0.5506 Y1.0526 Z-0.2466
N15100 G1 X-0.5444 Y1.0559 Z-0.2467
N15110 G1 X-0.5381 Y1.059 Z-0.2469
N15120 G1 X-0.5318 Y1.0621 Z-0.2471
N15130 G1 X-0.5255 Y1.0652 Z-0.2472
N15140 G1 X-0.5192 Y1.0684 Z-0.2474
N15150 G1 X-0.5128 Y1.0715 Z-0.2475
N15160 G1 X-0.5065 Y1.0746 Z-0.2476
N15170 G1 X-0.5001 Y1.0775 Z-0.2478
N15180 G1 X-0.4937 Y1.0804 Z-0.2479
N15190 G1 X-0.4873 Y1.0833 Z-0.248
N15200 G1 X-0.4808 Y1.0861 Z-0.2482
N15210 G1 X-0.4744 Y1.089 Z-0.2483
N15220 G1 X-0.468 Y1.0919 Z-0.2484
N15230 G1 X-0.4615 Y1.0947 Z-0.2485
N15240 G1 X-0.455 Y1.0973 Z-0.2486
N15250 G1 X-0.4484 Y1.0999 Z-0.2487
N15260 G1 X-0.4419 Y1.1025 Z-0.2488
N15270 G1 X-0.4354 Y1.1051 Z-0.2489
N15280 G1 X-0.4223 Y1.1104 Z-0.2491
N15290 G1 X-0.409 Y1.1152 Z-0.2493
N15300 G1 X-0.3958 Y1.1199 Z-0.2494
N15310 G1 X-0.3825 Y1.1246 Z-0.2496
N15320 G1 X-0.3691 Y1.1291 Z-0.2497
N15330 G1 X-0.3557 Y1.1333 Z-0.2498
N15340 G1 X-0.3423 Y1.1375 Z-0.2499
N15350 G1 X-0.3288 Y1.1415
N15360 G1 X-0.3152 Y1.1452 Z-0.25
N15370 G1 X-0.3016 Y1.1489
N15380 G1 X-0.2972 Y1.1501
N15390 G1 X-0.2928 Y1.1513
N15400 G1 X-0.2917 Y1.1516
N15410 G1 X-0.2868 Y1.1528
N15420 G1 X-0.2838 Y1.1535
N15430 G1 X-0.2518 Y1.1609
N15440 G1 X-0.2439 Y1.1627
N15450 G1 X-0.2359 Y1.1642
N15460 G1 X-0.2039 Y1.1703
N15470 G1 X-0.196 Y1.1717
N15480 G1 X-0.1561 Y1.1777
N15490 G1 X-0.1481 Y1.1787
N15500 G1 X-0.1162 Y1.1822
N15510 G1 X-0.1082 Y1.1831
N15520 G1 X-0.1002 Y1.1837
N15530 G1 X-0.0683 Y1.1859
N15540 G1 X-0.0603 Y1.1865
N15550 G1 X-0.0523 Y1.1867
N15560 G1 X-0.0204 Y1.1878
N15570 G1 X-0.0124 Y1.1879
N15580 G1 X0.0275 Y1.1876
N15590 G1 X0.0355 Y1.1874
N15600 G1 X0.0674 Y1.186
N15610 G1 X0.0754 Y1.1856
N15620 G1 X0.0834 Y1.185
N15630 G1 X0.1153 Y1.1823
N15640 G1 X0.1233 Y1.1816
N15650 G1 X0.1313 Y1.1806
N15660 G1 X0.1632 Y1.1767
N15670 G1 X0.1712 Y1.1756
N15680 G1 X0.2111 Y1.1691
N15690 G1 X0.2127 Y1.1688
N15700 G1 X0.219 Y1.1676
N15710 G1 X0.2522 Y1.1608
N15720 G1 X0.259 Y1.1594
N15730 G1 X0.2669 Y1.1575
N15740 G1 X0.2989 Y1.1497
N15750 G1 X0.3068 Y1.1476
N15760 G1 X0.3446 Y1.1369
N15770 G1 X0.3467 Y1.1363
N15780 G1 X0.3547 Y1.1337
N15790 G1 X0.3867 Y1.1232
N15800 G1 X0.3935 Y1.1209
N15810 G1 X0.3946 Y1.1205
N15820 G1 X0.4266 Y1.1086
N15830 G1 X0.4345 Y1.1057
N15840 G1 X0.4363 Y1.105
N15850 G1 X0.4425 Y1.1024
N15860 G1 X0.4747 Y1.089
N15870 G1 X0.4824 Y1.0856
N15880 G1 X0.5143 Y1.0708
N15890 G1 X0.5223 Y1.067
N15900 G1 X0.5573 Y1.0491
N15910 G1 X0.5622 Y1.0465
N15920 G1 X0.5942 Y1.0286
N15930 G1 X0.6003 Y1.0252
N15940 G1 X0.6021 Y1.0241
N15950 G1 X0.6341 Y1.0045
N15960 G1 X0.6394 Y1.0013
N15970 G1 X0.642 Y0.9995
N15980 G1 X0.6753 Y0.9773
N15990 G1 X0.682 Y0.9727
N16000 G1 X0.7086 Y0.9534
N16010 G1 X0.7139 Y0.9496
N16020 G1 X0.7193 Y0.9454
N16030 G1 X0.7458 Y0.9246
N16040 G1 X0.7498 Y0.9215
N16050 G1 X0.7538 Y0.9182
N16060 G1 X0.7781 Y0.8975
N16070 G1 X0.7857 Y0.8911
N16080 G1 X0.7874 Y0.8896
N16090 G1 X0.7937 Y0.8838
N16100 G1 X0.8176 Y0.8618
N16110 G1 X0.822 Y0.8577
N16120 G1 X0.8496 Y0.8303
N16130 G1 X0.8541 Y0.8257
N16140 G1 X0.8575 Y0.822
N16150 G1 X0.8815 Y0.7964
N16160 G1 X0.8838 Y0.7938
N16170 G1 X0.8895 Y0.7874
N16180 G1 X0.9114 Y0.7619
N16190 G1 X0.9134 Y0.7596
N16200 G1 X0.918 Y0.7539
N16210 G1 X0.9373 Y0.7297
N16220 G1 X0.9434 Y0.722
N16230 G1 X0.9453 Y0.7194
N16240 G1 X0.9669 Y0.6901
N16250 G1 X0.9693 Y0.6869
N16260 G1 X0.9726 Y0.6821
N16270 G1 X0.9942 Y0.6502
N16280 G1 X0.9993 Y0.6422
N16290 G1 X1.0192 Y0.6103
N16300 G1 X1.0239 Y0.6024
N16310 G1 X1.042 Y0.5704
N16320 G1 X1.0463 Y0.5625
N16330 G1 X1.0629 Y0.5306
N16340 G1 X1.065 Y0.5263
N16350 G1 X1.0668 Y0.5226
N16360 G1 X1.0819 Y0.4907
N16370 G1 X1.0855 Y0.4827
N16380 G1 X1.099 Y0.4508
N16390 G1 X1.1024 Y0.4428
N16400 G1 X1.105 Y0.4361
N16410 G1 X1.1176 Y0.4029
N16420 G1 X1.1204 Y0.3949
N16430 G1 X1.1311 Y0.363
N16440 G1 X1.1337 Y0.355
N16450 G1 X1.136 Y0.3471
N16460 G1 X1.1454 Y0.3151
N16470 G1 X1.1475 Y0.3072
N16480 G1 X1.1556 Y0.2753
N16490 G1 X1.1575 Y0.2673
N16500 G1 X1.1592 Y0.2593
N16510 G1 X1.166 Y0.2274
N16520 G1 X1.1675 Y0.2194
N16530 G1 X1.1743 Y0.1795
N16540 G1 X1.1755 Y0.1715
N16550 G1 X1.1797 Y0.1396
N16560 G1 X1.1807 Y0.1316
N16570 G1 X1.1814 Y0.1237
N16580 G1 X1.1844 Y0.0918
N16590 G1 X1.1848 Y0.0874
N16600 G1 X1.185 Y0.0838
N16610 G1 X1.1854 Y0.0758
N16620 G1 X1.1871 Y0.0439
N16630 G1 X1.1874 Y0.0359
N16640 G1 X1.188 Y-0.004
N16650 G1 X1.1879 Y-0.012
N16660 G1 X1.1871 Y-0.0439
N16670 G1 X1.1869 Y-0.0518
N16680 G1 X1.1864 Y-0.0598
N16690 G1 X1.1844 Y-0.0917
N16700 G1 X1.1838 Y-0.0997
N16710 G1 X1.183 Y-0.1077
N16720 G1 X1.1797 Y-0.1396
N16730 G1 X1.1787 Y-0.1476
N16740 G1 X1.1742 Y-0.1795
N16750 G1 X1.1731 Y-0.1875
N16760 G1 X1.1717 Y-0.1955
N16770 G1 X1.1659 Y-0.2274
N16780 G1 X1.1644 Y-0.2353
N16790 G1 X1.1627 Y-0.2433
N16800 G1 X1.1556 Y-0.2752
N16810 G1 X1.1537 Y-0.2832
N16820 G1 X1.1449 Y-0.3168
N16830 G1 X1.1432 Y-0.3231
N16840 G1 X1.1408 Y-0.3311
N16850 G1 X1.1311 Y-0.363
N16860 G1 X1.1289 Y-0.37
N16870 G1 X1.1286 Y-0.371
N16880 G1 X1.1175 Y-0.4029
N16890 G1 X1.1147 Y-0.4109
N16900 G1 X1.1129 Y-0.4155
N16910 G1 X1.0991 Y-0.4507
N16920 G1 X1.097 Y-0.456
N16930 G1 X1.0958 Y-0.4587
N16940 G1 X1.081 Y-0.4926
N16950 G1 X1.0783 Y-0.4986
N16960 G1 X1.0744 Y-0.5066
N16970 G1 X1.0628 Y-0.5305
N16980 G1 X1.0589 Y-0.5385
N16990 G1 X1.0571 Y-0.5421
N17000 G1 X1.0411 Y-0.572
N17010 G1 X1.0377 Y-0.5784
N17020 G1 X1.0331 Y-0.5863
N17030 G1 X1.0172 Y-0.6136
N17040 G1 X1.0144 Y-0.6183
N17050 G1 X1.0094 Y-0.6263
N17060 G1 X0.9932 Y-0.6516
N17070 G1 X0.989 Y-0.6582
N17080 G1 X0.9852 Y-0.6636
N17090 G1 X0.9669 Y-0.6901
N17100 G1 X0.9613 Y-0.698
N17110 G1 X0.9372 Y-0.73
N17120 G1 X0.9309 Y-0.738
N17130 G1 X0.9114 Y-0.7619
N17140 G1 X0.9054 Y-0.7691
N17150 G1 X0.9047 Y-0.7699
N17160 G1 X0.8815 Y-0.7963
N17170 G1 X0.8766 Y-0.8018
N17180 G1 X0.8735 Y-0.8051
N17190 G1 X0.8463 Y-0.8337
N17200 G1 X0.8416 Y-0.8384
N17210 G1 X0.8136 Y-0.8656
N17220 G1 X0.8096 Y-0.8693
N17230 G1 X0.7857 Y-0.8909
N17240 G1 X0.7783 Y-0.8975
N17250 G1 X0.7777 Y-0.898
N17260 G1 X0.7697 Y-0.9047
N17270 G1 X0.7458 Y-0.9246
N17280 G1 X0.7399 Y-0.9294
N17290 G1 X0.7087 Y-0.9534
N17300 G1 X0.7059 Y-0.9555
N17310 G1 X0.6979 Y-0.9612
N17320 G1 X0.674 Y-0.9782
N17330 G1 X0.666 Y-0.9837
N17340 G1 X0.6636 Y-0.9853
N17350 G1 X0.6341 Y-1.0045
N17360 G1 X0.6267 Y-1.0092
N17370 G1 X0.5942 Y-1.0287
N17380 G1 X0.5864 Y-1.0331
N17390 G1 X0.5543 Y-1.0507
N17400 G1 X0.5463 Y-1.0549
N17410 G1 X0.5143 Y-1.0708
N17420 G1 X0.5098 Y-1.073
N17430 G1 X0.5064 Y-1.0747
N17440 G1 X0.4984 Y-1.0782
N17450 G1 X0.4744 Y-1.089
N17460 G1 X0.4665 Y-1.0926
N17470 G1 X0.4585 Y-1.0958
N17480 G1 X0.4266 Y-1.1087
N17490 G1 X0.4186 Y-1.1117
N17500 G1 X0.3867 Y-1.1232
N17510 G1 X0.3787 Y-1.126
N17520 G1 X0.3707 Y-1.1285
N17530 G1 X0.3388 Y-1.1386
N17540 G1 X0.3308 Y-1.1409
N17550 G1 X0.2989 Y-1.1497
N17560 G1 X0.2909 Y-1.1518
N17570 G1 X0.2867 Y-1.1528
N17580 G1 X0.251 Y-1.1611
N17590 G1 X0.243 Y-1.1628
N17600 G1 X0.2111 Y-1.169
N17610 G1 X0.2031 Y-1.1705
N17620 G1 X0.1951 Y-1.1718
N17630 G1 X0.1624 Y-1.1768
N17640 G1 X0.1552 Y-1.1778
N17650 G1 X0.1472 Y-1.1787
N17660 G1 X0.1153 Y-1.1823
N17670 G1 X0.1073 Y-1.1831
N17680 G1 X0.0674 Y-1.186
N17690 G1 X0.0594 Y-1.1864
N17700 G1 X0.0275 Y-1.1876
N17710 G1 X0.0195 Y-1.1878
N17720 G1 X0.0115
N17730 G1 X-0.0204 Y-1.1877
N17740 G1 X-0.0284
N17750 G1 X-0.0363 Y-1.1873
N17760 G1 X-0.0683 Y-1.186
N17770 G1 X-0.0763 Y-1.1855
N17780 G1 X-0.1162 Y-1.1823
N17790 G1 X-0.1241 Y-1.1814
N17800 G1 X-0.1629 Y-1.1768
N17810 G1 X-0.164 Y-1.1766
N17820 G1 X-0.172 Y-1.1754
N17830 G1 X-0.2039 Y-1.1703
N17840 G1 X-0.2119 Y-1.1689
N17850 G1 X-0.2127 Y-1.1688
N17860 G1 X-0.2279 Y-1.1657
N17870 G1 X-0.2526 Y-1.1608
N17880 G1 X-0.2598 Y-1.1592
N17890 G1 X-0.2917 Y-1.1515
N17900 G1 X-0.2997 Y-1.1496
N17910 G1 X-0.3077 Y-1.1474
N17920 G1 X-0.3396 Y-1.1383
N17930 G1 X-0.3448 Y-1.1369
N17940 G1 X-0.3476 Y-1.136
N17950 G1 X-0.3795 Y-1.1256
N17960 G1 X-0.3875 Y-1.123
N17970 G1 X-0.3934 Y-1.1209
N17980 G1 X-0.4274 Y-1.1084
N17990 G1 X-0.4354 Y-1.1053
N18000 G1 X-0.4673 Y-1.0921
N18010 G1 X-0.4748 Y-1.089
N18020 G1 X-0.4753 Y-1.0888
N18030 G1 X-0.4833 Y-1.0851
N18040 G1 X-0.5096 Y-1.073
N18050 G1 X-0.5152 Y-1.0705
N18060 G1 X-0.5232 Y-1.0665
N18070 G1 X-0.5551 Y-1.0503
N18080 G1 X-0.5574 Y-1.0491
N18090 G1 X-0.5631 Y-1.046
N18100 G1 X-0.595 Y-1.0282
N18110 G1 X-0.6002 Y-1.0252
N18120 G1 X-0.6349 Y-1.0041
N18130 G1 X-0.6394 Y-1.0012
N18140 G1 X-0.6669 Y-0.983
N18150 G1 X-0.6748 Y-0.9777
N18160 G1 X-0.6754 Y-0.9773
N18170 G1 X-0.6828 Y-0.972
N18180 G1 X-0.7087 Y-0.9534
N18190 G1 X-0.7147 Y-0.9489
N18200 G1 X-0.7467 Y-0.924
N18210 G1 X-0.7498 Y-0.9215
N18220 G1 X-0.7546 Y-0.9174
N18230 G1 X-0.7786 Y-0.8972
N18240 G1 X-0.7866 Y-0.8903
N18250 G1 X-0.8135 Y-0.8656
N18260 G1 X-0.8185 Y-0.861
N18270 G1 X-0.822 Y-0.8576
N18280 G1 X-0.8462 Y-0.8337
N18290 G1 X-0.8504 Y-0.8295
N18300 G1 X-0.854 Y-0.8257
N18310 G1 X-0.8765 Y-0.8018
N18320 G1 X-0.8823 Y-0.7955
N18330 G1 X-0.8838 Y-0.7938
N18340 G1 X-0.9063 Y-0.7679
N18350 G1 X-0.9115 Y-0.7619
N18360 G1 X-0.9143 Y-0.7585
N18370 G1 X-0.9178 Y-0.7539
N18380 G1 X-0.9222 Y-0.7473
N18390 G1 X-0.9231 Y-0.7459
N18400 G1 X-0.9276 Y-0.738
N18410 G1 X-0.9302 Y-0.7324
N18420 G1 X-0.9313 Y-0.73
N18430 G1 X-0.9344 Y-0.722
N18440 G1 X-0.9369 Y-0.714
N18450 G1 X-0.9382 Y-0.7089
N18460 G1 X-0.9388 Y-0.706
N18470 G1 X-0.9402 Y-0.6981
N18480 G1 X-0.9411 Y-0.6901
N18490 G1 X-0.9414 Y-0.6821
N18500 G1 X-0.9413 Y-0.6741
N18510 G1 X-0.9406 Y-0.6662
N18520 G1 X-0.9394 Y-0.6582
N18530 G1 X-0.9382 Y-0.6526
N18540 G1 X-0.9376 Y-0.6502
N18550 G1 X-0.9353 Y-0.6422
N18560 G1 X-0.9325 Y-0.6342
N18570 G1 X-0.9302 Y-0.629
N18580 G1 X-0.9289 Y-0.6263
N18590 G1 X-0.9247 Y-0.6183
N18600 G1 X-0.9222 Y-0.6142
N18610 G1 X-0.9197 Y-0.6103
N18620 G1 X-0.9143 Y-0.6029
N18630 G1 X-0.9138 Y-0.6023
N18640 G1 X-0.9068 Y-0.5944
N18650 G1 X-0.9063 Y-0.5938
N18660 G1 X-0.8984 Y-0.5864
N18670 G1 X-0.8983 Y-0.5863
N18680 G1 X-0.8903 Y-0.5799
N18690 G1 X-0.8882 Y-0.5784
N18700 G1 X-0.8823 Y-0.5745
N18710 G1 X-0.8752 Y-0.5704
N18720 G1 X-0.8744 Y-0.57
N18730 G1 X-0.8664 Y-0.5661
N18740 G1 X-0.8584 Y-0.563
N18750 G1 X-0.8568 Y-0.5624
N18760 G1 X-0.8504 Y-0.5604
N18770 G1 X-0.8424 Y-0.5585
N18780 G1 X-0.4274 Y-0.4699
N18790 G1 X-0.4194 Y-0.4682
N18800 G1 X-0.4115 Y-0.4668
N18810 G1 X-0.4107 Y-0.4667
N18820 G1 X-0.4035 Y-0.4659
N18830 G1 X-0.3955 Y-0.4656
N18840 G1 X-0.3875
N18850 G1 X-0.0044
N18860 G1 X0.0036 Y-0.4654
N18870 G1 X0.0195 Y-0.465
N18880 G1 X0.0275 Y-0.4646
N18890 G1 X0.0435 Y-0.4634
N18900 G1 X0.0514 Y-0.4626
N18910 G1 X0.0674 Y-0.4605
N18920 G1 X0.0754 Y-0.4593
N18930 G1 X0.0914 Y-0.4564
N18940 G1 X0.0993 Y-0.4547
N18950 G1 X0.116 Y-0.4507
N18960 G1 X0.1233 Y-0.4488
N18970 G1 X0.1392 Y-0.4441
N18980 G1 X0.1436 Y-0.4428
N18990 G1 X0.1632 Y-0.4359
N19000 G1 X0.1662 Y-0.4348
N19010 G1 X0.1871 Y-0.4262
N19020 G1 X0.1951 Y-0.4225
N19030 G1 X0.2031 Y-0.4187
N19040 G1 X0.2111 Y-0.4149
N19050 G1 X0.227 Y-0.4063
N19060 G1 X0.2331 Y-0.4029
N19070 G1 X0.251 Y-0.3921
N19080 G1 X0.259 Y-0.3867
N19090 G1 X0.2703 Y-0.3789
N19100 G1 X0.2749 Y-0.3755
N19110 G1 X0.2829 Y-0.3695
N19120 G1 X0.2909 Y-0.3634
N19130 G1 X0.3068 Y-0.35
N19140 G1 X0.3102 Y-0.347
N19150 G1 X0.3228 Y-0.3353
N19160 G1 X0.3272 Y-0.3311
N19170 G1 X0.3426 Y-0.3151
N19180 G1 X0.3467 Y-0.3104
N19190 G1 X0.3565 Y-0.2992
N19200 G1 X0.3627 Y-0.2916
N19210 G1 X0.3707 Y-0.2814
N19220 G1 X0.3753 Y-0.2752
N19230 G1 X0.3867 Y-0.2592
N19240 G1 X0.3917 Y-0.2513
N19250 G1 X0.3967 Y-0.2433
N19260 G1 X0.4016 Y-0.2353
N19270 G1 X0.4106 Y-0.2192
N19280 G1 X0.4146 Y-0.2114
N19290 G1 X0.4225 Y-0.1955
N19300 G1 X0.4259 Y-0.1875
N19310 G1 X0.4294 Y-0.1795
N19320 G1 X0.4327 Y-0.1715
N19330 G1 X0.4386 Y-0.1556
N19340 G1 X0.4414 Y-0.1476
N19350 G1 X0.4464 Y-0.1316
N19360 G1 X0.4487 Y-0.1236
N19370 G1 X0.4528 Y-0.1077
N19380 G1 X0.4546 Y-0.0997
N19390 G1 X0.4585 Y-0.0805
N19400 G1 X0.4592 Y-0.0758
N19410 G1 X0.4616 Y-0.0598
N19420 G1 X0.4625 Y-0.0518
N19430 G1 X0.464 Y-0.0359
N19440 G1 X0.4646 Y-0.0279
N19450 G1 X0.4653 Y-0.012
N19460 G1 X0.4654 Y-0.004
N19470 G1 X0.4653 Y0.012
N19480 G1 X0.465 Y0.02
N19490 G1 X0.464 Y0.0359
N19500 G1 X0.4633 Y0.0439
N19510 G1 X0.4616 Y0.0598
N19520 G1 X0.4605 Y0.0678
N19530 G1 X0.4578 Y0.0838
N19540 G1 X0.4563 Y0.0918
N19550 G1 X0.4528 Y0.1077
N19560 G1 X0.4508 Y0.1157
N19570 G1 X0.4464 Y0.1316
N19580 G1 X0.444 Y0.1396
N19590 G1 X0.4387 Y0.1556
N19600 G1 X0.4357 Y0.1636
N19610 G1 X0.4295 Y0.1795
N19620 G1 X0.4266 Y0.1861
N19630 G1 X0.4223 Y0.1955
N19640 G1 X0.4186 Y0.2035
N19650 G1 X0.4105 Y0.2194
N19660 G1 X0.4061 Y0.2274
N19670 G1 X0.3968 Y0.2433
N19680 G1 X0.3946 Y0.2468
N19690 G1 X0.3865 Y0.2593
N19700 G1 X0.381 Y0.2673
N19710 G1 X0.3694 Y0.2832
N19720 G1 X0.363 Y0.2912
N19730 G1 X0.3547 Y0.3014
N19740 G1 X0.3496 Y0.3072
N19750 G1 X0.3388 Y0.3192
N19760 G1 X0.335 Y0.3231
N19770 G1 X0.3228 Y0.3353
N19780 G1 X0.3189 Y0.3391
N19790 G1 X0.3068 Y0.3499
N19800 G1 X0.301 Y0.355
N19810 G1 X0.2909 Y0.3633
N19820 G1 X0.2829 Y0.3696
N19830 G1 X0.2669 Y0.3813
N19840 G1 X0.259 Y0.3867
N19850 G1 X0.2463 Y0.3949
N19860 G1 X0.243 Y0.397
N19870 G1 X0.227 Y0.4063
N19880 G1 X0.219 Y0.4106
N19890 G1 X0.2031 Y0.4189
N19900 G1 X0.1951 Y0.4225
N19910 G1 X0.1791 Y0.4297
N19920 G1 X0.1712 Y0.4331
N19930 G1 X-0.18 Y0.5807
N19940 G1 X-0.188 Y0.5842
N19950 G1 X-0.1924 Y0.5864
N19960 G1 X-0.196 Y0.5884
N19970 G1 X-0.2039 Y0.5933
N19980 G1 X-0.2055 Y0.5944
N19990 G1 X-0.5551 Y0.8378
N20000 G1 X-0.5608 Y0.8417
N20010 G1 X-0.5631 Y0.8434
N20020 G1 X-0.571 Y0.8497
N20030 G1 X-0.5711 Y0.8498
N20040 G1 X-0.5751 Y0.8534
N20050 G1 X-0.5791 Y0.8574
N20060 G1 X-0.5793 Y0.8577
N20070 G1 X-0.5863 Y0.8656
N20080 G1 X-0.587 Y0.8666
N20090 G1 X-0.5922 Y0.8736
N20100 G1 X-0.595 Y0.878
N20110 G1 X-0.5972 Y0.8816
N20120 G1 X-0.6014 Y0.8896
N20130 G1 X-0.603 Y0.893
N20140 G1 X-0.6049 Y0.8975
N20150 G1 X-0.6078 Y0.9055
N20160 G1 X-0.6101 Y0.9135
N20170 G1 X-0.611 Y0.9174
N20180 G1 X-0.6118 Y0.9215
N20190 G1 X-0.613 Y0.9295
N20200 G1 X-0.6137 Y0.9374
N20210 G1 X-0.6138 Y0.9454
N20220 G1 X-0.6135 Y0.9534
N20230 G1 X-0.6126 Y0.9614
N20240 G1 X-0.6112 Y0.9693
N20250 G1 X-0.611 Y0.9705
N20260 G1 X-0.6093 Y0.9773
N20270 G1 X-0.6068 Y0.9853
N20280 G1 X-0.6037 Y0.9933
N20290 G1 X-0.603 Y0.9948
N20300 G1 X-0.5999 Y1.0013
N20310 G1 X-0.5954 Y1.0092
N20320 G1 X-0.595 Y1.0099
N20330 G1 X-0.5901 Y1.0172
N20340 G1 X-0.587 Y1.0213
N20350 G1 X-0.5838 Y1.0252
N20360 G1 X-0.5791 Y1.0304
N20370 G1 X-0.5764 Y1.0332
N20380 G1 X-0.5711 Y1.0381
N20390 G1 X-0.5674 Y1.0411
N20400 G1 X-0.5631 Y1.0445
N20410 G1 X-0.5563 Y1.0491
N20420 G1 X-0.5551 Y1.0499
N20430 G1 X-0.5471 Y1.0545
N20440 G1 X-0.5419 Y1.0571
N20450 G1 X-0.5072 Y1.0742
N20460 G1 X-0.4992 Y1.0779
N20470 G1 X-0.4673 Y1.0922
N20480 G1 X-0.4593 Y1.0955
N20490 G1 X-0.4274 Y1.1083
N20500 G1 X-0.4194 Y1.1115
N20510 G1 X-0.4153 Y1.113
N20520 G1 X-0.3795 Y1.1257
N20530 G1 X-0.3716 Y1.1283
N20540 G1 X-0.3396 Y1.1383
N20550 G1 X-0.3316 Y1.1408
N20560 G1 X-0.3237 Y1.1429
N20570 G1 X-0.2928 Y1.1513
N20580 G1 X-0.2911 Y1.1518
N20590 G1 X-0.2894 Y1.1522
N20600 G1 X-0.286 Y1.153
N20610 G1 X-0.2791 Y1.1546
N20620 G1 X-0.2653 Y1.1578 Z-0.2501
N20630 G1 X-0.2516 Y1.1609 Z-0.2503
N20640 G1 X-0.2447 Y1.1625 Z-0.2504
N20650 G1 X-0.2378 Y1.1639 Z-0.2505
N20660 G1 X-0.2309 Y1.1652 Z-0.2506
N20670 G1 X-0.2239 Y1.1665 Z-0.2508
N20680 G1 X-0.217 Y1.1678 Z-0.2509
N20690 G1 X-0.2101 Y1.1691 Z-0.2511
N20700 G1 X-0.2031 Y1.1704 Z-0.2513
N20710 G1 X-0.1962 Y1.1717 Z-0.2515
N20720 G1 X-0.1927 Y1.1722 Z-0.2516
N20730 G1 X-0.1892 Y1.1727 Z-0.2517
N20740 G1 X-0.1857 Y1.1732 Z-0.2518
N20750 G1 X-0.1822 Y1.1737 Z-0.2519
N20760 G1 X-0.1787 Y1.1743 Z-0.252
N20770 G1 X-0.1753 Y1.1748 Z-0.2521
N20780 G1 X-0.1718 Y1.1753 Z-0.2522
N20790 G1 X-0.1683 Y1.1758 Z-0.2523
N20800 G1 X-0.1648 Y1.1764 Z-0.2525
N20810 G1 X-0.1613 Y1.1769 Z-0.2526
N20820 G1 X-0.1578 Y1.1774 Z-0.2527
N20830 G1 X-0.1543 Y1.1779 Z-0.2528
N20840 G1 X-0.1508 Y1.1784 Z-0.2529
N20850 G1 X-0.1473 Y1.1788 Z-0.2531
N20860 G1 X-0.1438 Y1.1791 Z-0.2532
N20870 G1 X-0.1403 Y1.1795 Z-0.2533
N20880 G1 X-0.1368 Y1.1799 Z-0.2534
N20890 G1 X-0.1333 Y1.1803 Z-0.2536
N20900 G1 X-0.1298 Y1.1807 Z-0.2537
N20910 G1 X-0.1263 Y1.1811 Z-0.2538
N20920 G1 X-0.1228 Y1.1815 Z-0.2539
N20930 G1 X-0.1193 Y1.1818 Z-0.2541
N20940 G1 X-0.1158 Y1.1822 Z-0.2542
N20950 G1 X-0.1123 Y1.1826 Z-0.2543
N20960 G1 X-0.1087 Y1.183 Z-0.2544
N20970 G1 X-0.1052 Y1.1833 Z-0.2545
N20980 G1 X-0.1017 Y1.1836 Z-0.2547
N20990 G1 X-0.0982 Y1.1838 Z-0.2548
N21000 G1 X-0.0947 Y1.1841 Z-0.2549
N21010 G1 X-0.0912 Y1.1843 Z-0.255
N21020 G1 X-0.0806 Y1.1851 Z-0.2554
N21030 G1 X-0.0736 Y1.1856 Z-0.2557
N21040 G1 X-0.07 Y1.1858 Z-0.2558
N21050 G1 X-0.0665 Y1.1861 Z-0.2559
N21060 G1 X-0.063 Y1.1863 Z-0.256
N21070 G1 X-0.0595 Y1.1865 Z-0.2562
N21080 G1 X-0.056 Y1.1866 Z-0.2563
N21090 G1 X-0.0454 Y1.1869 Z-0.2566
N21100 G1 X-0.0348 Y1.1873 Z-0.257
N21110 G1 X-0.0242 Y1.1876 Z-0.2574
N21120 G1 X-0.0207 Y1.1878 Z-0.2575
N21130 G1 X-0.0172 Y1.1879 Z-0.2576
N21140 G1 X-0.0137 Z-0.2578
N21150 G1 X-0.0101 Z-0.2579
N21160 G1 X-0.0031 Y1.1878 Z-0.2581
N21170 G1 X0.0005 Z-0.2582
N21180 G1 X0.004 Z-0.2584
N21190 G1 X0.0075 Z-0.2585
N21200 G1 X0.0181 Y1.1877 Z-0.2589
N21210 G1 X0.0251 Z-0.2591
N21220 G1 X0.0287 Y1.1876 Z-0.2592
N21230 G1 X0.0322 Y1.1875 Z-0.2594
N21240 G1 X0.0357 Y1.1874 Z-0.2595
N21250 G1 X0.0392 Y1.1872 Z-0.2596
N21260 G1 X0.0428 Y1.1871 Z-0.2597
N21270 G1 X0.0463 Y1.1869 Z-0.2598
N21280 G1 X0.0498 Y1.1868 Z-0.26
N21290 G1 X0.0533 Y1.1866 Z-0.2601
N21300 G1 X0.0569 Y1.1864 Z-0.2602
N21310 G1 X0.0604 Y1.1863 Z-0.2603
N21320 G1 X0.0639 Y1.1861 Z-0.2605
N21330 G1 X0.0674 Y1.186 Z-0.2606
N21340 G1 X0.071 Y1.1858 Z-0.2607
N21350 G1 X0.0745 Y1.1857 Z-0.2608
N21360 G1 X0.078 Y1.1854 Z-0.261
N21370 G1 X0.0815 Y1.1851 Z-0.2611
N21380 G1 X0.085 Y1.1848 Z-0.2612
N21390 G1 X0.0886 Y1.1845 Z-0.2613
N21400 G1 X0.0921 Y1.1842 Z-0.2615
N21410 G1 X0.0956 Y1.1839 Z-0.2616
N21420 G1 X0.0991 Y1.1837 Z-0.2617
N21430 G1 X0.1026 Y1.1834 Z-0.2618
N21440 G1 X0.1061 Y1.1831 Z-0.2619
N21450 G1 X0.1096 Y1.1828 Z-0.262
N21460 G1 X0.1132 Y1.1825 Z-0.2622
N21470 G1 X0.1167 Y1.1822 Z-0.2623
N21480 G1 X0.1202 Y1.1819 Z-0.2624
N21490 G1 X0.1237 Y1.1815 Z-0.2625
N21500 G1 X0.1272 Y1.1811 Z-0.2626
N21510 G1 X0.1342 Y1.1802 Z-0.2628
N21520 G1 X0.1412 Y1.1794 Z-0.263
N21530 G1 X0.1482 Y1.1785 Z-0.2632
N21540 G1 X0.1552 Y1.1777 Z-0.2633
N21550 G1 X0.1622 Y1.1768 Z-0.2635
N21560 G1 X0.1692 Y1.1759 Z-0.2636
N21570 G1 X0.1762 Y1.1748 Z-0.2637
N21580 G1 X0.1831 Y1.1736 Z-0.2639
N21590 G1 X0.1971 Y1.1714 Z-0.2641
N21600 G1 X0.211 Y1.1691 Z-0.2642
N21610 G1 X0.2248 Y1.1664
N21620 G1 X0.228 Y1.1657 Z-0.2643
N21630 G1 X0.2307 Y1.1652
N21640 G1 X0.2311 Y1.1651
N21650 G1 X0.235 Y1.1643
N21660 G1 X0.243 Y1.1627
N21670 G1 X0.2523 Y1.1608
N21680 G1 X0.259 Y1.1594
N21690 G1 X0.2669 Y1.1575
N21700 G1 X0.2749 Y1.1556
N21710 G1 X0.2829 Y1.1536
N21720 G1 X0.2989 Y1.1497
N21730 G1 X0.3068 Y1.1476
N21740 G1 X0.3228 Y1.1431
N21750 G1 X0.3308 Y1.1408
N21760 G1 X0.3388 Y1.1386
N21770 G1 X0.3447 Y1.1369
N21780 G1 X0.3467 Y1.1363
N21790 G1 X0.3547 Y1.1337
N21800 G1 X0.3693 Y1.1289
N21810 G1 X0.3867 Y1.1233
N21820 G1 X0.3935 Y1.1209
N21830 G1 X0.3946 Y1.1205
N21840 G1 X0.4106 Y1.1146
N21850 G1 X0.415 Y1.113
N21860 G1 X0.4266 Y1.1087
N21870 G1 X0.4345 Y1.1057
N21880 G1 X0.4363 Y1.105
N21890 G1 X0.4425 Y1.1024
N21900 G1 X0.4555 Y1.097
N21910 G1 X0.4665 Y1.0924
N21920 G1 X0.4744 Y1.0891
N21930 G1 X0.4747 Y1.089
N21940 G1 X0.4824 Y1.0856
N21950 G1 X0.4922 Y1.081
N21960 G1 X0.4984 Y1.0782
N21970 G1 X0.5143 Y1.0708
N21980 G1 X0.5223 Y1.067
N21990 G1 X0.5383 Y1.0588
N22000 G1 X0.5417 Y1.0571
N22010 G1 X0.5543 Y1.0507
N22020 G1 X0.5573 Y1.0491
N22030 G1 X0.5622 Y1.0465
N22040 G1 X0.5782 Y1.0376
N22050 G1 X0.5862 Y1.0331
N22060 G1 X0.5942 Y1.0287
N22070 G1 X0.6003 Y1.0252
N22080 G1 X0.6021 Y1.0241
N22090 G1 X0.6181 Y1.0143
N22100 G1 X0.6264 Y1.0092
N22110 G1 X0.6341 Y1.0046
N22120 G1 X0.6394 Y1.0013
N22130 G1 X0.642 Y0.9995
N22140 G1 X0.658 Y0.9889
N22150 G1 X0.666 Y0.9836
N22160 G1 X0.674 Y0.9783
N22170 G1 X0.6754 Y0.9773
N22180 G1 X0.682 Y0.9727
N22190 G1 X0.6899 Y0.9669
N22200 G1 X0.6976 Y0.9614
N22210 G1 X0.7086 Y0.9534
N22220 G1 X0.7139 Y0.9496
N22230 G1 X0.7193 Y0.9454
N22240 G1 X0.7298 Y0.9371
N22250 G1 X0.7378 Y0.9309
N22260 G1 X0.7458 Y0.9246
N22270 G1 X0.7498 Y0.9215
N22280 G1 X0.7538 Y0.9182
N22290 G1 X0.7687 Y0.9055
N22300 G1 X0.7781 Y0.8975
N22310 G1 X0.7857 Y0.8911
N22320 G1 X0.7874 Y0.8896
N22330 G1 X0.7937 Y0.8838
N22340 G1 X0.8017 Y0.8765
N22350 G1 X0.8048 Y0.8736
N22360 G1 X0.8176 Y0.8618
N22370 G1 X0.822 Y0.8577
N22380 G1 X0.8336 Y0.8462
N22390 G1 X0.8381 Y0.8417
N22400 G1 X0.8496 Y0.8303
N22410 G1 X0.8541 Y0.8257
N22420 G1 X0.8575 Y0.822
N22430 G1 X0.8655 Y0.8135
N22440 G1 X0.869 Y0.8098
N22450 G1 X0.8815 Y0.7964
N22460 G1 X0.8838 Y0.7938
N22470 G1 X0.8895 Y0.7874
N22480 G1 X0.8976 Y0.7779
N22490 G1 X0.9045 Y0.7699
N22500 G1 X0.9114 Y0.7619
N22510 G1 X0.9134 Y0.7596
N22520 G1 X0.918 Y0.7539
N22530 G1 X0.9244 Y0.746
N22540 G1 X0.9294 Y0.7397
N22550 G1 X0.9373 Y0.7297
N22560 G1 X0.9434 Y0.722
N22570 G1 X0.9453 Y0.7194
N22580 G1 X0.9552 Y0.7061
N22590 G1 X0.9613 Y0.6977
N22600 G1 X0.9669 Y0.6901
N22610 G1 X0.9693 Y0.6869
N22620 G1 X0.9726 Y0.6821
N22630 G1 X0.9834 Y0.6662
N22640 G1 X0.9942 Y0.6502
N22650 G1 X0.9993 Y0.6422
N22660 G1 X1.0043 Y0.6343
N22670 G1 X1.0093 Y0.6263
N22680 G1 X1.0172 Y0.6136
N22690 G1 X1.0192 Y0.6103
N22700 G1 X1.0239 Y0.6024
N22710 G1 X1.0284 Y0.5944
N22720 G1 X1.0331 Y0.5861
N22730 G1 X1.0411 Y0.5721
N22740 G1 X1.0421 Y0.5704
N22750 G1 X1.0463 Y0.5625
N22760 G1 X1.0505 Y0.5545
N22770 G1 X1.0546 Y0.5465
N22780 G1 X1.0629 Y0.5306
N22790 G1 X1.065 Y0.5263
N22800 G1 X1.0668 Y0.5226
N22810 G1 X1.0743 Y0.5066
N22820 G1 X1.0819 Y0.4907
N22830 G1 X1.0855 Y0.4827
N22840 G1 X1.0923 Y0.4667
N22850 G1 X1.0956 Y0.4587
N22860 G1 X1.099 Y0.4508
N22870 G1 X1.1024 Y0.4428
N22880 G1 X1.105 Y0.4361
N22890 G1 X1.1085 Y0.4268
N22900 G1 X1.1115 Y0.4189
N22910 G1 X1.1176 Y0.4029
N22920 G1 X1.1204 Y0.3949
N22930 G1 X1.1257 Y0.379
N22940 G1 X1.1289 Y0.3695
N22950 G1 X1.1311 Y0.363
N22960 G1 X1.1337 Y0.355
N22970 G1 X1.136 Y0.3471
N22980 G1 X1.1384 Y0.3391
N22990 G1 X1.1407 Y0.3311
N23000 G1 X1.1454 Y0.3151
N23010 G1 X1.1475 Y0.3072
N23020 G1 X1.1515 Y0.2912
N23030 G1 X1.1528 Y0.2861
N23040 G1 X1.1556 Y0.2753
N23050 G1 X1.1575 Y0.2673
N23060 G1 X1.1592 Y0.2593
N23070 G1 X1.1626 Y0.2433
N23080 G1 X1.166 Y0.2274
N23090 G1 X1.1675 Y0.2194
N23100 G1 X1.1702 Y0.2035
N23110 G1 X1.1716 Y0.1955
N23120 G1 X1.173 Y0.1875
N23130 G1 X1.1743 Y0.1795
N23140 G1 X1.1755 Y0.1715
N23150 G1 X1.1776 Y0.1556
N23160 G1 X1.1786 Y0.1476
N23170 G1 X1.1797 Y0.1396
N23180 G1 X1.1807 Y0.1316
N23190 G1 X1.1814 Y0.1237
N23200 G1 X1.1829 Y0.1077
N23210 G1 X1.1844 Y0.0918
N23220 G1 X1.1848 Y0.0875
N23230 G1 X1.185 Y0.0838
N23240 G1 X1.1854 Y0.0758
N23250 G1 X1.1863 Y0.0598
N23260 G1 X1.1871 Y0.0439
N23270 G1 X1.1874 Y0.0359
N23280 G1 X1.1876 Y0.02
N23290 G1 X1.1877 Y0.012
N23300 G1 X1.1879 Y0.004
N23310 G1 X1.188 Y-0.004
N23320 G1 X1.1879 Y-0.012
N23330 G1 X1.1875 Y-0.0279
N23340 G1 X1.1873 Y-0.0359
N23350 G1 X1.1871 Y-0.0439
N23360 G1 X1.1869 Y-0.0518
N23370 G1 X1.1864 Y-0.0598
N23380 G1 X1.1854 Y-0.0758
N23390 G1 X1.1844 Y-0.0917
N23400 G1 X1.1838 Y-0.0997
N23410 G1 X1.183 Y-0.1077
N23420 G1 X1.1813 Y-0.1236
N23430 G1 X1.1797 Y-0.1396
N23440 G1 X1.1787 Y-0.1476
N23450 G1 X1.1754 Y-0.1715
N23460 G1 X1.1742 Y-0.1795
N23470 G1 X1.1731 Y-0.1875
N23480 G1 X1.1717 Y-0.1955
N23490 G1 X1.1659 Y-0.2274
N23500 G1 X1.1644 Y-0.2353
N23510 G1 X1.1627 Y-0.2433
N23520 G1 X1.1556 Y-0.2752
N23530 G1 X1.1537 Y-0.2832
N23540 G1 X1.1495 Y-0.2992
N23550 G1 X1.1449 Y-0.3168
N23560 G1 X1.1432 Y-0.3231
N23570 G1 X1.1408 Y-0.3311
N23580 G1 X1.136 Y-0.347
N23590 G1 X1.1311 Y-0.363
N23600 G1 X1.1289 Y-0.37
N23610 G1 X1.1286 Y-0.371
N23620 G1 X1.123 Y-0.3869
N23630 G1 X1.1175 Y-0.4029
N23640 G1 X1.1147 Y-0.4109
N23650 G1 X1.1129 Y-0.4155
N23660 G1 X1.1085 Y-0.4268
N23670 G1 X1.105 Y-0.4358
N23680 G1 X1.0991 Y-0.4507
N23690 G1 X1.097 Y-0.456
N23700 G1 X1.0958 Y-0.4587
N23710 G1 X1.0888 Y-0.4747
N23720 G1 X1.081 Y-0.4926
N23730 G1 X1.0783 Y-0.4986
N23740 G1 X1.0744 Y-0.5066
N23750 G1 X1.0705 Y-0.5146
N23760 G1 X1.0628 Y-0.5305
N23770 G1 X1.0589 Y-0.5385
N23780 G1 X1.0571 Y-0.5421
N23790 G1 X1.0491 Y-0.557
N23800 G1 X1.0411 Y-0.572
N23810 G1 X1.0377 Y-0.5784
N23820 G1 X1.0331 Y-0.5863
N23830 G1 X1.0284 Y-0.5944
N23840 G1 X1.0251 Y-0.6
N23850 G1 X1.0172 Y-0.6136
N23860 G1 X1.0144 Y-0.6183
N23870 G1 X1.0094 Y-0.6263
N23880 G1 X1.0043 Y-0.6342
N23890 G1 X1.0012 Y-0.6391
N23900 G1 X0.9932 Y-0.6516
N23910 G1 X0.989 Y-0.6582
N23920 G1 X0.9852 Y-0.6636
N23930 G1 X0.9773 Y-0.6752
N23940 G1 X0.9669 Y-0.6901
N23950 G1 X0.9613 Y-0.698
N23960 G1 X0.9533 Y-0.7086
N23970 G1 X0.9492 Y-0.714
N23980 G1 X0.9372 Y-0.73
N23990 G1 X0.9309 Y-0.738
N24000 G1 X0.9214 Y-0.7496
N24010 G1 X0.9114 Y-0.7619
N24020 G1 X0.9054 Y-0.7691
N24030 G1 X0.9048 Y-0.7699
N24040 G1 X0.8974 Y-0.7782
N24050 G1 X0.8907 Y-0.7858
N24060 G1 X0.8815 Y-0.7963
N24070 G1 X0.8766 Y-0.8018
N24080 G1 X0.8735 Y-0.8051
N24090 G1 X0.8615 Y-0.8177
N24100 G1 X0.8575 Y-0.8219
N24110 G1 X0.8463 Y-0.8337
N24120 G1 X0.8416 Y-0.8384
N24130 G1 X0.83 Y-0.8497
N24140 G1 X0.8256 Y-0.8539
N24150 G1 X0.8136 Y-0.8656
N24160 G1 X0.8096 Y-0.8693
N24170 G1 X0.8049 Y-0.8736
N24180 G1 X0.7961 Y-0.8816
N24190 G1 X0.7937 Y-0.8837
N24200 G1 X0.7857 Y-0.8909
N24210 G1 X0.7783 Y-0.8975
N24220 G1 X0.7777 Y-0.898
N24230 G1 X0.7697 Y-0.9047
N24240 G1 X0.7618 Y-0.9114
N24250 G1 X0.7592 Y-0.9135
N24260 G1 X0.7458 Y-0.9246
N24270 G1 X0.7399 Y-0.9294
N24280 G1 X0.7378 Y-0.931
N24290 G1 X0.7295 Y-0.9374
N24300 G1 X0.7219 Y-0.9433
N24310 G1 X0.7087 Y-0.9534
N24320 G1 X0.7059 Y-0.9555
N24330 G1 X0.6979 Y-0.9612
N24340 G1 X0.6865 Y-0.9693
N24350 G1 X0.674 Y-0.9782
N24360 G1 X0.666 Y-0.9838
N24370 G1 X0.6637 Y-0.9853
N24380 G1 X0.65 Y-0.9941
N24390 G1 X0.642 Y-0.9993
N24400 G1 X0.6341 Y-1.0045
N24410 G1 X0.6267 Y-1.0092
N24420 G1 X0.6261 Y-1.0096
N24430 G1 X0.6101 Y-1.0191
N24440 G1 X0.6 Y-1.0252
N24450 G1 X0.5942 Y-1.0287
N24460 G1 X0.5864 Y-1.0331
N24470 G1 X0.5702 Y-1.042
N24480 G1 X0.5622 Y-1.0463
N24490 G1 X0.5543 Y-1.0507
N24500 G1 X0.5463 Y-1.0549
N24510 G1 X0.5303 Y-1.0628
N24520 G1 X0.5258 Y-1.0651
N24530 G1 X0.5143 Y-1.0708
N24540 G1 X0.5098 Y-1.073
N24550 G1 X0.5064 Y-1.0747
N24560 G1 X0.4984 Y-1.0783
N24570 G1 X0.4904 Y-1.0818
N24580 G1 X0.4824 Y-1.0854
N24590 G1 X0.4744 Y-1.089
N24600 G1 X0.4665 Y-1.0926
N24610 G1 X0.4585 Y-1.0959
N24620 G1 X0.4505 Y-1.0991
N24630 G1 X0.4425 Y-1.1023
N24640 G1 X0.4266 Y-1.1087
N24650 G1 X0.4186 Y-1.1118
N24660 G1 X0.4026 Y-1.1175
N24670 G1 X0.3931 Y-1.1209
N24680 G1 X0.3867 Y-1.1232
N24690 G1 X0.3787 Y-1.126
N24700 G1 X0.3707 Y-1.1286
N24710 G1 X0.3627 Y-1.1311
N24720 G1 X0.3547 Y-1.1336
N24730 G1 X0.3388 Y-1.1386
N24740 G1 X0.3308 Y-1.141
N24750 G1 X0.3148 Y-1.1453
N24760 G1 X0.3068 Y-1.1475
N24770 G1 X0.2989 Y-1.1497
N24780 G1 X0.2909 Y-1.1518
N24790 G1 X0.2867 Y-1.1528
N24800 G1 X0.2749 Y-1.1556
N24810 G1 X0.2669 Y-1.1574
N24820 G1 X0.251 Y-1.1611
N24830 G1 X0.243 Y-1.1628
N24840 G1 X0.227 Y-1.1659
N24850 G1 X0.219 Y-1.1674
N24860 G1 X0.2111 Y-1.169
N24870 G1 X0.2031 Y-1.1705
N24880 G1 X0.1951 Y-1.1718
N24890 G1 X0.1791 Y-1.1742
N24900 G1 X0.1712 Y-1.1754
N24910 G1 X0.1624 Y-1.1768
N24920 G1 X0.1552 Y-1.1778
N24930 G1 X0.1472 Y-1.1787
N24940 G1 X0.1392 Y-1.1796
N24950 G1 X0.1313 Y-1.1805
N24960 G1 X0.1153 Y-1.1823
N24970 G1 X0.1073 Y-1.1831
N24980 G1 X0.0993 Y-1.1837
N24990 G1 X0.0914 Y-1.1843
N25000 G1 X0.0852 Y-1.1847
N25010 G1 X0.0674 Y-1.186
N25020 G1 X0.0594 Y-1.1865
N25030 G1 X0.0435 Y-1.187
N25040 G1 X0.0355 Y-1.1873
N25050 G1 X0.0275 Y-1.1876
N25060 G1 X0.0195 Y-1.1878
N25070 G1 X0.0115 Y-1.1879
N25080 G1 X-0.0044 Y-1.1878
N25090 G1 X-0.0124
N25100 G1 X-0.0204 Y-1.1877
N25110 G1 X-0.0284
N25120 G1 X-0.0363 Y-1.1873
N25130 G1 X-0.0443 Y-1.187
N25140 G1 X-0.0523 Y-1.1866
N25150 G1 X-0.0683 Y-1.186
N25160 G1 X-0.0763 Y-1.1855
N25170 G1 X-0.0842 Y-1.1849
N25180 G1 X-0.0922 Y-1.1842
N25190 G1 X-0.1002 Y-1.1836
N25200 G1 X-0.1162 Y-1.1823
N25210 G1 X-0.1241 Y-1.1815
N25220 G1 X-0.1401 Y-1.1795
N25230 G1 X-0.1481 Y-1.1785
N25240 G1 X-0.1629 Y-1.1768
N25250 G1 X-0.164 Y-1.1766
N25260 G1 X-0.172 Y-1.1754
N25270 G1 X-0.188 Y-1.1728
N25280 G1 X-0.196 Y-1.1715
N25290 G1 X-0.2039 Y-1.1703
N25300 G1 X-0.2119 Y-1.1689
N25310 G1 X-0.2128 Y-1.1688
N25320 G1 X-0.2199 Y-1.1674
N25330 G1 X-0.2279 Y-1.1657
N25340 G1 X-0.2359 Y-1.1641
N25350 G1 X-0.2526 Y-1.1608
N25360 G1 X-0.2598 Y-1.1592
N25370 G1 X-0.2758 Y-1.1553
N25380 G1 X-0.2838 Y-1.1534
N25390 G1 X-0.2917 Y-1.1515
N25400 G1 X-0.2997 Y-1.1496
N25410 G1 X-0.3077 Y-1.1474
N25420 G1 X-0.3166 Y-1.1448
N25430 G1 X-0.3237 Y-1.1428
N25440 G1 X-0.3396 Y-1.1383
N25450 G1 X-0.3448 Y-1.1369
N25460 G1 X-0.3476 Y-1.136
N25470 G1 X-0.3556 Y-1.1334
N25480 G1 X-0.3636 Y-1.1308
N25490 G1 X-0.3694 Y-1.1289
N25500 G1 X-0.3795 Y-1.1256
N25510 G1 X-0.3875 Y-1.123
N25520 G1 X-0.3934 Y-1.1209
N25530 G1 X-0.4035 Y-1.1172
N25540 G1 X-0.4115 Y-1.1143
N25550 G1 X-0.4274 Y-1.1084
N25560 G1 X-0.4354 Y-1.1053
N25570 G1 X-0.4363 Y-1.105
N25580 G1 X-0.4514 Y-1.0987
N25590 G1 X-0.4555 Y-1.097
N25600 G1 X-0.4673 Y-1.0921
N25610 G1 X-0.4748 Y-1.089
N25620 G1 X-0.4753 Y-1.0888
N25630 G1 X-0.4833 Y-1.0851
N25640 G1 X-0.4922 Y-1.081
N25650 G1 X-0.4992 Y-1.0778
N25660 G1 X-0.5096 Y-1.073
N25670 G1 X-0.5152 Y-1.0705
N25680 G1 X-0.5232 Y-1.0665
N25690 G1 X-0.5312 Y-1.0624
N25700 G1 X-0.5392 Y-1.0584
N25710 G1 X-0.5551 Y-1.0503
N25720 G1 X-0.5574 Y-1.0491
N25730 G1 X-0.5631 Y-1.046
N25740 G1 X-0.5718 Y-1.0411
N25750 G1 X-0.5791 Y-1.0371
N25760 G1 X-0.595 Y-1.0282
N25770 G1 X-0.6003 Y-1.0252
N25780 G1 X-0.603 Y-1.0235
N25790 G1 X-0.6134 Y-1.0172
N25800 G1 X-0.619 Y-1.0138
N25810 G1 X-0.6349 Y-1.0041
N25820 G1 X-0.6394 Y-1.0012
N25830 G1 X-0.6429 Y-0.9989
N25840 G1 X-0.6514 Y-0.9933
N25850 G1 X-0.6589 Y-0.9883
N25860 G1 X-0.6669 Y-0.983
N25870 G1 X-0.6748 Y-0.9777
N25880 G1 X-0.6754 Y-0.9773
N25890 G1 X-0.6828 Y-0.972
N25900 G1 X-0.6908 Y-0.9663
N25910 G1 X-0.6976 Y-0.9613
N25920 G1 X-0.7087 Y-0.9534
N25930 G1 X-0.7147 Y-0.9489
N25940 G1 X-0.7193 Y-0.9454
N25950 G1 X-0.7307 Y-0.9364
N25960 G1 X-0.7397 Y-0.9294
N25970 G1 X-0.7467 Y-0.924
N25980 G1 X-0.7498 Y-0.9215
N25990 G1 X-0.7546 Y-0.9174
N26000 G1 X-0.7626 Y-0.9107
N26010 G1 X-0.7687 Y-0.9055
N26020 G1 X-0.7786 Y-0.8972
N26030 G1 X-0.7866 Y-0.8903
N26040 G1 X-0.7874 Y-0.8895
N26050 G1 X-0.7961 Y-0.8816
N26060 G1 X-0.8025 Y-0.8757
N26070 G1 X-0.8135 Y-0.8656
N26080 G1 X-0.8185 Y-0.861
N26090 G1 X-0.822 Y-0.8576
N26100 G1 X-0.8345 Y-0.8453
N26110 G1 X-0.8381 Y-0.8417
N26120 G1 X-0.8462 Y-0.8337
N26130 G1 X-0.8504 Y-0.8295
N26140 G1 X-0.8541 Y-0.8257
N26150 G1 X-0.8664 Y-0.8126
N26160 G1 X-0.869 Y-0.8098
N26170 G1 X-0.8765 Y-0.8018
N26180 G1 X-0.8823 Y-0.7955
N26190 G1 X-0.8839 Y-0.7938
N26200 G1 X-0.8903 Y-0.7864
N26210 G1 X-0.9063 Y-0.7679
N26220 G1 X-0.9115 Y-0.7619
N26230 G1 X-0.9143 Y-0.7585
N26240 G1 X-0.9178 Y-0.7539
N26250 G1 X-0.9222 Y-0.7473
N26260 G1 X-0.9231 Y-0.7459
N26270 G1 X-0.9276 Y-0.738
N26280 G1 X-0.9302 Y-0.7324
N26290 G1 X-0.9313 Y-0.73
N26300 G1 X-0.9344 Y-0.722
N26310 G1 X-0.9369 Y-0.714
N26320 G1 X-0.9382 Y-0.7089
N26330 G1 X-0.9388 Y-0.706
N26340 G1 X-0.9402 Y-0.6981
N26350 G1 X-0.9411 Y-0.6901
N26360 G1 X-0.9414 Y-0.6821
N26370 G1 X-0.9413 Y-0.6741
N26380 G1 X-0.9406 Y-0.6662
N26390 G1 X-0.9394 Y-0.6582
N26400 G1 X-0.9382 Y-0.6526
N26410 G1 X-0.9376 Y-0.6502
N26420 G1 X-0.9353 Y-0.6422
N26430 G1 X-0.9325 Y-0.6342
N26440 G1 X-0.9302 Y-0.629
N26450 G1 X-0.9289 Y-0.6263
N26460 G1 X-0.9247 Y-0.6183
N26470 G1 X-0.9222 Y-0.6142
N26480 G1 X-0.9197 Y-0.6103
N26490 G1 X-0.9143 Y-0.6029
N26500 G1 X-0.9138 Y-0.6023
N26510 G1 X-0.9068 Y-0.5944
N26520 G1 X-0.9063 Y-0.5938
N26530 G1 X-0.8984 Y-0.5864
N26540 G1 X-0.8983 Y-0.5863
N26550 G1 X-0.8903 Y-0.5799
N26560 G1 X-0.8882 Y-0.5784
N26570 G1 X-0.8823 Y-0.5745
N26580 G1 X-0.8752 Y-0.5704
N26590 G1 X-0.8744 Y-0.57
N26600 G1 X-0.8664 Y-0.5661
N26610 G1 X-0.8584 Y-0.563
N26620 G1 X-0.8568 Y-0.5624
N26630 G1 X-0.8504 Y-0.5604
N26640 G1 X-0.8424 Y-0.5585
N26650 G1 X-0.4274 Y-0.4699
N26660 G1 X-0.4194 Y-0.4682
N26670 G1 X-0.4115 Y-0.4668
N26680 G1 X-0.4107 Y-0.4667
N26690 G1 X-0.4035 Y-0.4659
N26700 G1 X-0.3955 Y-0.4656
N26710 G1 X-0.3875
N26720 G1 X-0.0044
N26730 G1 X0.0036 Y-0.4654
N26740 G1 X0.0195 Y-0.465
N26750 G1 X0.0275 Y-0.4646
N26760 G1 X0.0435 Y-0.4634
N26770 G1 X0.0514 Y-0.4626
N26780 G1 X0.0674 Y-0.4605
N26790 G1 X0.0754 Y-0.4593
N26800 G1 X0.0914 Y-0.4564
N26810 G1 X0.0993 Y-0.4547
N26820 G1 X0.116 Y-0.4507
N26830 G1 X0.1233 Y-0.4488
N26840 G1 X0.1392 Y-0.4441
N26850 G1 X0.1436 Y-0.4428
N26860 G1 X0.1632 Y-0.4359
N26870 G1 X0.1662 Y-0.4348
N26880 G1 X0.1871 Y-0.4262
N26890 G1 X0.1951 Y-0.4225
N26900 G1 X0.2031 Y-0.4187
N26910 G1 X0.2111 Y-0.4149
N26920 G1 X0.227 Y-0.4063
N26930 G1 X0.2331 Y-0.4029
N26940 G1 X0.251 Y-0.3921
N26950 G1 X0.259 Y-0.3867
N26960 G1 X0.2703 Y-0.3789
N26970 G1 X0.2749 Y-0.3755
N26980 G1 X0.2829 Y-0.3695
N26990 G1 X0.2909 Y-0.3634
N27000 G1 X0.3068 Y-0.35
N27010 G1 X0.3102 Y-0.347
N27020 G1 X0.3228 Y-0.3353
N27030 G1 X0.3272 Y-0.3311
N27040 G1 X0.3426 Y-0.3151
N27050 G1 X0.3467 Y-0.3104
N27060 G1 X0.3565 Y-0.2992
N27070 G1 X0.3627 Y-0.2916
N27080 G1 X0.3707 Y-0.2814
N27090 G1 X0.3753 Y-0.2752
N27100 G1 X0.3867 Y-0.2592
N27110 G1 X0.3917 Y-0.2513
N27120 G1 X0.3967 Y-0.2433
N27130 G1 X0.4016 Y-0.2353
N27140 G1 X0.4106 Y-0.2192
N27150 G1 X0.4146 Y-0.2114
N27160 G1 X0.4225 Y-0.1955
N27170 G1 X0.4259 Y-0.1875
N27180 G1 X0.4294 Y-0.1795
N27190 G1 X0.4327 Y-0.1715
N27200 G1 X0.4386 Y-0.1556
N27210 G1 X0.4414 Y-0.1476
N27220 G1 X0.4464 Y-0.1316
N27230 G1 X0.4487 Y-0.1236
N27240 G1 X0.4528 Y-0.1077
N27250 G1 X0.4546 Y-0.0997
N27260 G1 X0.4585 Y-0.0805
N27270 G1 X0.4592 Y-0.0758
N27280 G1 X0.4616 Y-0.0598
N27290 G1 X0.4625 Y-0.0518
N27300 G1 X0.464 Y-0.0359
N27310 G1 X0.4646 Y-0.0279
N27320 G1 X0.4653 Y-0.012
N27330 G1 X0.4654 Y-0.004
N27340 G1 X0.4653 Y0.012
N27350 G1 X0.465 Y0.02
N27360 G1 X0.464 Y0.0359
N27370 G1 X0.4633 Y0.0439
N27380 G1 X0.4616 Y0.0598
N27390 G1 X0.4605 Y0.0678
N27400 G1 X0.4578 Y0.0838
N27410 G1 X0.4563 Y0.0918
N27420 G1 X0.4528 Y0.1077
N27430 G1 X0.4508 Y0.1157
N27440 G1 X0.4464 Y0.1316
N27450 G1 X0.444 Y0.1396
N27460 G1 X0.4387 Y0.1556
N27470 G1 X0.4357 Y0.1636
N27480 G1 X0.4295 Y0.1795
N27490 G1 X0.4266 Y0.1861
N27500 G1 X0.4223 Y0.1955
N27510 G1 X0.4186 Y0.2035
N27520 G1 X0.4105 Y0.2194
N27530 G1 X0.4061 Y0.2274
N27540 G1 X0.3968 Y0.2433
N27550 G1 X0.3946 Y0.2468
N27560 G1 X0.3865 Y0.2593
N27570 G1 X0.381 Y0.2673
N27580 G1 X0.3694 Y0.2832
N27590 G1 X0.363 Y0.2912
N27600 G1 X0.3547 Y0.3014
N27610 G1 X0.3496 Y0.3072
N27620 G1 X0.3388 Y0.3192
N27630 G1 X0.335 Y0.3231
N27640 G1 X0.3228 Y0.3353
N27650 G1 X0.3189 Y0.3391
N27660 G1 X0.3068 Y0.3499
N27670 G1 X0.301 Y0.355
N27680 G1 X0.2909 Y0.3633
N27690 G1 X0.2829 Y0.3696
N27700 G1 X0.2669 Y0.3813
N27710 G1 X0.259 Y0.3867
N27720 G1 X0.2463 Y0.3949
N27730 G1 X0.243 Y0.397
N27740 G1 X0.227 Y0.4063
N27750 G1 X0.219 Y0.4106
N27760 G1 X0.2031 Y0.4189
N27770 G1 X0.1951 Y0.4225
N27780 G1 X0.1791 Y0.4297
N27790 G1 X0.1712 Y0.4331
N27800 G1 X-0.18 Y0.5807
N27810 G1 X-0.188 Y0.5842
N27820 G1 X-0.1924 Y0.5864
N27830 G1 X-0.196 Y0.5884
N27840 G1 X-0.2039 Y0.5933
N27850 G1 X-0.2055 Y0.5944
N27860 G1 X-0.5551 Y0.8378
N27870 G1 X-0.5608 Y0.8417
N27880 G1 X-0.5631 Y0.8434
N27890 G1 X-0.571 Y0.8497
N27900 G1 X-0.5711 Y0.8498
N27910 G1 X-0.5751 Y0.8534
N27920 G1 X-0.5791 Y0.8574
N27930 G1 X-0.5793 Y0.8577
N27940 G1 X-0.5863 Y0.8656
N27950 G1 X-0.587 Y0.8666
N27960 G1 X-0.5922 Y0.8736
N27970 G1 X-0.595 Y0.878
N27980 G1 X-0.5972 Y0.8816
N27990 G1 X-0.6014 Y0.8896
N28000 G1 X-0.603 Y0.893
N28010 G1 X-0.6049 Y0.8975
N28020 G1 X-0.6078 Y0.9055
N28030 G1 X-0.6101 Y0.9135
N28040 G1 X-0.611 Y0.9174
N28050 G1 X-0.6118 Y0.9215
N28060 G1 X-0.613 Y0.9295
N28070 G1 X-0.6137 Y0.9374
N28080 G1 X-0.6138 Y0.9454
N28090 G1 X-0.6135 Y0.9534
N28100 G1 X-0.6126 Y0.9614
N28110 G1 X-0.6112 Y0.9693
N28120 G1 X-0.611 Y0.9705
N28130 G1 X-0.6093 Y0.9773
N28140 G1 X-0.6068 Y0.9853
N28150 G1 X-0.6037 Y0.9933
N28160 G1 X-0.603 Y0.9948
N28170 G1 X-0.5999 Y1.0013
N28180 G1 X-0.5954 Y1.0092
N28190 G1 X-0.595 Y1.0099
N28200 G1 X-0.5901 Y1.0172
N28210 G1 X-0.587 Y1.0213
N28220 G1 X-0.5838 Y1.0252
N28230 G1 X-0.5791 Y1.0304
N28240 G1 X-0.5764 Y1.0332
N28250 G1 X-0.5711 Y1.0381
N28260 G1 X-0.5674 Y1.0411
N28270 G1 X-0.5631 Y1.0445
N28280 G1 X-0.5563 Y1.0491
N28290 G1 X-0.5551 Y1.0499
N28300 G1 X-0.5471 Y1.0545
N28310 G1 X-0.542 Y1.0571
N28320 G1 X-0.5097 Y1.0731
N28330 G1 X-0.5072 Y1.0743
N28340 G1 X-0.4992 Y1.0779
N28350 G1 X-0.4913 Y1.0815
N28360 G1 X-0.4833 Y1.085
N28370 G1 X-0.4673 Y1.0922
N28380 G1 X-0.4593 Y1.0955
N28390 G1 X-0.4434 Y1.1019
N28400 G1 X-0.4354 Y1.1051
N28410 G1 X-0.4274 Y1.1084
N28420 G1 X-0.4194 Y1.1115
N28430 G1 X-0.4153 Y1.113
N28440 G1 X-0.4035 Y1.1172
N28450 G1 X-0.3955 Y1.12
N28460 G1 X-0.3875 Y1.1229
N28470 G1 X-0.3795 Y1.1257
N28480 G1 X-0.3716 Y1.1283
N28490 G1 X-0.3556 Y1.1333
N28500 G1 X-0.3396 Y1.1383
N28510 G1 X-0.3316 Y1.1408
N28520 G1 X-0.3237 Y1.1429
N28530 G1 X-0.3157 Y1.1451
N28540 G1 X-0.3077 Y1.1473
N28550 G1 X-0.2997 Y1.1494
N28560 G1 X-0.2928 Y1.1513
N28570 G1 X-0.2917 Y1.1516
N28580 G1 X-0.2868 Y1.1528
N28590 G1 X-0.2838 Y1.1535
N28600 G1 X-0.2678 Y1.1572
N28610 G1 X-0.2598 Y1.1591
N28620 G1 X-0.2518 Y1.1609
N28630 G1 X-0.2439 Y1.1627
N28640 G1 X-0.2359 Y1.1642
N28650 G1 X-0.2279 Y1.1657
N28660 G1 X-0.2199 Y1.1673
N28670 G1 X-0.2039 Y1.1703
N28680 G1 X-0.196 Y1.1717
N28690 G1 X-0.18 Y1.1741
N28700 G1 X-0.172 Y1.1753
N28710 G1 X-0.1622 Y1.1768
N28720 G1 X-0.1561 Y1.1777
N28730 G1 X-0.1481 Y1.1787
N28740 G1 X-0.1321 Y1.1804
N28750 G1 X-0.1241 Y1.1813
N28760 G1 X-0.1162 Y1.1822
N28770 G1 X-0.1082 Y1.1831
N28780 G1 X-0.1002 Y1.1837
N28790 G1 X-0.0849 Y1.1848
N28800 G1 X-0.0683 Y1.186
N28810 G1 X-0.0603 Y1.1865
N28820 G1 X-0.0523 Y1.1867
N28830 G1 X-0.0443 Y1.187
N28840 G1 X-0.0363 Y1.1872
N28850 G1 X-0.0204 Y1.1878
N28860 G1 X-0.0124 Y1.1879
N28870 G1 X0.0036 Y1.1878
N28880 G1 X0.0115 Y1.1877
N28890 G1 X0.0195
N28900 G1 X0.0275
N28910 G1 X0.0355 Y1.1874
N28920 G1 X0.0514 Y1.1867
N28930 G1 X0.0594 Y1.1863
N28940 G1 X0.0674 Y1.186
N28950 G1 X0.0754 Y1.1856
N28960 G1 X0.0834 Y1.185
N28970 G1 X0.0993 Y1.1836
N28980 G1 X0.1153 Y1.1823
N28990 G1 X0.1233 Y1.1816
N29000 G1 X0.1313 Y1.1806
N29010 G1 X0.1392 Y1.1796
N29020 G1 X0.1472 Y1.1786
N29030 G1 X0.1632 Y1.1767
N29040 G1 X0.1712 Y1.1756
N29050 G1 X0.1871 Y1.173
N29060 G1 X0.1951 Y1.1717
N29070 G1 X0.2031 Y1.1704
N29080 G1 X0.2111 Y1.1691
N29090 G1 X0.2127 Y1.1688
N29100 G1 X0.219 Y1.1676
N29110 G1 X0.2311 Y1.1651
N29120 G3 X0.2606 Y1.1945 R0.025
N29130 G1 X0.2538 Y1.2283
N29140 G1 X0.2531 Y1.2321 Z-0.2639
N29150 G1 X0.2523 Y1.2359 Z-0.263
N29160 G1 X0.2516 Y1.2394 Z-0.2615
N29170 G1 X0.251 Y1.2427 Z-0.2595
N29180 G1 X0.2504 Y1.2456 Z-0.2569
N29190 G1 X0.2499 Y1.2481 Z-0.2539
N29200 G1 X0.2495 Y1.2501 Z-0.2506
N29210 G1 X0.2492 Y1.2516 Z-0.247
N29220 G1 X0.249 Y1.2525 Z-0.2432
N29230 G1 X0.2489 Y1.2528 Z-0.2393
N29240 G0 Z0.6

(CONTOUR2)
N29260 G0 X-0.9943 Y-0.5801
N29270 M8
N29280 G4 P2.
N29290 G0 Z0.6
N29300 G0 Z-0.265
N29310 G1 X-0.994 Y-0.5802 Z-0.2689 F20.
N29320 G1 X-0.9933 Y-0.5808 Z-0.2727
N29330 G1 X-0.9921 Y-0.5817 Z-0.2763
N29340 G1 X-0.9904 Y-0.5829 Z-0.2797
N29350 G1 X-0.9884 Y-0.5844 Z-0.2827
N29360 G1 X-0.986 Y-0.5862 Z-0.2852
N29370 G1 X-0.9833 Y-0.5882 Z-0.2873
N29380 G1 X-0.9804 Y-0.5904 Z-0.2888
N29390 G1 X-0.9773 Y-0.5926 Z-0.2897
N29400 G1 X-0.9742 Y-0.595 Z-0.29
N29410 G1 X-0.9519 Y-0.6115
N29420 G3 X-0.9169 Y-0.6064 R0.025
N29430 G1 X-0.9167 Y-0.6061
N29440 G1 X-0.9155 Y-0.6045
N29450 G1 X-0.9103 Y-0.5981
N29460 G1 X-0.9075 Y-0.5951
N29470 G1 X-0.9026 Y-0.5902
N29480 G1 X-0.8995 Y-0.5873
N29490 G1 X-0.8933 Y-0.5822
N29500 G1 X-0.8915 Y-0.5808
N29510 G1 X-0.8835 Y-0.5752
N29520 G1 X-0.8818 Y-0.5742
N29530 G1 X-0.8755 Y-0.5706
N29540 G1 X-0.8675 Y-0.5666
N29550 G1 X-0.8665 Y-0.5662
N29560 G1 X-0.8595 Y-0.5634
N29570 G1 X-0.8515 Y-0.5608
N29580 G1 X-0.8435 Y-0.5587
N29590 G1 X-0.8412 Y-0.5582
N29600 G1 X-0.4197 Y-0.4683
N29610 G1 X-0.4117 Y-0.4669
N29620 G1 X-0.4037 Y-0.466
N29630 G1 X-0.3958 Y-0.4656
N29640 G1 X-0.3878
N29650 G1 X-0.004
N29660 G1 X0.004 Y-0.4654
N29670 G1 X0.02 Y-0.465
N29680 G1 X0.028 Y-0.4646
N29690 G1 X0.044 Y-0.4633
N29700 G1 X0.052 Y-0.4625
N29710 G1 X0.068 Y-0.4604
N29720 G1 X0.076 Y-0.4592
N29730 G1 X0.092 Y-0.4562
N29740 G1 X0.1 Y-0.4546
N29750 G1 X0.116 Y-0.4508
N29760 G1 X0.124 Y-0.4486
N29770 G1 X0.14 Y-0.4439
N29780 G1 X0.1479 Y-0.4412
N29790 G1 X0.1639 Y-0.4357
N29800 G1 X0.1719 Y-0.4324
N29810 G1 X0.1799 Y-0.4292
N29820 G1 X0.1879 Y-0.4259
N29830 G1 X0.2039 Y-0.4183
N29840 G1 X0.2119 Y-0.4144
N29850 G1 X0.2279 Y-0.4058
N29860 G1 X0.2359 Y-0.4012
N29870 G1 X0.2439 Y-0.3963
N29880 G1 X0.2519 Y-0.3914
N29890 G1 X0.2679 Y-0.3806
N29900 G1 X0.2759 Y-0.3748
N29910 G1 X0.2869 Y-0.3664
N29920 G1 X0.2919 Y-0.3626
N29930 G1 X0.3079 Y-0.3491
N29940 G1 X0.3151 Y-0.3425
N29950 G1 X0.3239 Y-0.3343
N29960 G1 X0.3316 Y-0.3265
N29970 G1 X0.3398 Y-0.318
N29980 G1 X0.3467 Y-0.3105
N29990 G1 X0.3558 Y-0.3
N30000 G1 X0.3604 Y-0.2945
N30010 G1 X0.3729 Y-0.2786
N30020 G1 X0.3786 Y-0.2706
N30030 G1 X0.3842 Y-0.2626
N30040 G1 X0.3878 Y-0.2575
N30050 G1 X0.3997 Y-0.2386
N30060 G1 X0.4038 Y-0.2313
N30070 G1 X0.4118 Y-0.217
N30080 G1 X0.413 Y-0.2146
N30090 G1 X0.4209 Y-0.1987
N30100 G1 X0.4246 Y-0.1907
N30110 G1 X0.4314 Y-0.1747
N30120 G1 X0.4345 Y-0.1667
N30130 G1 X0.4404 Y-0.1507
N30140 G1 X0.4429 Y-0.1427
N30150 G1 X0.4454 Y-0.1347
N30160 G1 X0.4479 Y-0.1268
N30170 G1 X0.452 Y-0.1108
N30180 G1 X0.454 Y-0.1028
N30190 G1 X0.4572 Y-0.0868
N30200 G1 X0.4588 Y-0.0788
N30210 G1 X0.4611 Y-0.0628
N30220 G1 X0.4622 Y-0.0548
N30230 G1 X0.4638 Y-0.0389
N30240 G1 X0.4644 Y-0.0309
N30250 G1 X0.4651 Y-0.0149
N30260 G1 X0.4654 Y-0.0069
N30270 G1 X0.4653 Y0.0091
N30280 G1 X0.4652 Y0.0171
N30290 G1 X0.4642 Y0.033
N30300 G1 X0.4637 Y0.041
N30310 G1 X0.4619 Y0.057
N30320 G1 X0.4609 Y0.065
N30330 G1 X0.4583 Y0.081
N30340 G1 X0.4569 Y0.089
N30350 G1 X0.4534 Y0.1049
N30360 G1 X0.4518 Y0.1121
N30370 G1 X0.4472 Y0.1289
N30380 G1 X0.4449 Y0.1369
N30390 G1 X0.4396 Y0.1529
N30400 G1 X0.4367 Y0.1609
N30410 G1 X0.4305 Y0.1769
N30420 G1 X0.4278 Y0.1833
N30430 G1 X0.4198 Y0.2011
N30440 G1 X0.4159 Y0.2088
N30450 G1 X0.4118 Y0.2168
N30460 G1 X0.4076 Y0.2248
N30470 G1 X0.3983 Y0.2408
N30480 G1 X0.3958 Y0.245
N30490 G1 X0.3878 Y0.2572
N30500 G1 X0.3829 Y0.2647
N30510 G1 X0.3712 Y0.2807
N30520 G1 X0.365 Y0.2887
N30530 G1 X0.3558 Y0.3
N30540 G1 X0.3518 Y0.3047
N30550 G1 X0.3398 Y0.318
N30560 G1 X0.3374 Y0.3207
N30570 G1 X0.3215 Y0.3366
N30580 G1 X0.3159 Y0.3418
N30590 G1 X0.3038 Y0.3526
N30600 G1 X0.2999 Y0.3559
N30610 G1 X0.2843 Y0.3686
N30620 G1 X0.2839 Y0.3689
N30630 G1 X0.2679 Y0.3806
N30640 G1 X0.2622 Y0.3846
N30650 G1 X0.2499 Y0.3926
N30660 G1 X0.2439 Y0.3965
N30670 G1 X0.2279 Y0.4058
N30680 G1 X0.2231 Y0.4086
N30690 G1 X0.2039 Y0.4184
N30700 G1 X0.1959 Y0.4221
N30710 G1 X0.1799 Y0.4293
N30720 G1 X0.1724 Y0.4325
N30730 G1 X-0.1799 Y0.5806
N30740 G1 X-0.1879 Y0.5841
N30750 G1 X-0.1883 Y0.5843
N30760 G1 X-0.1959 Y0.5883
N30770 G1 X-0.2024 Y0.5923
N30780 G1 X-0.2039 Y0.5933
N30790 G1 X-0.2119 Y0.5988
N30800 G1 X-0.5583 Y0.84
N30810 G1 X-0.5637 Y0.8438
N30820 G1 X-0.569 Y0.848
N30830 G1 X-0.5717 Y0.8503
N30840 G1 X-0.5777 Y0.856
N30850 G1 X-0.5797 Y0.858
N30860 G1 X-0.5849 Y0.864
N30870 G1 X-0.5876 Y0.8674
N30880 G1 X-0.591 Y0.872
N30890 G1 X-0.5956 Y0.879
N30900 G1 X-0.5962 Y0.88
N30910 G1 X-0.6006 Y0.8879
N30920 G1 X-0.6036 Y0.8945
N30930 G1 X-0.6043 Y0.8959
N30940 G1 X-0.6073 Y0.9039
N30950 G1 X-0.6097 Y0.9119
N30960 G1 X-0.61 Y0.9131
N30970 G1 X-0.6101 Y0.9137
N30980 G1 X-0.6102 Y0.914
N30990 G1 X-0.6103 Y0.9144
N31000 G3 X-0.6583 Y0.9165 R0.025
N31010 G1 X-1.1352 Y-0.4899
N31020 G3 X-0.9103 Y-0.5662 R0.1188
N31030 G3 X-0.9319 Y-0.4516 R0.1188
N31040 G3 X-0.9325 Y-0.4509 R0.1188
N31050 G3 X-1.113 Y-0.6052 Z-0.303 R0.1187
N31060 G3 X-0.9325 Y-0.4509 Z-0.3161 R0.1187
N31070 G3 X-1.1092 Y-0.4467 Z-0.323 R0.1187
N31080 G3 X-1.0942 Y-0.6229 Z-0.33 R0.1187
N31090 G3 X-1.0935 Y-0.6234 R0.1187
N31100 G1 X-1.0833 Y-0.631
N31110 G3 X-0.9169 Y-0.6064 R0.119
N31120 G1 X-0.9167 Y-0.6061
N31130 G1 X-0.9155 Y-0.6045
N31140 G1 X-0.9103 Y-0.5981
N31150 G1 X-0.9075 Y-0.5951
N31160 G1 X-0.9026 Y-0.5902
N31170 G1 X-0.8995 Y-0.5873
N31180 G1 X-0.8933 Y-0.5822
N31190 G1 X-0.8915 Y-0.5808
N31200 G1 X-0.8835 Y-0.5752
N31210 G1 X-0.8818 Y-0.5742
N31220 G1 X-0.8755 Y-0.5706
N31230 G1 X-0.8675 Y-0.5666
N31240 G1 X-0.8665 Y-0.5662
N31250 G1 X-0.8595 Y-0.5634
N31260 G1 X-0.8515 Y-0.5608
N31270 G1 X-0.8435 Y-0.5587
N31280 G1 X-0.8412 Y-0.5582
N31290 G1 X-0.4197 Y-0.4683
N31300 G1 X-0.4117 Y-0.4669
N31310 G1 X-0.4037 Y-0.466
N31320 G1 X-0.3958 Y-0.4656
N31330 G1 X-0.3878
N31340 G1 X-0.004
N31350 G1 X0.004 Y-0.4654
N31360 G1 X0.02 Y-0.465
N31370 G1 X0.028 Y-0.4646
N31380 G1 X0.044 Y-0.4633
N31390 G1 X0.052 Y-0.4625
N31400 G1 X0.068 Y-0.4604
N31410 G1 X0.076 Y-0.4592
N31420 G1 X0.092 Y-0.4562
N31430 G1 X0.1 Y-0.4546
N31440 G1 X0.116 Y-0.4508
N31450 G1 X0.124 Y-0.4486
N31460 G1 X0.14 Y-0.4439
N31470 G1 X0.1479 Y-0.4412
N31480 G1 X0.1639 Y-0.4357
N31490 G1 X0.1719 Y-0.4324
N31500 G1 X0.1799 Y-0.4292
N31510 G1 X0.1879 Y-0.4259
N31520 G1 X0.2039 Y-0.4183
N31530 G1 X0.2119 Y-0.4144
N31540 G1 X0.2279 Y-0.4058
N31550 G1 X0.2359 Y-0.4012
N31560 G1 X0.2439 Y-0.3963
N31570 G1 X0.2519 Y-0.3914
N31580 G1 X0.2679 Y-0.3806
N31590 G1 X0.2759 Y-0.3748
N31600 G1 X0.2869 Y-0.3664
N31610 G1 X0.2919 Y-0.3626
N31620 G1 X0.3079 Y-0.3491
N31630 G1 X0.3151 Y-0.3425
N31640 G1 X0.3239 Y-0.3343
N31650 G1 X0.3316 Y-0.3265
N31660 G1 X0.3398 Y-0.318
N31670 G1 X0.3467 Y-0.3105
N31680 G1 X0.3558 Y-0.3
N31690 G1 X0.3604 Y-0.2945
N31700 G1 X0.3729 Y-0.2786
N31710 G1 X0.3786 Y-0.2706
N31720 G1 X0.3842 Y-0.2626
N31730 G1 X0.3878 Y-0.2575
N31740 G1 X0.3997 Y-0.2386
N31750 G1 X0.4038 Y-0.2313
N31760 G1 X0.4118 Y-0.217
N31770 G1 X0.413 Y-0.2146
N31780 G1 X0.4209 Y-0.1987
N31790 G1 X0.4246 Y-0.1907
N31800 G1 X0.4314 Y-0.1747
N31810 G1 X0.4345 Y-0.1667
N31820 G1 X0.4404 Y-0.1507
N31830 G1 X0.4429 Y-0.1427
N31840 G1 X0.4454 Y-0.1347
N31850 G1 X0.4479 Y-0.1268
N31860 G1 X0.452 Y-0.1108
N31870 G1 X0.454 Y-0.1028
N31880 G1 X0.4572 Y-0.0868
N31890 G1 X0.4588 Y-0.0788
N31900 G1 X0.4611 Y-0.0628
N31910 G1 X0.4622 Y-0.0548
N31920 G1 X0.4638 Y-0.0389
N31930 G1 X0.4644 Y-0.0309
N31940 G1 X0.4651 Y-0.0149
N31950 G1 X0.4654 Y-0.0069
N31960 G1 X0.4653 Y0.0091
N31970 G1 X0.4652 Y0.0171
N31980 G1 X0.4642 Y0.033
N31990 G1 X0.4637 Y0.041
N32000 G1 X0.4619 Y0.057
N32010 G1 X0.4609 Y0.065
N32020 G1 X0.4583 Y0.081
N32030 G1 X0.4569 Y0.089
N32040 G1 X0.4534 Y0.1049
N32050 G1 X0.4518 Y0.1121
N32060 G1 X0.4472 Y0.1289
N32070 G1 X0.4449 Y0.1369
N32080 G1 X0.4396 Y0.1529
N32090 G1 X0.4367 Y0.1609
N32100 G1 X0.4305 Y0.1769
N32110 G1 X0.4278 Y0.1833
N32120 G1 X0.4198 Y0.2011
N32130 G1 X0.4159 Y0.2088
N32140 G1 X0.4118 Y0.2168
N32150 G1 X0.4076 Y0.2248
N32160 G1 X0.3983 Y0.2408
N32170 G1 X0.3958 Y0.245
N32180 G1 X0.3878 Y0.2572
N32190 G1 X0.3829 Y0.2647
N32200 G1 X0.3712 Y0.2807
N32210 G1 X0.365 Y0.2887
N32220 G1 X0.3558 Y0.3
N32230 G1 X0.3518 Y0.3047
N32240 G1 X0.3398 Y0.318
N32250 G1 X0.3374 Y0.3207
N32260 G1 X0.3215 Y0.3366
N32270 G1 X0.3159 Y0.3418
N32280 G1 X0.3038 Y0.3526
N32290 G1 X0.2999 Y0.3559
N32300 G1 X0.2843 Y0.3686
N32310 G1 X0.2839 Y0.3689
N32320 G1 X0.2679 Y0.3806
N32330 G1 X0.2622 Y0.3846
N32340 G1 X0.2499 Y0.3926
N32350 G1 X0.2439 Y0.3965
N32360 G1 X0.2279 Y0.4058
N32370 G1 X0.2231 Y0.4086
N32380 G1 X0.2039 Y0.4184
N32390 G1 X0.1959 Y0.4221
N32400 G1 X0.1799 Y0.4293
N32410 G1 X0.1724 Y0.4325
N32420 G1 X-0.1799 Y0.5806
N32430 G1 X-0.1879 Y0.5841
N32440 G1 X-0.1883 Y0.5843
N32450 G1 X-0.1959 Y0.5883
N32460 G1 X-0.2024 Y0.5923
N32470 G1 X-0.2039 Y0.5933
N32480 G1 X-0.2119 Y0.5988
N32490 G1 X-0.5583 Y0.84
N32500 G1 X-0.5637 Y0.8438
N32510 G1 X-0.569 Y0.848
N32520 G1 X-0.5717 Y0.8503
N32530 G1 X-0.5777 Y0.856
N32540 G1 X-0.5797 Y0.858
N32550 G1 X-0.5849 Y0.864
N32560 G1 X-0.5876 Y0.8674
N32570 G1 X-0.591 Y0.872
N32580 G1 X-0.5956 Y0.879
N32590 G1 X-0.5962 Y0.88
N32600 G1 X-0.6006 Y0.8879
N32610 G1 X-0.6036 Y0.8945
N32620 G1 X-0.6043 Y0.8959
N32630 G1 X-0.6073 Y0.9039
N32640 G1 X-0.6097 Y0.9119
N32650 G1 X-0.61 Y0.9131
N32660 G1 X-0.6101 Y0.9137
N32670 G1 X-0.6102 Y0.914
N32680 G1 X-0.6103 Y0.9144
N32690 G3 X-0.6583 Y0.9165 R0.025
N32700 G1 X-1.1352 Y-0.4899
N32710 G3 X-0.9103 Y-0.5662 R0.1188
N32720 G3 X-0.9319 Y-0.4516 R0.1188
N32730 G3 X-0.9325 Y-0.4509 R0.1188
N32740 G3 X-1.113 Y-0.6052 Z-0.343 R0.1187
N32750 G3 X-0.9325 Y-0.4509 Z-0.3561 R0.1187
N32760 G3 X-1.1092 Y-0.4467 Z-0.363 R0.1187
N32770 G3 X-1.0942 Y-0.6229 Z-0.37 R0.1187
N32780 G3 X-1.0935 Y-0.6234 R0.1187
N32790 G1 X-1.0833 Y-0.631
N32800 G3 X-0.9169 Y-0.6064 R0.119
N32810 G1 X-0.9167 Y-0.6061
N32820 G1 X-0.9155 Y-0.6045
N32830 G1 X-0.9103 Y-0.5981
N32840 G1 X-0.9075 Y-0.5951
N32850 G1 X-0.9026 Y-0.5902
N32860 G1 X-0.8995 Y-0.5873
N32870 G1 X-0.8933 Y-0.5822
N32880 G1 X-0.8915 Y-0.5808
N32890 G1 X-0.8835 Y-0.5752
N32900 G1 X-0.8818 Y-0.5742
N32910 G1 X-0.8755 Y-0.5706
N32920 G1 X-0.8675 Y-0.5666
N32930 G1 X-0.8665 Y-0.5662
N32940 G1 X-0.8595 Y-0.5634
N32950 G1 X-0.8515 Y-0.5608
N32960 G1 X-0.8435 Y-0.5587
N32970 G1 X-0.8412 Y-0.5582
N32980 G1 X-0.4197 Y-0.4683
N32990 G1 X-0.4117 Y-0.4669
N33000 G1 X-0.4037 Y-0.466
N33010 G1 X-0.3958 Y-0.4656
N33020 G1 X-0.3878
N33030 G1 X-0.004
N33040 G1 X0.004 Y-0.4654
N33050 G1 X0.02 Y-0.465
N33060 G1 X0.028 Y-0.4646
N33070 G1 X0.044 Y-0.4633
N33080 G1 X0.052 Y-0.4625
N33090 G1 X0.068 Y-0.4604
N33100 G1 X0.076 Y-0.4592
N33110 G1 X0.092 Y-0.4562
N33120 G1 X0.1 Y-0.4546
N33130 G1 X0.116 Y-0.4508
N33140 G1 X0.124 Y-0.4486
N33150 G1 X0.14 Y-0.4439
N33160 G1 X0.1479 Y-0.4412
N33170 G1 X0.1639 Y-0.4357
N33180 G1 X0.1719 Y-0.4324
N33190 G1 X0.1799 Y-0.4292
N33200 G1 X0.1879 Y-0.4259
N33210 G1 X0.2039 Y-0.4183
N33220 G1 X0.2119 Y-0.4144
N33230 G1 X0.2279 Y-0.4058
N33240 G1 X0.2359 Y-0.4012
N33250 G1 X0.2439 Y-0.3963
N33260 G1 X0.2519 Y-0.3914
N33270 G1 X0.2679 Y-0.3806
N33280 G1 X0.2759 Y-0.3748
N33290 G1 X0.2869 Y-0.3664
N33300 G1 X0.2919 Y-0.3626
N33310 G1 X0.3079 Y-0.3491
N33320 G1 X0.3151 Y-0.3425
N33330 G1 X0.3239 Y-0.3343
N33340 G1 X0.3316 Y-0.3265
N33350 G1 X0.3398 Y-0.318
N33360 G1 X0.3467 Y-0.3105
N33370 G1 X0.3558 Y-0.3
N33380 G1 X0.3604 Y-0.2945
N33390 G1 X0.3729 Y-0.2786
N33400 G1 X0.3786 Y-0.2706
N33410 G1 X0.3842 Y-0.2626
N33420 G1 X0.3878 Y-0.2575
N33430 G1 X0.3997 Y-0.2386
N33440 G1 X0.4038 Y-0.2313
N33450 G1 X0.4118 Y-0.217
N33460 G1 X0.413 Y-0.2146
N33470 G1 X0.4209 Y-0.1987
N33480 G1 X0.4246 Y-0.1907
N33490 G1 X0.4314 Y-0.1747
N33500 G1 X0.4345 Y-0.1667
N33510 G1 X0.4404 Y-0.1507
N33520 G1 X0.4429 Y-0.1427
N33530 G1 X0.4454 Y-0.1347
N33540 G1 X0.4479 Y-0.1268
N33550 G1 X0.452 Y-0.1108
N33560 G1 X0.454 Y-0.1028
N33570 G1 X0.4572 Y-0.0868
N33580 G1 X0.4588 Y-0.0788
N33590 G1 X0.4611 Y-0.0628
N33600 G1 X0.4622 Y-0.0548
N33610 G1 X0.4638 Y-0.0389
N33620 G1 X0.4644 Y-0.0309
N33630 G1 X0.4651 Y-0.0149
N33640 G1 X0.4654 Y-0.0069
N33650 G1 X0.4653 Y0.0091
N33660 G1 X0.4652 Y0.0171
N33670 G1 X0.4642 Y0.033
N33680 G1 X0.4637 Y0.041
N33690 G1 X0.4619 Y0.057
N33700 G1 X0.4609 Y0.065
N33710 G1 X0.4583 Y0.081
N33720 G1 X0.4569 Y0.089
N33730 G1 X0.4534 Y0.1049
N33740 G1 X0.4518 Y0.1121
N33750 G1 X0.4472 Y0.1289
N33760 G1 X0.4449 Y0.1369
N33770 G1 X0.4396 Y0.1529
N33780 G1 X0.4367 Y0.1609
N33790 G1 X0.4305 Y0.1769
N33800 G1 X0.4278 Y0.1833
N33810 G1 X0.4198 Y0.2011
N33820 G1 X0.4159 Y0.2088
N33830 G1 X0.4118 Y0.2168
N33840 G1 X0.4076 Y0.2248
N33850 G1 X0.3983 Y0.2408
N33860 G1 X0.3958 Y0.245
N33870 G1 X0.3878 Y0.2572
N33880 G1 X0.3829 Y0.2647
N33890 G1 X0.3712 Y0.2807
N33900 G1 X0.365 Y0.2887
N33910 G1 X0.3558 Y0.3
N33920 G1 X0.3518 Y0.3047
N33930 G1 X0.3398 Y0.318
N33940 G1 X0.3374 Y0.3207
N33950 G1 X0.3215 Y0.3366
N33960 G1 X0.3159 Y0.3418
N33970 G1 X0.3038 Y0.3526
N33980 G1 X0.2999 Y0.3559
N33990 G1 X0.2843 Y0.3686
N34000 G1 X0.2839 Y0.3689
N34010 G1 X0.2679 Y0.3806
N34020 G1 X0.2622 Y0.3846
N34030 G1 X0.2499 Y0.3926
N34040 G1 X0.2439 Y0.3965
N34050 G1 X0.2279 Y0.4058
N34060 G1 X0.2231 Y0.4086
N34070 G1 X0.2039 Y0.4184
N34080 G1 X0.1959 Y0.4221
N34090 G1 X0.1799 Y0.4293
N34100 G1 X0.1724 Y0.4325
N34110 G1 X-0.1799 Y0.5806
N34120 G1 X-0.1879 Y0.5841
N34130 G1 X-0.1883 Y0.5843
N34140 G1 X-0.1959 Y0.5883
N34150 G1 X-0.2024 Y0.5923
N34160 G1 X-0.2039 Y0.5933
N34170 G1 X-0.2119 Y0.5988
N34180 G1 X-0.5583 Y0.84
N34190 G1 X-0.5637 Y0.8438
N34200 G1 X-0.569 Y0.848
N34210 G1 X-0.5717 Y0.8503
N34220 G1 X-0.5777 Y0.856
N34230 G1 X-0.5797 Y0.858
N34240 G1 X-0.5849 Y0.864
N34250 G1 X-0.5876 Y0.8674
N34260 G1 X-0.591 Y0.872
N34270 G1 X-0.5956 Y0.879
N34280 G1 X-0.5962 Y0.88
N34290 G1 X-0.6006 Y0.8879
N34300 G1 X-0.6036 Y0.8945
N34310 G1 X-0.6043 Y0.8959
N34320 G1 X-0.6073 Y0.9039
N34330 G1 X-0.6097 Y0.9119
N34340 G1 X-0.61 Y0.9131
N34350 G1 X-0.6101 Y0.9137
N34360 G1 X-0.6102 Y0.914
N34370 G1 X-0.6103 Y0.9144
N34380 G3 X-0.6583 Y0.9165 R0.025
N34390 G1 X-1.1352 Y-0.4899
N34400 G3 X-0.9103 Y-0.5662 R0.1188
N34410 G3 X-0.9319 Y-0.4516 R0.1188
N34420 G3 X-0.9325 Y-0.4509 R0.1188
N34430 G3 X-1.113 Y-0.6052 Z-0.383 R0.1187
N34440 G3 X-0.9325 Y-0.4509 Z-0.3961 R0.1187
N34450 G3 X-1.1092 Y-0.4467 Z-0.403 R0.1187
N34460 G3 X-1.0942 Y-0.6229 Z-0.41 R0.1187
N34470 G3 X-1.0935 Y-0.6234 R0.1187
N34480 G1 X-1.0833 Y-0.631
N34490 G3 X-0.9169 Y-0.6064 R0.119
N34500 G1 X-0.9167 Y-0.6061
N34510 G1 X-0.9155 Y-0.6045
N34520 G1 X-0.9103 Y-0.5981
N34530 G1 X-0.9075 Y-0.5951
N34540 G1 X-0.9026 Y-0.5902
N34550 G1 X-0.8995 Y-0.5873
N34560 G1 X-0.8933 Y-0.5822
N34570 G1 X-0.8915 Y-0.5808
N34580 G1 X-0.8835 Y-0.5752
N34590 G1 X-0.8818 Y-0.5742
N34600 G1 X-0.8755 Y-0.5706
N34610 G1 X-0.8675 Y-0.5666
N34620 G1 X-0.8665 Y-0.5662
N34630 G1 X-0.8595 Y-0.5634
N34640 G1 X-0.8515 Y-0.5608
N34650 G1 X-0.8435 Y-0.5587
N34660 G1 X-0.8412 Y-0.5582
N34670 G1 X-0.4197 Y-0.4683
N34680 G1 X-0.4117 Y-0.4669
N34690 G1 X-0.4037 Y-0.466
N34700 G1 X-0.3958 Y-0.4656
N34710 G1 X-0.3878
N34720 G1 X-0.004
N34730 G1 X0.004 Y-0.4654
N34740 G1 X0.02 Y-0.465
N34750 G1 X0.028 Y-0.4646
N34760 G1 X0.044 Y-0.4633
N34770 G1 X0.052 Y-0.4625
N34780 G1 X0.068 Y-0.4604
N34790 G1 X0.076 Y-0.4592
N34800 G1 X0.092 Y-0.4562
N34810 G1 X0.1 Y-0.4546
N34820 G1 X0.116 Y-0.4508
N34830 G1 X0.124 Y-0.4486
N34840 G1 X0.14 Y-0.4439
N34850 G1 X0.1479 Y-0.4412
N34860 G1 X0.1639 Y-0.4357
N34870 G1 X0.1719 Y-0.4324
N34880 G1 X0.1799 Y-0.4292
N34890 G1 X0.1879 Y-0.4259
N34900 G1 X0.2039 Y-0.4183
N34910 G1 X0.2119 Y-0.4144
N34920 G1 X0.2279 Y-0.4058
N34930 G1 X0.2359 Y-0.4012
N34940 G1 X0.2439 Y-0.3963
N34950 G1 X0.2519 Y-0.3914
N34960 G1 X0.2679 Y-0.3806
N34970 G1 X0.2759 Y-0.3748
N34980 G1 X0.2869 Y-0.3664
N34990 G1 X0.2919 Y-0.3626
N35000 G1 X0.3079 Y-0.3491
N35010 G1 X0.3151 Y-0.3425
N35020 G1 X0.3239 Y-0.3343
N35030 G1 X0.3316 Y-0.3265
N35040 G1 X0.3398 Y-0.318
N35050 G1 X0.3467 Y-0.3105
N35060 G1 X0.3558 Y-0.3
N35070 G1 X0.3604 Y-0.2945
N35080 G1 X0.3729 Y-0.2786
N35090 G1 X0.3786 Y-0.2706
N35100 G1 X0.3842 Y-0.2626
N35110 G1 X0.3878 Y-0.2575
N35120 G1 X0.3997 Y-0.2386
N35130 G1 X0.4038 Y-0.2313
N35140 G1 X0.4118 Y-0.217
N35150 G1 X0.413 Y-0.2146
N35160 G1 X0.4209 Y-0.1987
N35170 G1 X0.4246 Y-0.1907
N35180 G1 X0.4314 Y-0.1747
N35190 G1 X0.4345 Y-0.1667
N35200 G1 X0.4404 Y-0.1507
N35210 G1 X0.4429 Y-0.1427
N35220 G1 X0.4454 Y-0.1347
N35230 G1 X0.4479 Y-0.1268
N35240 G1 X0.452 Y-0.1108
N35250 G1 X0.454 Y-0.1028
N35260 G1 X0.4572 Y-0.0868
N35270 G1 X0.4588 Y-0.0788
N35280 G1 X0.4611 Y-0.0628
N35290 G1 X0.4622 Y-0.0548
N35300 G1 X0.4638 Y-0.0389
N35310 G1 X0.4644 Y-0.0309
N35320 G1 X0.4651 Y-0.0149
N35330 G1 X0.4654 Y-0.0069
N35340 G1 X0.4653 Y0.0091
N35350 G1 X0.4652 Y0.0171
N35360 G1 X0.4642 Y0.033
N35370 G1 X0.4637 Y0.041
N35380 G1 X0.4619 Y0.057
N35390 G1 X0.4609 Y0.065
N35400 G1 X0.4583 Y0.081
N35410 G1 X0.4569 Y0.089
N35420 G1 X0.4534 Y0.1049
N35430 G1 X0.4518 Y0.1121
N35440 G1 X0.4472 Y0.1289
N35450 G1 X0.4449 Y0.1369
N35460 G1 X0.4396 Y0.1529
N35470 G1 X0.4367 Y0.1609
N35480 G1 X0.4305 Y0.1769
N35490 G1 X0.4278 Y0.1833
N35500 G1 X0.4198 Y0.2011
N35510 G1 X0.4159 Y0.2088
N35520 G1 X0.4118 Y0.2168
N35530 G1 X0.4076 Y0.2248
N35540 G1 X0.3983 Y0.2408
N35550 G1 X0.3958 Y0.245
N35560 G1 X0.3878 Y0.2572
N35570 G1 X0.3829 Y0.2647
N35580 G1 X0.3712 Y0.2807
N35590 G1 X0.365 Y0.2887
N35600 G1 X0.3558 Y0.3
N35610 G1 X0.3518 Y0.3047
N35620 G1 X0.3398 Y0.318
N35630 G1 X0.3374 Y0.3207
N35640 G1 X0.3215 Y0.3366
N35650 G1 X0.3159 Y0.3418
N35660 G1 X0.3038 Y0.3526
N35670 G1 X0.2999 Y0.3559
N35680 G1 X0.2843 Y0.3686
N35690 G1 X0.2839 Y0.3689
N35700 G1 X0.2679 Y0.3806
N35710 G1 X0.2622 Y0.3846
N35720 G1 X0.2499 Y0.3926
N35730 G1 X0.2439 Y0.3965
N35740 G1 X0.2279 Y0.4058
N35750 G1 X0.2231 Y0.4086
N35760 G1 X0.2039 Y0.4184
N35770 G1 X0.1959 Y0.4221
N35780 G1 X0.1799 Y0.4293
N35790 G1 X0.1724 Y0.4325
N35800 G1 X-0.1799 Y0.5806
N35810 G1 X-0.1879 Y0.5841
N35820 G1 X-0.1883 Y0.5843
N35830 G1 X-0.1959 Y0.5883
N35840 G1 X-0.2024 Y0.5923
N35850 G1 X-0.2039 Y0.5933
N35860 G1 X-0.2119 Y0.5988
N35870 G1 X-0.5583 Y0.84
N35880 G1 X-0.5637 Y0.8438
N35890 G1 X-0.569 Y0.848
N35900 G1 X-0.5717 Y0.8503
N35910 G1 X-0.5777 Y0.856
N35920 G1 X-0.5797 Y0.858
N35930 G1 X-0.5849 Y0.864
N35940 G1 X-0.5876 Y0.8674
N35950 G1 X-0.591 Y0.872
N35960 G1 X-0.5956 Y0.879
N35970 G1 X-0.5962 Y0.88
N35980 G1 X-0.6006 Y0.8879
N35990 G1 X-0.6036 Y0.8945
N36000 G1 X-0.6043 Y0.8959
N36010 G1 X-0.6073 Y0.9039
