%
(MOTORMOUNTCHAMBERING)
(T7  D=0.25 CR=0. TAPER=90DEG - ZMIN=-0.0984 - SPOT DRILL)
N10 G90 G54 G64 G50 G17 G40 G80 G94 G91.1 G49
N20 G20
N30 G28 G91 Z0.
N40 G90

(2D CONTOUR1)
N50 M9
N60 M998
N70 T7 G43 H7 M6
N80 S5140 M3
N90 G4 P2.
N100 G54
N110 G0 X-0.6087 Y0.489
N120 M8
N130 G4 P2.
N140 G0 Z0.6
N150 G0 Z0.2
N160 G1 Z0.0394 F2.
N170 G1 Z-0.0734
N180 G18 G2 X-0.5837 Z-0.0984 R0.025
N190 G1 X-0.5587 F8.
N200 G17 G3 X-0.5337 Y0.514 R0.025
N210 G1 Y0.7109
N220 G3 X-0.6912 R0.0787
N230 G1 Y0.514
N240 G3 X-0.5337 R0.0787
N250 G3 X-0.5587 Y0.539 R0.025
N260 G1 X-0.5837
N270 G18 G3 X-0.6087 Z-0.0734 R0.025
N280 G0 Z0.2
N290 G0 X0.6162 Y0.489
N300 G1 Z0.0394 F2.
N310 G1 Z-0.0734
N320 G2 X0.6412 Z-0.0984 R0.025
N330 G1 X0.6662 F8.
N340 G17 G3 X0.6912 Y0.514 R0.025
N350 G1 Y0.7109
N360 G3 X0.5337 R0.0787
N370 G1 Y0.514
N380 G3 X0.6912 R0.0787
N390 G3 X0.6662 Y0.539 R0.025
N400 G1 X0.6412
N410 G18 G3 X0.6162 Z-0.0734 R0.025
N420 G0 Z0.6
N430 G17

N440 M9
N450 G28 G91 Z0.
N460 G28 X0. Y0.
N470 M30
