%
(MOTORMOUNTRIGHT)
(T2  D=0.25 CR=0. - ZMIN=-1.01 - FLAT END MILL)
(T6  D=0.125 CR=0. - ZMIN=-1.01 - FLAT END MILL)
N10 G90 G54 G64 G50 G17 G40 G80 G94 G91.1 G49
N20 G20
N30 G28 G91 Z0.
N40 G90

(ADAPTIVE2)
N50 M9
N60 M998
N70 T2 G43 H2 M6
N80 S5140 M3
N90 G4 P2.
N100 G54
N110 G0 X1.9702 Y-0.1687
N120 M8
N130 G4 P2.
N140 G0 Z0.6
N150 G0 Z0.2
N160 G0 Z-0.15
N170 G1 Z-0.175 F24.
N180 G1 X1.9705 Y-0.1686 Z-0.1789
N190 G1 X1.9714 Y-0.1685 Z-0.1827
N200 G1 X1.9728 Y-0.1682 Z-0.1863
N210 G1 X1.9749 Y-0.1678 Z-0.1897
N220 G1 X1.9774 Y-0.1673 Z-0.1927
N230 G1 X1.9803 Y-0.1668 Z-0.1952
N240 G1 X1.9836 Y-0.1662 Z-0.1973
N250 G1 X1.9871 Y-0.1655 Z-0.1988
N260 G1 X1.9909 Y-0.1648 Z-0.1997
N270 G1 X1.9947 Y-0.1641 Z-0.2
N280 G3 X2.1264 Y-0.1243 R0.6382
N290 G1 X2.1805 Y-0.0986
N300 G1 X2.1973 Y-0.089
N310 G1 X2.1983 Y-0.0883
N320 G1 X2.1946 Y-0.0844
N330 G1 X2.1893 Y-0.0808
N340 G1 X2.1752 Y-0.073
N350 G1 X2.157 Y-0.0646
N360 G1 X2.133 Y-0.0559
N370 G1 X2.1 Y-0.0468
N380 G1 X2.0636 Y-0.0398
N390 G1 X2.0269 Y-0.035
N400 G1 X1.9901 Y-0.0318
N410 G1 X1.9531 Y-0.0295
N420 G1 X1.9162 Y-0.0279
N430 G1 X1.8422 Y-0.026
N440 G1 X1.7312 Y-0.0249
N450 G1 X1.4352 Y-0.0244
N460 G1 X0.8009 Y-0.0245
N470 G1 X0.7916 Y-0.026
N480 G1 X0.7834 Y-0.0304
N490 G1 X0.7769 Y-0.0372
N500 G1 X0.773 Y-0.0457
N510 G1 X0.7719 Y-0.055
N520 G1 X0.7739 Y-0.0642
N530 G1 X0.7787 Y-0.0722
N540 G1 X0.7858 Y-0.0783
N550 G3 X0.7951 Y-0.0813 R0.025
N560 G1 X0.799 Y-0.0818 Z-0.1997
N570 G1 X0.8028 Y-0.0822 Z-0.1988
N580 G1 X0.8064 Y-0.0826 Z-0.1973
N590 G1 X0.8097 Y-0.083 Z-0.1952
N600 G1 X0.8127 Y-0.0834 Z-0.1927
N610 G1 X0.8152 Y-0.0837 Z-0.1897
N620 G1 X0.8172 Y-0.0839 Z-0.1863
N630 G1 X0.8187 Y-0.0841 Z-0.1827
N640 G1 X0.8196 Y-0.0842 Z-0.1789
N650 G1 X0.82 Z-0.175
N660 G0 Z0.2
N670 G0 X2.1666 Y-0.0748
N680 G0 Z-0.15
N690 G1 Z-0.175 F24.
N700 G1 X2.1669 Y-0.075 Z-0.1789
N710 G1 X2.1677 Y-0.0755 Z-0.1827
N720 G1 X2.1689 Y-0.0763 Z-0.1863
N730 G1 X2.1706 Y-0.0774 Z-0.1897
N740 G1 X2.1728 Y-0.0788 Z-0.1927
N750 G1 X2.1753 Y-0.0804 Z-0.1952
N760 G1 X2.1781 Y-0.0823 Z-0.1973
N770 G1 X2.1811 Y-0.0843 Z-0.1988
N780 G1 X2.1843 Y-0.0864 Z-0.1997
N790 G1 X2.1875 Y-0.0885 Z-0.2
N800 G3 X2.1973 Y-0.089 R0.0096
N810 G1 X2.2226 Y-0.0738
N820 G1 X2.224 Y-0.0728
N830 G1 X2.2216 Y-0.0662
N840 G1 X2.2181 Y-0.0587
N850 G1 X2.2135 Y-0.0507
N860 G1 X2.2079 Y-0.0424
N870 G1 X2.2004 Y-0.033
N880 G1 X2.1915 Y-0.0235
N890 G1 X2.1806 Y-0.0137
N900 G1 X2.1669 Y-0.0031
N910 G1 X2.1508 Y0.0073
N920 G1 X2.1305 Y0.0182
N930 G1 X2.1052 Y0.0293
N940 G1 X2.0731 Y0.0404
N950 G1 X2.0373 Y0.0497
N960 G1 X2.0009 Y0.0566
N970 G1 X1.9643 Y0.0616
N980 G1 X1.9275 Y0.0654
N990 G1 X1.8906 Y0.0682
N1000 G1 X1.8536 Y0.0702
N1010 G1 X1.8166 Y0.0717
N1020 G1 X1.7427 Y0.0736
N1030 G1 X1.6317 Y0.0749
N1040 G1 X1.3726 Y0.0755
N1050 G1 X0.8916
N1060 G1 X0.8605 Y0.0746
N1070 G1 X0.8388 Y0.0722
N1080 G1 X0.8219 Y0.0689
N1090 G1 X0.8073 Y0.0648
N1100 G1 X0.7941 Y0.06
N1110 G1 X0.7831 Y0.0549
N1120 G1 X0.7727 Y0.0491
N1130 G1 X0.742 Y0.0284
N1140 G1 X0.7366 Y0.026
N1150 G1 X0.7273 Y0.0201
N1160 G1 X0.72 Y0.0119
N1170 G1 X0.715 Y0.0021
N1180 G1 X0.7129 Y-0.0087
N1190 G1 X0.7137 Y-0.0196
N1200 G1 X0.7175 Y-0.03
N1210 G1 X0.7238 Y-0.0389
N1220 G1 X0.7324 Y-0.0458
N1230 G3 X0.7417 Y-0.0489 R0.025
N1240 G1 X0.7456 Y-0.0493 Z-0.1997
N1250 G1 X0.7493 Y-0.0498 Z-0.1988
N1260 G1 X0.7529 Y-0.0502 Z-0.1973
N1270 G1 X0.7563 Y-0.0506 Z-0.1952
N1280 G1 X0.7592 Y-0.0509 Z-0.1927
N1290 G1 X0.7618 Y-0.0512 Z-0.1897
N1300 G1 X0.7638 Y-0.0515 Z-0.1863
N1310 G1 X0.7653 Y-0.0517 Z-0.1827
N1320 G1 X0.7662 Y-0.0518 Z-0.1789
N1330 G1 X0.7665 Z-0.175
N1340 G0 Z0.2
N1350 G0 X2.1961 Y-0.0537
N1360 G0 Z-0.15
N1370 G1 Z-0.175 F24.
N1380 G1 X2.1963 Y-0.0539 Z-0.1789
N1390 G1 X2.1969 Y-0.0546 Z-0.1827
N1400 G1 X2.1979 Y-0.0557 Z-0.1863
N1410 G1 X2.1993 Y-0.0573 Z-0.1897
N1420 G1 X2.201 Y-0.0591 Z-0.1927
N1430 G1 X2.203 Y-0.0614 Z-0.1952
N1440 G1 X2.2052 Y-0.0638 Z-0.1973
N1450 G1 X2.2077 Y-0.0665 Z-0.1988
N1460 G1 X2.2102 Y-0.0693 Z-0.1997
N1470 G1 X2.2129 Y-0.0722 Z-0.2
N1480 G3 X2.2226 Y-0.0738 R0.0078
N1490 G1 X2.2537 Y-0.0543
N1500 G1 X2.2549 Y-0.0535
N1510 G1 X2.2545 Y-0.0453
N1520 G1 X2.2534 Y-0.0367
N1530 G1 X2.2514 Y-0.0271
N1540 G1 X2.2486 Y-0.0172
N1550 G1 X2.2444 Y-0.0063
N1560 G1 X2.2392 Y0.0046
N1570 G1 X2.2321 Y0.0168
N1580 G1 X2.2238 Y0.0288
N1590 G1 X2.2131 Y0.0419
N1600 G1 X2.2007 Y0.0547
N1610 G1 X2.185 Y0.0686
N1620 G1 X2.167 Y0.0821
N1630 G1 X2.1453 Y0.0958
N1640 G1 X2.1187 Y0.1097
N1650 G1 X2.0867 Y0.1234
N1660 G1 X2.0516 Y0.1351
N1670 G1 X2.0158 Y0.1443
N1680 G1 X1.9795 Y0.1515
N1690 G1 X1.9429 Y0.1572
N1700 G1 X1.9062 Y0.1615
N1710 G1 X1.8693 Y0.1649
N1720 G1 X1.8324 Y0.1675
N1730 G1 X1.7954 Y0.1695
N1740 G1 X1.7215 Y0.1722
N1750 G1 X1.6105 Y0.1742
N1760 G1 X1.4625 Y0.1752
N1770 G1 X0.9815 Y0.1755
N1780 G1 X0.9445 Y0.1752
N1790 G1 X0.9075 Y0.1739
N1800 G1 X0.8706 Y0.1706
N1810 G1 X0.8401 Y0.1656
N1820 G1 X0.813 Y0.1588
N1830 G1 X0.7779 Y0.147
N1840 G1 X0.7609 Y0.1398
N1850 G1 X0.7405 Y0.1299
N1860 G1 X0.7246 Y0.1207
N1870 G1 X0.7111 Y0.1112
N1880 G1 X0.6996 Y0.1018
N1890 G1 X0.6902 Y0.0926
N1900 G1 X0.6686 Y0.0681
N1910 G1 X0.6614 Y0.0576
N1920 G1 X0.6568 Y0.0458
N1930 G1 X0.6552 Y0.0332
N1940 G1 X0.6564 Y0.0206
N1950 G1 X0.6606 Y0.0086
N1960 G1 X0.6675 Y-0.0021
N1970 G1 X0.6766 Y-0.0109
N1980 G3 X0.6858 Y-0.0143 R0.025
N1990 G1 X0.6896 Y-0.0149 Z-0.1997
N2000 G1 X0.6934 Y-0.0155 Z-0.1988
N2010 G1 X0.697 Y-0.0161 Z-0.1973
N2020 G1 X0.7003 Y-0.0166 Z-0.1952
N2030 G1 X0.7032 Y-0.0171 Z-0.1927
N2040 G1 X0.7057 Y-0.0175 Z-0.1897
N2050 G1 X0.7078 Y-0.0178 Z-0.1863
N2060 G1 X0.7092 Y-0.018 Z-0.1827
N2070 G1 X0.7101 Y-0.0182 Z-0.1789
N2080 G1 X0.7105 Z-0.175
N2090 G0 Z0.2
N2100 G0 X2.2273 Y-0.0342
N2110 G0 Z-0.15
N2120 G1 Z-0.175 F24.
N2130 G1 X2.2275 Y-0.0344 Z-0.1789
N2140 G1 X2.2281 Y-0.0351 Z-0.1827
N2150 G1 X2.2291 Y-0.0362 Z-0.1863
N2160 G1 X2.2305 Y-0.0377 Z-0.1897
N2170 G1 X2.2322 Y-0.0396 Z-0.1927
N2180 G1 X2.2342 Y-0.0418 Z-0.1952
N2190 G1 X2.2364 Y-0.0443 Z-0.1973
N2200 G1 X2.2389 Y-0.047 Z-0.1988
N2210 G1 X2.2414 Y-0.0498 Z-0.1997
N2220 G1 X2.244 Y-0.0527 Z-0.2
N2230 G3 X2.2537 Y-0.0543 R0.0078
N2240 G1 X2.2898 Y-0.0317
N2250 G1 X2.2909 Y-0.0309
N2260 G1 X2.2923 Y-0.0226
N2270 G1 X2.2932 Y-0.0132
N2280 G1 X2.2933 Y-0.003
N2290 G1 X2.2926 Y0.0078
N2300 G1 X2.2908 Y0.0198
N2310 G1 X2.288 Y0.032
N2320 G1 X2.2836 Y0.0456
N2330 G1 X2.2779 Y0.0595
N2340 G1 X2.2706 Y0.074
N2350 G1 X2.2609 Y0.0897
N2360 G1 X2.2498 Y0.1049
N2370 G1 X2.2355 Y0.1215
N2380 G1 X2.2189 Y0.138
N2390 G1 X2.1991 Y0.1546
N2400 G1 X2.175 Y0.1718
N2410 G1 X2.1475 Y0.1883
N2420 G1 X2.1147 Y0.2044
N2430 G1 X2.0803 Y0.2181
N2440 G1 X2.0451 Y0.2294
N2450 G1 X2.0093 Y0.2387
N2460 G1 X1.973 Y0.2462
N2470 G1 X1.9366 Y0.2523
N2480 G1 X1.8999 Y0.2573
N2490 G1 X1.8631 Y0.2612
N2500 G1 X1.8262 Y0.2644
N2510 G1 X1.7893 Y0.2669
N2520 G1 X1.7524 Y0.2688
N2530 G1 X1.6784 Y0.2716
N2540 G1 X1.5674 Y0.2738
N2550 G1 X1.4194 Y0.275
N2560 G1 X1.0864 Y0.2755
N2570 G1 X1.0124 Y0.2752
N2580 G1 X0.9754 Y0.2745
N2590 G1 X0.9384 Y0.2729
N2600 G1 X0.9015 Y0.2699
N2610 G1 X0.8649 Y0.265
N2620 G1 X0.8285 Y0.2579
N2630 G1 X0.7928 Y0.2485
N2640 G1 X0.7585 Y0.2369
N2650 G1 X0.7302 Y0.2247
N2660 G1 X0.7056 Y0.2116
N2670 G1 X0.6798 Y0.1952
N2680 G1 X0.6592 Y0.1795
N2690 G1 X0.6444 Y0.1663
N2700 G1 X0.6314 Y0.1527
N2710 G1 X0.6216 Y0.1406
N2720 G1 X0.6127 Y0.1276
N2730 G1 X0.6061 Y0.116
N2740 G1 X0.6012 Y0.1056
N2750 G1 X0.597 Y0.0933
N2760 G1 X0.5956 Y0.0803
N2770 G1 X0.5972 Y0.0674
N2780 G1 X0.6016 Y0.0551
N2790 G1 X0.6086 Y0.0441
N2800 G1 X0.6178 Y0.035
N2810 G3 X0.6267 Y0.0308 R0.025
N2820 G1 X0.6305 Y0.0299 Z-0.1997
N2830 G1 X0.6342 Y0.029 Z-0.1988
N2840 G1 X0.6377 Y0.0281 Z-0.1973
N2850 G1 X0.6409 Y0.0273 Z-0.1952
N2860 G1 X0.6438 Y0.0266 Z-0.1927
N2870 G1 X0.6463 Y0.026 Z-0.1897
N2880 G1 X0.6483 Y0.0255 Z-0.1863
N2890 G1 X0.6497 Y0.0252 Z-0.1827
N2900 G1 X0.6506 Y0.0249 Z-0.1789
N2910 G1 X0.6509 Z-0.175
N2920 G0 Z0.2
N2930 G0 X2.2633 Y-0.0117
N2940 G0 Z-0.15
N2950 G1 Z-0.175 F24.
N2960 G1 X2.2635 Y-0.0119 Z-0.1789
N2970 G1 X2.2641 Y-0.0126 Z-0.1827
N2980 G1 X2.2651 Y-0.0137 Z-0.1863
N2990 G1 X2.2665 Y-0.0152 Z-0.1897
N3000 G1 X2.2682 Y-0.0171 Z-0.1927
N3010 G1 X2.2702 Y-0.0193 Z-0.1952
N3020 G1 X2.2724 Y-0.0218 Z-0.1973
N3030 G1 X2.2749 Y-0.0245 Z-0.1988
N3040 G1 X2.2774 Y-0.0273 Z-0.1997
N3050 G1 X2.2801 Y-0.0302 Z-0.2
N3060 G3 X2.2898 Y-0.0317 R0.0078
N3070 G1 X2.3234 Y-0.0106
N3080 G1 X2.328 Y-0.0073
N3090 G1 X2.3291 Y-0.0065
N3100 G1 X2.3322 Y0.0015
N3110 G1 X2.3348 Y0.01
N3120 G1 X2.3369 Y0.0199
N3130 G1 X2.3383 Y0.0304
N3140 G1 X2.3389 Y0.0421
N3150 G1 X2.3386 Y0.0549
N3160 G1 X2.3372 Y0.0682
N3170 G1 X2.3343 Y0.0832
N3180 G1 X2.3301 Y0.0983
N3190 G1 X2.3241 Y0.1148
N3200 G1 X2.3161 Y0.1324
N3210 G1 X2.3064 Y0.1498
N3220 G1 X2.2936 Y0.1688
N3230 G1 X2.2783 Y0.1881
N3240 G1 X2.2605 Y0.2072
N3250 G1 X2.2384 Y0.2274
N3260 G1 X2.2126 Y0.2473
N3270 G1 X2.1835 Y0.2664
N3280 G1 X2.151 Y0.2841
N3290 G1 X2.1173 Y0.2993
N3300 G1 X2.0827 Y0.3124
N3310 G1 X2.0474 Y0.3235
N3320 G1 X2.0116 Y0.3328
N3330 G1 X1.9754 Y0.3407
N3340 G1 X1.939 Y0.3472
N3350 G1 X1.9024 Y0.3527
N3360 G1 X1.8657 Y0.3572
N3370 G1 X1.8288 Y0.3608
N3380 G1 X1.792 Y0.3638
N3390 G1 X1.755 Y0.3663
N3400 G1 X1.6811 Y0.3698
N3410 G1 X1.6071 Y0.372
N3420 G1 X1.4962 Y0.3739
N3430 G1 X1.3111 Y0.3751
N3440 G1 X1.0891 Y0.3753
N3450 G1 X1.0521 Y0.375
N3460 G1 X1.0151 Y0.3743
N3470 G1 X0.9782 Y0.3728
N3480 G1 X0.9412 Y0.3704
N3490 G1 X0.9044 Y0.3667
N3500 G1 X0.8678 Y0.3615
N3510 G1 X0.8314 Y0.3547
N3520 G1 X0.7954 Y0.3461
N3530 G1 X0.76 Y0.3354
N3540 G1 X0.7253 Y0.3224
N3550 G1 X0.6917 Y0.307
N3560 G1 X0.6607 Y0.2899
N3570 G1 X0.6336 Y0.2719
N3580 G1 X0.6109 Y0.254
N3590 G1 X0.5913 Y0.2359
N3600 G1 X0.575 Y0.2183
N3610 G1 X0.5619 Y0.2014
N3620 G1 X0.5521 Y0.1866
N3630 G1 X0.544 Y0.172
N3640 G1 X0.5379 Y0.1583
N3650 G1 X0.5352 Y0.1508
N3660 G1 X0.5324 Y0.1392
N3670 G1 X0.532 Y0.1272
N3680 G1 X0.534 Y0.1154
N3690 G1 X0.5384 Y0.1043
N3700 G1 X0.5451 Y0.0943
N3710 G1 X0.5536 Y0.0858
N3720 G3 X0.5624 Y0.0816 R0.025
N3730 G1 X0.5662 Y0.0806 Z-0.1997
N3740 G1 X0.5698 Y0.0797 Z-0.1988
N3750 G1 X0.5734 Y0.0788 Z-0.1973
N3760 G1 X0.5766 Y0.078 Z-0.1952
N3770 G1 X0.5795 Y0.0772 Z-0.1927
N3780 G1 X0.582 Y0.0766 Z-0.1897
N3790 G1 X0.5839 Y0.0761 Z-0.1863
N3800 G1 X0.5854 Y0.0757 Z-0.1827
N3810 G1 X0.5863 Y0.0755 Z-0.1789
N3820 G1 X0.5866 Y0.0754 Z-0.175
N3830 G0 Z0.2
N3840 G0 X2.3362 Y0.0199
N3850 G0 Z-0.15
N3860 G1 Z-0.175 F24.
N3870 G1 X2.336 Y0.0196 Z-0.1789
N3880 G1 X2.3354 Y0.0189 Z-0.1827
N3890 G1 X2.3345 Y0.0177 Z-0.1863
N3900 G1 X2.3333 Y0.0161 Z-0.1897
N3910 G1 X2.3318 Y0.014 Z-0.1927
N3920 G1 X2.33 Y0.0116 Z-0.1952
N3930 G1 X2.328 Y0.0089 Z-0.1973
N3940 G1 X2.3259 Y0.006 Z-0.1988
N3950 G1 X2.3236 Y0.003 Z-0.1997
N3960 G1 X2.3213 Y-0.0002 Z-0.2
N3970 G3 X2.328 Y-0.0073 R0.005
N3980 G1 X2.3486 Y0.0075
N3990 G1 X2.3654 Y0.021
N4000 G1 X2.3694 Y0.0246
N4010 G1 X2.3734 Y0.0311
N4020 G1 X2.3773 Y0.0386
N4030 G1 X2.3808 Y0.0471
N4040 G1 X2.3838 Y0.0567
N4050 G1 X2.3864 Y0.0675
N4060 G1 X2.3882 Y0.0791
N4070 G1 X2.3891 Y0.0924
N4080 G1 X2.389 Y0.1061
N4090 G1 X2.3876 Y0.1217
N4100 G1 X2.3848 Y0.1379
N4110 G1 X2.3803 Y0.1554
N4120 G1 X2.3737 Y0.1745
N4130 G1 X2.3654 Y0.1935
N4140 G1 X2.3544 Y0.2142
N4150 G1 X2.3402 Y0.2363
N4160 G1 X2.3239 Y0.2576
N4170 G1 X2.3037 Y0.28
N4180 G1 X2.2794 Y0.303
N4190 G1 X2.2511 Y0.3258
N4200 G1 X2.2205 Y0.3466
N4210 G1 X2.1884 Y0.365
N4220 G1 X2.1552 Y0.3813
N4230 G1 X2.1211 Y0.3955
N4240 G1 X2.0862 Y0.4079
N4250 G1 X2.0508 Y0.4187
N4260 G1 X2.015 Y0.428
N4270 G1 X1.9789 Y0.436
N4280 G1 X1.9425 Y0.4428
N4290 G1 X1.9059 Y0.4485
N4300 G1 X1.8692 Y0.4534
N4310 G1 X1.8325 Y0.4575
N4320 G1 X1.7956 Y0.4608
N4330 G1 X1.7587 Y0.4636
N4340 G1 X1.7218 Y0.466
N4350 G1 X1.6479 Y0.4694
N4360 G1 X1.5739 Y0.4717
N4370 G1 X1.4629 Y0.4737
N4380 G1 X1.2779 Y0.475
N4390 G1 X1.1299 Y0.4751
N4400 G1 X1.0559 Y0.4741
N4410 G1 X1.0189 Y0.4729
N4420 G1 X0.982 Y0.471
N4430 G1 X0.9451 Y0.4681
N4440 G1 X0.9083 Y0.4641
N4450 G1 X0.8716 Y0.459
N4460 G1 X0.8352 Y0.4524
N4470 G1 X0.7991 Y0.4444
N4480 G1 X0.7634 Y0.4347
N4490 G1 X0.7282 Y0.4232
N4500 G1 X0.6937 Y0.4098
N4510 G1 X0.6601 Y0.3943
N4520 G1 X0.6276 Y0.3766
N4530 G1 X0.5964 Y0.3567
N4540 G1 X0.5676 Y0.3352
N4550 G1 X0.5434 Y0.3138
N4560 G1 X0.5226 Y0.2921
N4570 G1 X0.5052 Y0.271
N4580 G1 X0.492 Y0.252
N4590 G1 X0.4826 Y0.2357
N4600 G1 X0.4748 Y0.2195
N4610 G1 X0.4725 Y0.2135
N4620 G1 X0.4696 Y0.2028
N4630 G1 X0.4687 Y0.1917
N4640 G1 X0.4699 Y0.1807
N4650 G1 X0.4732 Y0.1701
N4660 G1 X0.4785 Y0.1603
N4670 G1 X0.4855 Y0.1517
N4680 G1 X0.5338 Y0.1032
N4690 G1 X0.5536 Y0.0858
N4700 G3 X0.5624 Y0.0816 R0.025
N4710 G1 X0.5662 Y0.0806 Z-0.1997
N4720 G1 X0.5698 Y0.0797 Z-0.1988
N4730 G1 X0.5734 Y0.0788 Z-0.1973
N4740 G1 X0.5766 Y0.078 Z-0.1952
N4750 G1 X0.5795 Y0.0772 Z-0.1927
N4760 G1 X0.582 Y0.0766 Z-0.1897
N4770 G1 X0.5839 Y0.0761 Z-0.1863
N4780 G1 X0.5854 Y0.0757 Z-0.1827
N4790 G1 X0.5863 Y0.0755 Z-0.1789
N4800 G1 X0.5866 Y0.0754 Z-0.175
N4810 G0 Z0.2
N4820 G0 X2.3366 Y0.0376
N4830 G0 Z-0.15
N4840 G1 Z-0.175 F24.
N4850 G1 X2.3369 Y0.0374 Z-0.1789
N4860 G1 X2.3376 Y0.0368 Z-0.1827
N4870 G1 X2.3387 Y0.0359 Z-0.1863
N4880 G1 X2.3403 Y0.0345 Z-0.1897
N4890 G1 X2.3422 Y0.0329 Z-0.1927
N4900 G1 X2.3444 Y0.0309 Z-0.1952
N4910 G1 X2.347 Y0.0287 Z-0.1973
N4920 G1 X2.3497 Y0.0264 Z-0.1988
N4930 G1 X2.3526 Y0.0239 Z-0.1997
N4940 G1 X2.3556 Y0.0213 Z-0.2
N4950 G3 X2.3654 Y0.021 R0.0078
N4960 G1 X2.4099 Y0.0571
N4970 G1 X2.414 Y0.0607
N4980 G1 X2.4184 Y0.0661
N4990 G1 X2.4231 Y0.0727
N5000 G1 X2.4273 Y0.08
N5010 G1 X2.4316 Y0.0888
N5020 G1 X2.4352 Y0.0982
N5030 G1 X2.4386 Y0.1094
N5040 G1 X2.4411 Y0.1213
N5050 G1 X2.4429 Y0.1347
N5060 G1 X2.4436 Y0.1496
N5070 G1 X2.4431 Y0.1653
N5080 G1 X2.4411 Y0.1833
N5090 G1 X2.4376 Y0.2016
N5100 G1 X2.4319 Y0.2217
N5110 G1 X2.424 Y0.2434
N5120 G1 X2.4139 Y0.2651
N5130 G1 X2.4005 Y0.2889
N5140 G1 X2.3836 Y0.314
N5150 G1 X2.3642 Y0.3383
N5160 G1 X2.3405 Y0.3635
N5170 G1 X2.3131 Y0.3884
N5180 G1 X2.2838 Y0.411
N5190 G1 X2.253 Y0.4316
N5200 G1 X2.221 Y0.4501
N5210 G1 X2.1879 Y0.4667
N5220 G1 X2.154 Y0.4816
N5230 G1 X2.1195 Y0.4947
N5240 G1 X2.0843 Y0.5063
N5250 G1 X2.0488 Y0.5165
N5260 G1 X2.0128 Y0.5255
N5270 G1 X1.9767 Y0.5332
N5280 G1 X1.9403 Y0.54
N5290 G1 X1.9037 Y0.5458
N5300 G1 X1.8671 Y0.5507
N5310 G1 X1.8303 Y0.5549
N5320 G1 X1.7935 Y0.5585
N5330 G1 X1.7566 Y0.5616
N5340 G1 X1.7197 Y0.5641
N5350 G1 X1.6458 Y0.568
N5360 G1 X1.5718 Y0.5706
N5370 G1 X1.4608 Y0.573
N5380 G1 X1.3128 Y0.5746
N5390 G1 X1.2018 Y0.5749
N5400 G1 X1.1278 Y0.5745
N5410 G1 X1.0908 Y0.5738
N5420 G1 X1.0538 Y0.5728
N5430 G1 X1.0169 Y0.5711
N5440 G1 X0.98 Y0.5687
N5450 G1 X0.9431 Y0.5655
N5460 G1 X0.9063 Y0.5613
N5470 G1 X0.8697 Y0.556
N5480 G1 X0.8333 Y0.5495
N5490 G1 X0.7971 Y0.5418
N5500 G1 X0.7612 Y0.5326
N5510 G1 X0.7258 Y0.5219
N5520 G1 X0.6909 Y0.5096
N5530 G1 X0.6567 Y0.4957
N5540 G1 X0.6232 Y0.4798
N5550 G1 X0.5907 Y0.4622
N5560 G1 X0.5593 Y0.4427
N5570 G1 X0.5291 Y0.4212
N5580 G1 X0.5006 Y0.3976
N5590 G1 X0.474 Y0.3722
N5600 G1 X0.4523 Y0.3479
N5610 G1 X0.4361 Y0.3264
N5620 G1 X0.4242 Y0.3078
N5630 G1 X0.4151 Y0.2906
N5640 G1 X0.4106 Y0.28
N5650 G1 X0.4068 Y0.2674
N5660 G1 X0.4059 Y0.2543
N5670 G1 X0.408 Y0.2413
N5680 G1 X0.4129 Y0.2291
N5690 G1 X0.4205 Y0.2183
N5700 G1 X0.4414 Y0.1963
N5710 G1 X0.4855 Y0.1517
N5720 G3 X0.4938 Y0.1465 R0.025
N5730 G1 X0.4975 Y0.1451 Z-0.1997
N5740 G1 X0.501 Y0.1437 Z-0.1988
N5750 G1 X0.5044 Y0.1425 Z-0.1973
N5760 G1 X0.5076 Y0.1413 Z-0.1952
N5770 G1 X0.5103 Y0.1402 Z-0.1927
N5780 G1 X0.5127 Y0.1393 Z-0.1897
N5790 G1 X0.5146 Y0.1386 Z-0.1863
N5800 G1 X0.516 Y0.138 Z-0.1827
N5810 G1 X0.5169 Y0.1377 Z-0.1789
N5820 G1 X0.5172 Y0.1376 Z-0.175
N5830 G0 Z0.2
N5840 G0 X2.3812 Y0.0738
N5850 G0 Z-0.15
N5860 G1 Z-0.175 F24.
N5870 G1 X2.3814 Y0.0736 Z-0.1789
N5880 G1 X2.3821 Y0.073 Z-0.1827
N5890 G1 X2.3833 Y0.072 Z-0.1863
N5900 G1 X2.3848 Y0.0707 Z-0.1897
N5910 G1 X2.3867 Y0.069 Z-0.1927
N5920 G1 X2.389 Y0.0671 Z-0.1952
N5930 G1 X2.3915 Y0.0649 Z-0.1973
N5940 G1 X2.3943 Y0.0625 Z-0.1988
N5950 G1 X2.3972 Y0.06 Z-0.1997
N5960 G1 X2.4001 Y0.0575 Z-0.2
N5970 G3 X2.4099 Y0.0571 R0.0078
N5980 G1 X2.4589 Y0.097
N5990 G1 X2.4665 Y0.1041
N6000 G1 X2.4712 Y0.1093
N6010 G1 X2.4763 Y0.1159
N6020 G1 X2.481 Y0.1231
N6030 G1 X2.4858 Y0.1318
N6040 G1 X2.49 Y0.1413
N6050 G1 X2.494 Y0.1525
N6060 G1 X2.4972 Y0.1647
N6070 G1 X2.4997 Y0.1786
N6080 G1 X2.5011 Y0.1938
N6090 G1 X2.5014 Y0.2102
N6100 G1 X2.5002 Y0.2289
N6110 G1 X2.4975 Y0.248
N6120 G1 X2.4925 Y0.2697
N6130 G1 X2.4853 Y0.2926
N6140 G1 X2.4758 Y0.3161
N6150 G1 X2.4628 Y0.3419
N6160 G1 X2.4464 Y0.3689
N6170 G1 X2.4273 Y0.3955
N6180 G1 X2.4035 Y0.4233
N6190 G1 X2.3773 Y0.4494
N6200 G1 X2.3493 Y0.4736
N6210 G1 X2.3197 Y0.4958
N6220 G1 X2.2888 Y0.5162
N6230 G1 X2.2569 Y0.5348
N6240 G1 X2.224 Y0.5518
N6250 G1 X2.1903 Y0.5671
N6260 G1 X2.156 Y0.5809
N6270 G1 X2.1211 Y0.5932
N6280 G1 X2.0858 Y0.6043
N6290 G1 X2.0501 Y0.6141
N6300 G1 X2.0141 Y0.6227
N6310 G1 X1.9779 Y0.6304
N6320 G1 X1.9415 Y0.6371
N6330 G1 X1.905 Y0.6429
N6340 G1 X1.8683 Y0.648
N6350 G1 X1.8316 Y0.6524
N6360 G1 X1.7948 Y0.6561
N6370 G1 X1.7579 Y0.6594
N6380 G1 X1.721 Y0.6621
N6390 G1 X1.6471 Y0.6664
N6400 G1 X1.5732 Y0.6694
N6410 G1 X1.4622 Y0.6723
N6420 G1 X1.3512 Y0.6738
N6430 G1 X1.2402 Y0.6745
N6440 G1 X1.1662 Y0.6742
N6450 G1 X1.0922 Y0.6727
N6460 G1 X1.0552 Y0.6714
N6470 G1 X1.0183 Y0.6695
N6480 G1 X0.9814 Y0.6668
N6490 G1 X0.9445 Y0.6634
N6500 G1 X0.9078 Y0.6592
N6510 G1 X0.8711 Y0.6539
N6520 G1 X0.8347 Y0.6476
N6530 G1 X0.7984 Y0.6402
N6540 G1 X0.7624 Y0.6316
N6550 G1 X0.7268 Y0.6217
N6560 G1 X0.6915 Y0.6105
N6570 G1 X0.6568 Y0.5978
N6580 G1 X0.6226 Y0.5835
N6590 G1 X0.5892 Y0.5677
N6600 G1 X0.5565 Y0.5503
N6610 G1 X0.5248 Y0.5312
N6620 G1 X0.4942 Y0.5105
N6630 G1 X0.4647 Y0.4881
N6640 G1 X0.4367 Y0.464
N6650 G1 X0.4103 Y0.4379
N6660 G1 X0.3876 Y0.4117
N6670 G1 X0.3711 Y0.3892
N6680 G1 X0.3598 Y0.3709
N6690 G1 X0.3533 Y0.3582
N6700 G1 X0.3487 Y0.3459
N6710 G1 X0.347 Y0.3328
N6720 G1 X0.3482 Y0.3197
N6730 G1 X0.3523 Y0.3072
N6740 G1 X0.3591 Y0.296
N6750 G1 X0.4091 Y0.2314
N6760 G1 X0.4205 Y0.2183
N6770 G3 X0.4284 Y0.2127 R0.025
N6780 G1 X0.432 Y0.2111 Z-0.1997
N6790 G1 X0.4355 Y0.2095 Z-0.1988
N6800 G1 X0.4388 Y0.2081 Z-0.1973
N6810 G1 X0.4419 Y0.2067 Z-0.1952
N6820 G1 X0.4446 Y0.2055 Z-0.1927
N6830 G1 X0.4469 Y0.2045 Z-0.1897
N6840 G1 X0.4488 Y0.2036 Z-0.1863
N6850 G1 X0.4502 Y0.203 Z-0.1827
N6860 G1 X0.451 Y0.2026 Z-0.1789
N6870 G1 X0.4513 Y0.2025 Z-0.175
N6880 G0 Z0.2
N6890 G0 X2.43 Y0.1134
N6900 G0 Z-0.15
N6910 G1 Z-0.175 F24.
N6920 G1 X2.4302 Y0.1132 Z-0.1789
N6930 G1 X2.4309 Y0.1126 Z-0.1827
N6940 G1 X2.432 Y0.1116 Z-0.1863
N6950 G1 X2.4336 Y0.1103 Z-0.1897
N6960 G1 X2.4356 Y0.1086 Z-0.1927
N6970 G1 X2.4378 Y0.1067 Z-0.1952
N6980 G1 X2.4404 Y0.1046 Z-0.1973
N6990 G1 X2.4431 Y0.1022 Z-0.1988
N7000 G1 X2.4461 Y0.0997 Z-0.1997
N7010 G1 X2.449 Y0.0972 Z-0.2
N7020 G3 X2.4589 Y0.097 R0.0078
N7030 G1 X2.4686 Y0.1054
N7040 G1 X2.4863 Y0.1222
N7050 G1 X2.525 Y0.1623
N7060 G1 X2.5303 Y0.1684
N7070 G1 X2.5353 Y0.1751
N7080 G1 X2.54 Y0.1827
N7090 G1 X2.5447 Y0.1918
N7100 G1 X2.549 Y0.202
N7110 G1 X2.5528 Y0.2137
N7120 G1 X2.5559 Y0.2268
N7130 G1 X2.5582 Y0.2416
N7140 G1 X2.5594 Y0.2575
N7150 G1 X2.5592 Y0.2759
N7160 G1 X2.5576 Y0.2948
N7170 G1 X2.5539 Y0.3168
N7180 G1 X2.5481 Y0.3395
N7190 G1 X2.5398 Y0.3639
N7200 G1 X2.5281 Y0.3911
N7210 G1 X2.5137 Y0.4182
N7220 G1 X2.4954 Y0.4467
N7230 G1 X2.4731 Y0.4761
N7240 G1 X2.4484 Y0.5037
N7250 G1 X2.4219 Y0.5295
N7260 G1 X2.3938 Y0.5536
N7270 G1 X2.3643 Y0.5759
N7280 G1 X2.3336 Y0.5966
N7290 G1 X2.3019 Y0.6157
N7300 G1 X2.2693 Y0.6332
N7310 G1 X2.2359 Y0.6491
N7320 G1 X2.2019 Y0.6637
N7330 G1 X2.1674 Y0.677
N7340 G1 X2.1324 Y0.689
N7350 G1 X2.097 Y0.6998
N7360 G1 X2.0613 Y0.7095
N7370 G1 X2.0253 Y0.7182
N7380 G1 X1.9891 Y0.726
N7390 G1 X1.9528 Y0.7328
N7400 G1 X1.9163 Y0.7389
N7410 G1 X1.8796 Y0.7442
N7420 G1 X1.8429 Y0.7489
N7430 G1 X1.8062 Y0.7529
N7440 G1 X1.7693 Y0.7565
N7450 G1 X1.7324 Y0.7595
N7460 G1 X1.6586 Y0.7643
N7470 G1 X1.5847 Y0.7678
N7480 G1 X1.5107 Y0.7703
N7490 G1 X1.3997 Y0.7727
N7500 G1 X1.2887 Y0.7738
N7510 G1 X1.2147 Y0.7739
N7520 G1 X1.1407 Y0.7729
N7530 G1 X1.1037 Y0.7719
N7540 G1 X1.0668 Y0.7705
N7550 G1 X1.0298 Y0.7685
N7560 G1 X0.9929 Y0.7659
N7570 G1 X0.956 Y0.7626
N7580 G1 X0.9193 Y0.7585
N7590 G1 X0.8826 Y0.7536
N7600 G1 X0.846 Y0.7478
N7610 G1 X0.8097 Y0.741
N7620 G1 X0.7735 Y0.7331
N7630 G1 X0.7376 Y0.7242
N7640 G1 X0.702 Y0.7141
N7650 G1 X0.6668 Y0.7027
N7660 G1 X0.632 Y0.6901
N7670 G1 X0.5978 Y0.676
N7680 G1 X0.5642 Y0.6606
N7690 G1 X0.5312 Y0.6438
N7700 G1 X0.499 Y0.6256
N7710 G1 X0.4676 Y0.606
N7720 G1 X0.4372 Y0.5848
N7730 G1 X0.408 Y0.5622
N7740 G1 X0.3801 Y0.5378
N7750 G1 X0.3537 Y0.5119
N7760 G1 X0.3302 Y0.4854
N7770 G1 X0.3135 Y0.4632
N7780 G1 X0.3022 Y0.4455
N7790 G1 X0.2971 Y0.4358
N7800 G1 X0.2927 Y0.4247
N7810 G1 X0.2905 Y0.413
N7820 G1 X0.2909 Y0.4011
N7830 G1 X0.2936 Y0.3895
N7840 G1 X0.2986 Y0.3788
N7850 G1 X0.3069 Y0.3654
N7860 G1 X0.3246 Y0.3407
N7870 G1 X0.3591 Y0.296
N7880 G3 X0.3667 Y0.2898 R0.025
N7890 G1 X0.3701 Y0.288 Z-0.1997
N7900 G1 X0.3735 Y0.2862 Z-0.1988
N7910 G1 X0.3767 Y0.2845 Z-0.1973
N7920 G1 X0.3797 Y0.283 Z-0.1952
N7930 G1 X0.3823 Y0.2816 Z-0.1927
N7940 G1 X0.3846 Y0.2804 Z-0.1897
N7950 G1 X0.3864 Y0.2794 Z-0.1863
N7960 G1 X0.3877 Y0.2787 Z-0.1827
N7970 G1 X0.3885 Y0.2783 Z-0.1789
N7980 G1 X0.3888 Y0.2782 Z-0.175
N7990 G0 Z0.2
N8000 G0 X2.4945 Y0.1753
N8010 G0 Z-0.15
N8020 G1 Z-0.175 F24.
N8030 G1 X2.4947 Y0.1751 Z-0.1789
N8040 G1 X2.4955 Y0.1746 Z-0.1827
N8050 G1 X2.4967 Y0.1738 Z-0.1863
N8060 G1 X2.4984 Y0.1726 Z-0.1897
N8070 G1 X2.5005 Y0.1712 Z-0.1927
N8080 G1 X2.503 Y0.1696 Z-0.1952
N8090 G1 X2.5058 Y0.1677 Z-0.1973
N8100 G1 X2.5088 Y0.1657 Z-0.1988
N8110 G1 X2.512 Y0.1636 Z-0.1997
N8120 G1 X2.5152 Y0.1614 Z-0.2
N8130 G3 X2.525 Y0.1623 R0.0078
N8140 G1 X2.5833 Y0.223
N8150 G1 X2.5895 Y0.2304
N8160 G1 X2.5943 Y0.2372
N8170 G1 X2.5993 Y0.2456
N8180 G1 X2.6038 Y0.2546
N8190 G1 X2.6082 Y0.2657
N8200 G1 X2.6117 Y0.2775
N8210 G1 X2.6149 Y0.2917
N8220 G1 X2.6169 Y0.3064
N8230 G1 X2.6178 Y0.3242
N8240 G1 X2.6174 Y0.3425
N8250 G1 X2.6152 Y0.3635
N8260 G1 X2.6109 Y0.3861
N8270 G1 X2.6044 Y0.4101
N8280 G1 X2.5945 Y0.4372
N8290 G1 X2.582 Y0.4648
N8300 G1 X2.5658 Y0.494
N8310 G1 X2.5452 Y0.5248
N8320 G1 X2.5224 Y0.5539
N8330 G1 X2.4975 Y0.5813
N8340 G1 X2.4709 Y0.607
N8350 G1 X2.4429 Y0.6312
N8360 G1 X2.4135 Y0.6538
N8370 G1 X2.3831 Y0.6748
N8380 G1 X2.3517 Y0.6944
N8390 G1 X2.3194 Y0.7125
N8400 G1 X2.2864 Y0.7292
N8410 G1 X2.2528 Y0.7446
N8420 G1 X2.2186 Y0.7588
N8430 G1 X2.1839 Y0.7717
N8440 G1 X2.1489 Y0.7836
N8450 G1 X2.1135 Y0.7943
N8460 G1 X2.0778 Y0.8041
N8470 G1 X2.0418 Y0.8129
N8480 G1 X2.0057 Y0.8208
N8490 G1 X1.9694 Y0.8279
N8500 G1 X1.9329 Y0.8343
N8510 G1 X1.8963 Y0.8399
N8520 G1 X1.8597 Y0.8449
N8530 G1 X1.8229 Y0.8493
N8540 G1 X1.7861 Y0.8531
N8550 G1 X1.7493 Y0.8564
N8560 G1 X1.6755 Y0.8619
N8570 G1 X1.6016 Y0.8659
N8580 G1 X1.5276 Y0.8688
N8590 G1 X1.4167 Y0.8717
N8600 G1 X1.3057 Y0.8731
N8610 G1 X1.2317 Y0.8732
N8620 G1 X1.1577 Y0.8722
N8630 G1 X1.1207 Y0.8712
N8640 G1 X1.0837 Y0.8698
N8650 G1 X1.0467 Y0.8679
N8660 G1 X1.0098 Y0.8654
N8670 G1 X0.973 Y0.8623
N8680 G1 X0.9361 Y0.8586
N8690 G1 X0.8994 Y0.8541
N8700 G1 X0.8628 Y0.8488
N8710 G1 X0.8263 Y0.8426
N8720 G1 X0.79 Y0.8356
N8730 G1 X0.7538 Y0.8276
N8740 G1 X0.718 Y0.8185
N8750 G1 X0.6824 Y0.8084
N8760 G1 X0.6471 Y0.7971
N8770 G1 X0.6123 Y0.7847
N8780 G1 X0.5779 Y0.771
N8790 G1 X0.544 Y0.7561
N8800 G1 X0.5107 Y0.7401
N8810 G1 X0.478 Y0.7227
N8820 G1 X0.446 Y0.7041
N8830 G1 X0.4148 Y0.6842
N8840 G1 X0.3846 Y0.6629
N8850 G1 X0.3554 Y0.6402
N8860 G1 X0.3273 Y0.616
N8870 G1 X0.3007 Y0.5904
N8880 G1 X0.2759 Y0.5633
N8890 G1 X0.259 Y0.5416
N8900 G1 X0.2466 Y0.5225
N8910 G1 X0.2419 Y0.5114
N8920 G1 X0.2396 Y0.4996
N8930 G1 X0.2398 Y0.4875
N8940 G1 X0.2425 Y0.4758
N8950 G1 X0.2476 Y0.4648
N8960 G1 X0.2986 Y0.3788
N8970 G3 X0.3054 Y0.3717 R0.025
N8980 G1 X0.3086 Y0.3695 Z-0.1997
N8990 G1 X0.3117 Y0.3673 Z-0.1988
N9000 G1 X0.3147 Y0.3653 Z-0.1973
N9010 G1 X0.3174 Y0.3634 Z-0.1952
N9020 G1 X0.3199 Y0.3617 Z-0.1927
N9030 G1 X0.322 Y0.3602 Z-0.1897
N9040 G1 X0.3237 Y0.359 Z-0.1863
N9050 G1 X0.3249 Y0.3582 Z-0.1827
N9060 G1 X0.3256 Y0.3577 Z-0.1789
N9070 G1 X0.3259 Y0.3575 Z-0.175
N9080 G0 Z0.2
N9090 G0 X2.5526 Y0.2357
N9100 G0 Z-0.15
N9110 G1 Z-0.175 F24.
N9120 G1 X2.5529 Y0.2355 Z-0.1789
N9130 G1 X2.5536 Y0.235 Z-0.1827
N9140 G1 X2.5549 Y0.2342 Z-0.1863
N9150 G1 X2.5566 Y0.2331 Z-0.1897
N9160 G1 X2.5587 Y0.2317 Z-0.1927
N9170 G1 X2.5612 Y0.23 Z-0.1952
N9180 G1 X2.564 Y0.2282 Z-0.1973
N9190 G1 X2.5671 Y0.2262 Z-0.1988
N9200 G1 X2.5703 Y0.2242 Z-0.1997
N9210 G1 X2.5736 Y0.222 Z-0.2
N9220 G3 X2.5833 Y0.223 R0.0078
N9230 G1 X2.5922 Y0.2329
N9240 G1 X2.6114 Y0.2566
N9250 G1 X2.6492 Y0.3071
N9260 G1 X2.6524 Y0.3117
N9270 G1 X2.657 Y0.3199
N9280 G1 X2.6613 Y0.3291
N9290 G1 X2.6653 Y0.3401
N9300 G1 X2.6686 Y0.352
N9310 G1 X2.6714 Y0.3664
N9320 G1 X2.6731 Y0.3814
N9330 G1 X2.6737 Y0.3994
N9340 G1 X2.6728 Y0.418
N9350 G1 X2.6699 Y0.4397
N9360 G1 X2.6651 Y0.4625
N9370 G1 X2.6575 Y0.4877
N9380 G1 X2.6467 Y0.5158
N9390 G1 X2.6327 Y0.5446
N9400 G1 X2.6145 Y0.5756
N9410 G1 X2.5933 Y0.6059
N9420 G1 X2.5699 Y0.6346
N9430 G1 X2.5447 Y0.6617
N9440 G1 X2.5179 Y0.6872
N9450 G1 X2.4898 Y0.7113
N9460 G1 X2.4606 Y0.7339
N9470 G1 X2.4303 Y0.7552
N9480 G1 X2.399 Y0.775
N9490 G1 X2.367 Y0.7935
N9500 G1 X2.3342 Y0.8107
N9510 G1 X2.3009 Y0.8267
N9520 G1 X2.267 Y0.8416
N9530 G1 X2.2326 Y0.8552
N9540 G1 X2.1978 Y0.8679
N9550 G1 X2.1627 Y0.8794
N9560 G1 X2.1272 Y0.8901
N9570 G1 X2.0915 Y0.8998
N9580 G1 X2.0556 Y0.9086
N9590 G1 X2.0194 Y0.9166
N9600 G1 X1.9831 Y0.9238
N9610 G1 X1.9467 Y0.9303
N9620 G1 X1.9102 Y0.9361
N9630 G1 X1.8735 Y0.9413
N9640 G1 X1.8368 Y0.9459
N9650 G1 X1.8 Y0.95
N9660 G1 X1.7632 Y0.9536
N9670 G1 X1.6895 Y0.9595
N9680 G1 X1.6156 Y0.964
N9690 G1 X1.5417 Y0.9673
N9700 G1 X1.4307 Y0.9707
N9710 G1 X1.3197 Y0.9723
N9720 G1 X1.2457 Y0.9724
N9730 G1 X1.1717 Y0.9715
N9740 G1 X1.1347 Y0.9705
N9750 G1 X1.0977 Y0.9691
N9760 G1 X1.0608 Y0.9672
N9770 G1 X1.0239 Y0.9648
N9780 G1 X0.987 Y0.9619
N9790 G1 X0.9501 Y0.9584
N9800 G1 X0.9134 Y0.9541
N9810 G1 X0.8767 Y0.9492
N9820 G1 X0.8401 Y0.9436
N9830 G1 X0.8037 Y0.9371
N9840 G1 X0.7674 Y0.9298
N9850 G1 X0.7314 Y0.9215
N9860 G1 X0.6955 Y0.9123
N9870 G1 X0.6599 Y0.9021
N9880 G1 X0.6247 Y0.8909
N9890 G1 X0.5898 Y0.8786
N9900 G1 X0.5553 Y0.8652
N9910 G1 X0.5212 Y0.8507
N9920 G1 X0.4877 Y0.8351
N9930 G1 X0.4547 Y0.8184
N9940 G1 X0.4223 Y0.8005
N9950 G1 X0.3906 Y0.7815
N9960 G1 X0.3596 Y0.7612
N9970 G1 X0.3295 Y0.7397
N9980 G1 X0.3003 Y0.7169
N9990 G1 X0.2723 Y0.6928
N10000 G1 X0.2455 Y0.6672
N10010 G1 X0.2228 Y0.6426
N10020 G1 X0.2077 Y0.6234
N10030 G1 X0.2031 Y0.6164
N10040 G1 X0.1976 Y0.6061
N10050 G1 X0.1944 Y0.595
N10060 G1 X0.1934 Y0.5834
N10070 G1 X0.1947 Y0.5719
N10080 G1 X0.1982 Y0.5608
N10090 G1 X0.2178 Y0.5171
N10100 G1 X0.2229 Y0.5072
N10110 G1 X0.2476 Y0.4648
N10120 G3 X0.2543 Y0.4578 R0.025
N10130 G1 X0.2575 Y0.4555 Z-0.1997
N10140 G1 X0.2607 Y0.4534 Z-0.1988
N10150 G1 X0.2636 Y0.4513 Z-0.1973
N10160 G1 X0.2664 Y0.4494 Z-0.1952
N10170 G1 X0.2688 Y0.4477 Z-0.1927
N10180 G1 X0.2709 Y0.4462 Z-0.1897
N10190 G1 X0.2726 Y0.445 Z-0.1863
N10200 G1 X0.2738 Y0.4442 Z-0.1827
N10210 G1 X0.2746 Y0.4437 Z-0.1789
N10220 G1 X0.2748 Y0.4435 Z-0.175
N10230 G0 Z0.2
N10240 G0 X2.6173 Y0.3162
N10250 G0 Z-0.15
N10260 G1 Z-0.175 F24.
N10270 G1 X2.6176 Y0.3161 Z-0.1789
N10280 G1 X2.6184 Y0.3157 Z-0.1827
N10290 G1 X2.6197 Y0.315 Z-0.1863
N10300 G1 X2.6216 Y0.3141 Z-0.1897
N10310 G1 X2.6239 Y0.3129 Z-0.1927
N10320 G1 X2.6265 Y0.3116 Z-0.1952
N10330 G1 X2.6295 Y0.3101 Z-0.1973
N10340 G1 X2.6327 Y0.3084 Z-0.1988
N10350 G1 X2.6362 Y0.3067 Z-0.1997
N10360 G1 X2.6396 Y0.305 Z-0.2
N10370 G3 X2.6492 Y0.3071 R0.0078
N10380 G1 X2.6932 Y0.3659
N10390 G1 X2.7015 Y0.3783
N10400 G1 X2.7093 Y0.3911
N10410 G1 X2.7122 Y0.3963
N10420 G1 X2.7162 Y0.4054
N10430 G1 X2.7202 Y0.4165
N10440 G1 X2.7233 Y0.4282
N10450 G1 X2.7259 Y0.4426
N10460 G1 X2.7274 Y0.4577
N10470 G1 X2.7277 Y0.4756
N10480 G1 X2.7265 Y0.4944
N10490 G1 X2.7233 Y0.5166
N10500 G1 X2.7182 Y0.5391
N10510 G1 X2.7101 Y0.5653
N10520 G1 X2.6987 Y0.5934
N10530 G1 X2.684 Y0.6228
N10540 G1 X2.6648 Y0.6545
N10550 G1 X2.6433 Y0.6846
N10560 G1 X2.6197 Y0.7131
N10570 G1 X2.5944 Y0.7401
N10580 G1 X2.5676 Y0.7656
N10590 G1 X2.5396 Y0.7898
N10600 G1 X2.5105 Y0.8126
N10610 G1 X2.4803 Y0.8341
N10620 G1 X2.4493 Y0.8543
N10630 G1 X2.4176 Y0.8732
N10640 G1 X2.3851 Y0.891
N10650 G1 X2.352 Y0.9076
N10660 G1 X2.3184 Y0.923
N10670 G1 X2.2843 Y0.9374
N10680 G1 X2.2498 Y0.9508
N10690 G1 X2.2149 Y0.9632
N10700 G1 X2.1797 Y0.9746
N10710 G1 X2.1443 Y0.9852
N10720 G1 X2.1086 Y0.9949
N10730 G1 X2.0726 Y1.0038
N10740 G1 X2.0365 Y1.0119
N10750 G1 X2.0003 Y1.0192
N10760 G1 X1.9639 Y1.0259
N10770 G1 X1.9274 Y1.0319
N10780 G1 X1.8908 Y1.0374
N10790 G1 X1.8541 Y1.0422
N10800 G1 X1.8173 Y1.0466
N10810 G1 X1.7805 Y1.0504
N10820 G1 X1.7437 Y1.0538
N10830 G1 X1.6699 Y1.0595
N10840 G1 X1.596 Y1.0638
N10850 G1 X1.5221 Y1.0671
N10860 G1 X1.4481 Y1.0694
N10870 G1 X1.3741 Y1.071
N10880 G1 X1.3001 Y1.0716
N10890 G1 X1.2261 Y1.0713
N10900 G1 X1.1521 Y1.0698
N10910 G1 X1.1152 Y1.0685
N10920 G1 X1.0782 Y1.0667
N10930 G1 X1.0413 Y1.0645
N10940 G1 X1.0044 Y1.0618
N10950 G1 X0.9675 Y1.0585
N10960 G1 X0.9307 Y1.0546
N10970 G1 X0.894 Y1.0501
N10980 G1 X0.8573 Y1.0449
N10990 G1 X0.8208 Y1.039
N11000 G1 X0.7844 Y1.0323
N11010 G1 X0.7482 Y1.0248
N11020 G1 X0.7121 Y1.0165
N11030 G1 X0.6763 Y1.0073
N11040 G1 X0.6407 Y0.9971
N11050 G1 X0.6054 Y0.986
N11060 G1 X0.5705 Y0.9739
N11070 G1 X0.5358 Y0.9608
N11080 G1 X0.5016 Y0.9468
N11090 G1 X0.4678 Y0.9317
N11100 G1 X0.4345 Y0.9156
N11110 G1 X0.4017 Y0.8985
N11120 G1 X0.3695 Y0.8803
N11130 G1 X0.3379 Y0.861
N11140 G1 X0.307 Y0.8406
N11150 G1 X0.277 Y0.819
N11160 G1 X0.2478 Y0.7962
N11170 G1 X0.2197 Y0.7721
N11180 G1 X0.1929 Y0.7467
N11190 G1 X0.1735 Y0.7255
N11200 G1 X0.1646 Y0.7141
N11210 G1 X0.1581 Y0.7036
N11220 G1 X0.1539 Y0.6919
N11230 G1 X0.1523 Y0.6796
N11240 G1 X0.1534 Y0.6673
N11250 G1 X0.157 Y0.6555
N11260 G1 X0.1982 Y0.5608
N11270 G3 X0.2041 Y0.553 R0.025
N11280 G1 X0.207 Y0.5504 Z-0.1997
N11290 G1 X0.2098 Y0.5479 Z-0.1988
N11300 G1 X0.2125 Y0.5454 Z-0.1973
N11310 G1 X0.215 Y0.5432 Z-0.1952
N11320 G1 X0.2172 Y0.5412 Z-0.1927
N11330 G1 X0.2191 Y0.5395 Z-0.1897
N11340 G1 X0.2207 Y0.5381 Z-0.1863
N11350 G1 X0.2218 Y0.5371 Z-0.1827
N11360 G1 X0.2225 Y0.5365 Z-0.1789
N11370 G1 X0.2227 Y0.5363 Z-0.175
N11380 G0 Z0.2
N11390 G0 X2.6767 Y0.3972
N11400 G0 Z-0.15
N11410 G1 Z-0.175 F24.
N11420 G1 X2.677 Y0.3971 Z-0.1789
N11430 G1 X2.6778 Y0.3968 Z-0.1827
N11440 G1 X2.6792 Y0.3962 Z-0.1863
N11450 G1 X2.6811 Y0.3955 Z-0.1897
N11460 G1 X2.6835 Y0.3946 Z-0.1927
N11470 G1 X2.6863 Y0.3935 Z-0.1952
N11480 G1 X2.6894 Y0.3923 Z-0.1973
N11490 G1 X2.6928 Y0.3909 Z-0.1988
N11500 G1 X2.6963 Y0.3895 Z-0.1997
N11510 G1 X2.7 Y0.3881 Z-0.2
N11520 G3 X2.7093 Y0.3911 R0.0078
N11530 G1 X2.7267 Y0.4205
N11540 G1 X2.758 Y0.4751
N11550 G1 X2.7636 Y0.4861
N11560 G1 X2.7675 Y0.4956
N11570 G1 X2.7708 Y0.5058
N11580 G1 X2.7736 Y0.518
N11590 G1 X2.7757 Y0.5317
N11600 G1 X2.7767 Y0.5468
N11610 G1 X2.7765 Y0.5644
N11620 G1 X2.7748 Y0.5831
N11630 G1 X2.7711 Y0.6049
N11640 G1 X2.7651 Y0.628
N11650 G1 X2.7563 Y0.6535
N11660 G1 X2.7438 Y0.6821
N11670 G1 X2.7271 Y0.7131
N11680 G1 X2.707 Y0.7442
N11690 G1 X2.6847 Y0.7737
N11700 G1 X2.6605 Y0.8017
N11710 G1 X2.6346 Y0.8282
N11720 G1 X2.6075 Y0.8533
N11730 G1 X2.5791 Y0.877
N11740 G1 X2.5497 Y0.8995
N11750 G1 X2.5195 Y0.9208
N11760 G1 X2.4884 Y0.9409
N11770 G1 X2.4566 Y0.9598
N11780 G1 X2.4241 Y0.9776
N11790 G1 X2.3911 Y0.9943
N11800 G1 X2.3576 Y1.01
N11810 G1 X2.3236 Y1.0247
N11820 G1 X2.2893 Y1.0384
N11830 G1 X2.2545 Y1.0512
N11840 G1 X2.2195 Y1.063
N11850 G1 X2.1842 Y1.074
N11860 G1 X2.1486 Y1.0842
N11870 G1 X2.1128 Y1.0936
N11880 G1 X2.0768 Y1.1022
N11890 G1 X2.0407 Y1.1101
N11900 G1 X2.0044 Y1.1174
N11910 G1 X1.968 Y1.1239
N11920 G1 X1.9314 Y1.1299
N11930 G1 X1.8948 Y1.1354
N11940 G1 X1.8582 Y1.1402
N11950 G1 X1.8214 Y1.1446
N11960 G1 X1.7846 Y1.1486
N11970 G1 X1.7109 Y1.1552
N11980 G1 X1.6371 Y1.1604
N11990 G1 X1.5632 Y1.1643
N12000 G1 X1.4892 Y1.1673
N12010 G1 X1.4153 Y1.1693
N12020 G1 X1.3413 Y1.1705
N12030 G1 X1.2673 Y1.1707
N12040 G1 X1.1933 Y1.1697
N12050 G1 X1.1193 Y1.1674
N12060 G1 X1.0823 Y1.1656
N12070 G1 X1.0454 Y1.1634
N12080 G1 X1.0085 Y1.1607
N12090 G1 X0.9716 Y1.1574
N12100 G1 X0.9348 Y1.1536
N12110 G1 X0.8981 Y1.1492
N12120 G1 X0.8614 Y1.1442
N12130 G1 X0.8249 Y1.1385
N12140 G1 X0.7884 Y1.1321
N12150 G1 X0.7521 Y1.125
N12160 G1 X0.716 Y1.1171
N12170 G1 X0.68 Y1.1084
N12180 G1 X0.6443 Y1.0988
N12190 G1 X0.6088 Y1.0884
N12200 G1 X0.5735 Y1.0771
N12210 G1 X0.5386 Y1.065
N12220 G1 X0.5039 Y1.0519
N12230 G1 X0.4697 Y1.0379
N12240 G1 X0.4359 Y1.0229
N12250 G1 X0.4025 Y1.007
N12260 G1 X0.3695 Y0.9901
N12270 G1 X0.3371 Y0.9722
N12280 G1 X0.3053 Y0.9534
N12290 G1 X0.2741 Y0.9335
N12300 G1 X0.2436 Y0.9125
N12310 G1 X0.2139 Y0.8905
N12320 G1 X0.185 Y0.8673
N12330 G1 X0.1573 Y0.8428
N12340 G1 X0.1374 Y0.8224
N12350 G1 X0.1332 Y0.8174
N12360 G1 X0.1268 Y0.8079
N12370 G1 X0.1224 Y0.7973
N12380 G1 X0.1201 Y0.7861
N12390 G1 X0.12 Y0.7747
N12400 G1 X0.1222 Y0.7634
N12410 G1 X0.1457 Y0.6852
N12420 G1 X0.157 Y0.6555
N12430 G3 X0.1627 Y0.6476 R0.025
N12440 G1 X0.1656 Y0.645 Z-0.1997
N12450 G1 X0.1684 Y0.6424 Z-0.1988
N12460 G1 X0.1711 Y0.6399 Z-0.1973
N12470 G1 X0.1736 Y0.6377 Z-0.1952
N12480 G1 X0.1758 Y0.6357 Z-0.1927
N12490 G1 X0.1776 Y0.6339 Z-0.1897
N12500 G1 X0.1792 Y0.6326 Z-0.1863
N12510 G1 X0.1803 Y0.6315 Z-0.1827
N12520 G1 X0.1809 Y0.6309 Z-0.1789
N12530 G1 X0.1812 Y0.6307 Z-0.175
N12540 G0 Z0.2
N12550 G0 X2.7252 Y0.4803
N12560 G0 Z-0.15
N12570 G1 Z-0.175 F24.
N12580 G1 X2.7255 Y0.4802 Z-0.1789
N12590 G1 X2.7263 Y0.4799 Z-0.1827
N12600 G1 X2.7277 Y0.4794 Z-0.1863
N12610 G1 X2.7297 Y0.4787 Z-0.1897
N12620 G1 X2.7321 Y0.4778 Z-0.1927
N12630 G1 X2.7349 Y0.4768 Z-0.1952
N12640 G1 X2.738 Y0.4757 Z-0.1973
N12650 G1 X2.7414 Y0.4745 Z-0.1988
N12660 G1 X2.745 Y0.4732 Z-0.1997
N12670 G1 X2.7487 Y0.4719 Z-0.2
N12680 G3 X2.758 Y0.4751 R0.0078
N12690 G1 X2.7819 Y0.5171
N12700 G1 X2.7944 Y0.5423
N12710 G1 X2.8107 Y0.5804
N12720 G1 X2.8146 Y0.5913
N12730 G1 X2.8174 Y0.6016
N12740 G1 X2.8198 Y0.6142
N12750 G1 X2.8213 Y0.6275
N12760 G1 X2.8217 Y0.6432
N12770 G1 X2.8208 Y0.6607
N12780 G1 X2.8182 Y0.68
N12790 G1 X2.8135 Y0.7016
N12800 G1 X2.8062 Y0.7257
N12810 G1 X2.7962 Y0.7512
N12820 G1 X2.7821 Y0.7799
N12830 G1 X2.7633 Y0.8115
N12840 G1 X2.742 Y0.8417
N12850 G1 X2.7185 Y0.8704
N12860 G1 X2.6934 Y0.8976
N12870 G1 X2.6669 Y0.9233
N12880 G1 X2.6391 Y0.9478
N12890 G1 X2.6102 Y0.9709
N12900 G1 X2.5804 Y0.9929
N12910 G1 X2.5498 Y1.0136
N12920 G1 X2.5185 Y1.0333
N12930 G1 X2.4865 Y1.0519
N12940 G1 X2.4539 Y1.0694
N12950 G1 X2.4208 Y1.086
N12960 G1 X2.3872 Y1.1015
N12970 G1 X2.3532 Y1.1162
N12980 G1 X2.3189 Y1.1299
N12990 G1 X2.2842 Y1.1427
N13000 G1 X2.2492 Y1.1547
N13010 G1 X2.2139 Y1.1659
N13020 G1 X2.1784 Y1.1763
N13030 G1 X2.1427 Y1.186
N13040 G1 X2.1068 Y1.1949
N13050 G1 X2.0707 Y1.2031
N13060 G1 X2.0345 Y1.2107
N13070 G1 X1.9981 Y1.2176
N13080 G1 X1.9616 Y1.2239
N13090 G1 X1.9251 Y1.2297
N13100 G1 X1.8885 Y1.235
N13110 G1 X1.8518 Y1.2397
N13120 G1 X1.815 Y1.244
N13130 G1 X1.7782 Y1.2479
N13140 G1 X1.7045 Y1.2544
N13150 G1 X1.6307 Y1.2596
N13160 G1 X1.5568 Y1.2636
N13170 G1 X1.4828 Y1.2666
N13180 G1 X1.4089 Y1.2686
N13190 G1 X1.3349 Y1.2696
N13200 G1 X1.2609
N13210 G1 X1.1869 Y1.2684
N13220 G1 X1.1499 Y1.2673
N13230 G1 X1.1129 Y1.2658
N13240 G1 X1.076 Y1.2639
N13250 G1 X1.039 Y1.2616
N13260 G1 X1.0021 Y1.2587
N13270 G1 X0.9653 Y1.2554
N13280 G1 X0.9285 Y1.2516
N13290 G1 X0.8917 Y1.2471
N13300 G1 X0.8551 Y1.2421
N13310 G1 X0.8185 Y1.2364
N13320 G1 X0.7821 Y1.2301
N13330 G1 X0.7457 Y1.2231
N13340 G1 X0.7095 Y1.2153
N13350 G1 X0.6735 Y1.2069
N13360 G1 X0.6377 Y1.1976
N13370 G1 X0.6021 Y1.1876
N13380 G1 X0.5667 Y1.1767
N13390 G1 X0.5316 Y1.1651
N13400 G1 X0.4968 Y1.1526
N13410 G1 X0.4623 Y1.1392
N13420 G1 X0.4281 Y1.125
N13430 G1 X0.3943 Y1.1099
N13440 G1 X0.3609 Y1.0939
N13450 G1 X0.328 Y1.077
N13460 G1 X0.2956 Y1.0592
N13470 G1 X0.2637 Y1.0404
N13480 G1 X0.2324 Y1.0207
N13490 G1 X0.2017 Y1.
N13500 G1 X0.1718 Y0.9783
N13510 G1 X0.1427 Y0.9554
N13520 G1 X0.1256 Y0.94
N13530 G1 X0.1076 Y0.9226
N13540 G1 X0.0958 Y0.909
N13550 G1 X0.0948 Y0.9071 Z-0.1997
N13560 G1 X0.0939 Y0.9052 Z-0.199
N13570 G1 X0.0931 Y0.9036 Z-0.1979
N13580 G1 X0.0924 Y0.9022 Z-0.1963
N13590 G1 X0.0919 Y0.9012 Z-0.1945
N13600 G1 X0.0917 Y0.9005 Z-0.1924
N13610 G1 X0.0916 Y0.9002 Z-0.1902
N13620 G0 Z0.2
N13630 G0 X2.8105 Y0.6076
N13640 G0 Z-0.15
N13650 G1 Z-0.175 F24.
N13660 G1 X2.8104 Y0.6073 Z-0.1789
N13670 G1 X2.8101 Y0.6065 Z-0.1827
N13680 G1 X2.8096 Y0.6051 Z-0.1863
N13690 G1 X2.8088 Y0.6032 Z-0.1897
N13700 G1 X2.8079 Y0.6008 Z-0.1927
N13710 G1 X2.8069 Y0.598 Z-0.1952
N13720 G1 X2.8057 Y0.5949 Z-0.1973
N13730 G1 X2.8044 Y0.5915 Z-0.1988
N13740 G1 X2.803 Y0.5879 Z-0.1997
N13750 G1 X2.8016 Y0.5843 Z-0.2
N13760 G3 X2.8107 Y0.5804 R0.0049
N13770 G1 X2.851 Y0.6768
N13780 G1 X2.8553 Y0.6891
N13790 G1 X2.8579 Y0.6988
N13800 G1 X2.86 Y0.7105
N13810 G1 X2.8613 Y0.7238
N13820 G1 X2.8615 Y0.7383
N13830 G1 X2.8604 Y0.7557
N13840 G1 X2.8578 Y0.7735
N13850 G1 X2.8529 Y0.7949
N13860 G1 X2.846 Y0.817
N13870 G1 X2.8357 Y0.8424
N13880 G1 X2.8214 Y0.8708
N13890 G1 X2.8026 Y0.9018
N13900 G1 X2.7809 Y0.9318
N13910 G1 X2.7572 Y0.9602
N13920 G1 X2.7317 Y0.9871
N13930 G1 X2.7049 Y1.0125
N13940 G1 X2.6768 Y1.0367
N13950 G1 X2.6478 Y1.0596
N13960 G1 X2.6178 Y1.0813
N13970 G1 X2.5871 Y1.102
N13980 G1 X2.5557 Y1.1215
N13990 G1 X2.5237 Y1.1401
N14000 G1 X2.4911 Y1.1576
N14010 G1 X2.4581 Y1.1742
N14020 G1 X2.4245 Y1.1899
N14030 G1 X2.3906 Y1.2047
N14040 G1 X2.3564 Y1.2187
N14050 G1 X2.3217 Y1.2318
N14060 G1 X2.2868 Y1.244
N14070 G1 X2.2517 Y1.2555
N14080 G1 X2.2163 Y1.2663
N14090 G1 X2.1806 Y1.2763
N14100 G1 X2.1448 Y1.2856
N14110 G1 X2.1088 Y1.2942
N14120 G1 X2.0727 Y1.3022
N14130 G1 X2.0365 Y1.3096
N14140 G1 X2.0001 Y1.3164
N14150 G1 X1.9636 Y1.3226
N14160 G1 X1.927 Y1.3283
N14170 G1 X1.8904 Y1.3335
N14180 G1 X1.8537 Y1.3383
N14190 G1 X1.817 Y1.3426
N14200 G1 X1.7433 Y1.3499
N14210 G1 X1.6696 Y1.3559
N14220 G1 X1.5957 Y1.3606
N14230 G1 X1.5218 Y1.3641
N14240 G1 X1.4478 Y1.3667
N14250 G1 X1.3738 Y1.3682
N14260 G1 X1.2998 Y1.3687
N14270 G1 X1.2258 Y1.3681
N14280 G1 X1.1888 Y1.3673
N14290 G1 X1.1149 Y1.3646
N14300 G1 X1.0779 Y1.3627
N14310 G1 X1.041 Y1.3604
N14320 G1 X1.0041 Y1.3576
N14330 G1 X0.9672 Y1.3543
N14340 G1 X0.9304 Y1.3505
N14350 G1 X0.8937 Y1.3462
N14360 G1 X0.857 Y1.3413
N14370 G1 X0.8204 Y1.3358
N14380 G1 X0.7839 Y1.3296
N14390 G1 X0.7475 Y1.3229
N14400 G1 X0.7113 Y1.3155
N14410 G1 X0.6752 Y1.3073
N14420 G1 X0.6393 Y1.2985
N14430 G1 X0.6035 Y1.289
N14440 G1 X0.568 Y1.2787
N14450 G1 X0.5326 Y1.2677
N14460 G1 X0.4976 Y1.2558
N14470 G1 X0.4628 Y1.2433
N14480 G1 X0.4283 Y1.2299
N14490 G1 X0.3941 Y1.2157
N14500 G1 X0.3603 Y1.2007
N14510 G1 X0.3269 Y1.1848
N14520 G1 X0.2939 Y1.1681
N14530 G1 X0.2613 Y1.1505
N14540 G1 X0.2292 Y1.132
N14550 G1 X0.1977 Y1.1126
N14560 G1 X0.1668 Y1.0923
N14570 G1 X0.1365 Y1.071
N14580 G1 X0.1112 Y1.0509
N14590 G1 X0.1032 Y1.0462
N14600 G1 X0.0935 Y1.0394
N14610 G1 X0.0855 Y1.0307
N14620 G1 X0.0793 Y1.0206
N14630 G1 X0.0754 Y1.0094
N14640 G1 X0.0737 Y0.9977
N14650 G1 X0.0745 Y0.9859
N14660 G3 X0.0783 Y0.9769 R0.025
N14670 G1 X0.0805 Y0.9737 Z-0.1997
N14680 G1 X0.0826 Y0.9705 Z-0.1988
N14690 G1 X0.0846 Y0.9675 Z-0.1973
N14700 G1 X0.0865 Y0.9647 Z-0.1952
N14710 G1 X0.0882 Y0.9622 Z-0.1927
N14720 G1 X0.0896 Y0.9601 Z-0.1897
N14730 G1 X0.0907 Y0.9584 Z-0.1863
N14740 G1 X0.0916 Y0.9572 Z-0.1827
N14750 G1 X0.0921 Y0.9564 Z-0.1789
N14760 G1 X0.0922 Y0.9562 Z-0.175
N14770 G0 Z0.2
N14780 G0 X2.8178 Y0.6775
N14790 G0 Z-0.15
N14800 G1 Z-0.175 F24.
N14810 G1 X2.8181 Z-0.1789
N14820 G1 X2.819 Y0.6773 Z-0.1827
N14830 G1 X2.8204 Y0.677 Z-0.1863
N14840 G1 X2.8224 Y0.6765 Z-0.1897
N14850 G1 X2.8249 Y0.676 Z-0.1927
N14860 G1 X2.8278 Y0.6754 Z-0.1952
N14870 G1 X2.8311 Y0.6747 Z-0.1973
N14880 G1 X2.8347 Y0.6739 Z-0.1988
N14890 G1 X2.8384 Y0.6731 Z-0.1997
N14900 G1 X2.8422 Y0.6723 Z-0.2
N14910 G3 X2.851 Y0.6768 R0.0078
N14920 G1 X2.8544 Y0.6852
N14930 G1 X2.8628 Y0.7104
N14940 G1 X2.9007 Y0.8448
N14950 G1 X2.9018 Y0.8501
N14960 G1 X2.8983 Y0.8691
N14970 G1 X2.8922 Y0.8913
N14980 G1 X2.8836 Y0.9152
N14990 G1 X2.8718 Y0.9413
N15000 G1 X2.8556 Y0.9705
N15010 G1 X2.8351 Y1.0013
N15020 G1 X2.8124 Y1.0305
N15030 G1 X2.7877 Y1.0581
N15040 G1 X2.7616 Y1.0843
N15050 G1 X2.7342 Y1.1091
N15060 G1 X2.7056 Y1.1327
N15070 G1 X2.6762 Y1.1551
N15080 G1 X2.6459 Y1.1764
N15090 G1 X2.6149 Y1.1966
N15100 G1 X2.5832 Y1.2157
N15110 G1 X2.551 Y1.234
N15120 G1 X2.5183 Y1.2512
N15130 G1 X2.4851 Y1.2676
N15140 G1 X2.4515 Y1.2831
N15150 G1 X2.4176 Y1.2978
N15160 G1 X2.3833 Y1.3117
N15170 G1 X2.3487 Y1.3247
N15180 G1 X2.3138 Y1.337
N15190 G1 X2.2786 Y1.3486
N15200 G1 X2.2432 Y1.3594
N15210 G1 X2.2076 Y1.3696
N15220 G1 X2.1719 Y1.3791
N15230 G1 X2.1359 Y1.3879
N15240 G1 X2.0999 Y1.3961
N15250 G1 X2.0636 Y1.4037
N15260 G1 X2.0273 Y1.4107
N15270 G1 X1.9909 Y1.4172
N15280 G1 X1.9544 Y1.4232
N15290 G1 X1.9178 Y1.4287
N15300 G1 X1.8811 Y1.4337
N15310 G1 X1.8444 Y1.4383
N15320 G1 X1.7708 Y1.4462
N15330 G1 X1.6971 Y1.4527
N15340 G1 X1.6233 Y1.4579
N15350 G1 X1.5494 Y1.4619
N15360 G1 X1.4754 Y1.4648
N15370 G1 X1.4014 Y1.4668
N15380 G1 X1.3274 Y1.4676
N15390 G1 X1.2534 Y1.4674
N15400 G1 X1.1795 Y1.4658
N15410 G1 X1.1425 Y1.4646
N15420 G1 X1.0686 Y1.4609
N15430 G1 X1.0316 Y1.4584
N15440 G1 X0.9948 Y1.4555
N15450 G1 X0.9579 Y1.4521
N15460 G1 X0.9211 Y1.4482
N15470 G1 X0.8844 Y1.4438
N15480 G1 X0.8477 Y1.4389
N15490 G1 X0.8111 Y1.4334
N15500 G1 X0.7746 Y1.4273
N15510 G1 X0.7382 Y1.4206
N15520 G1 X0.7019 Y1.4133
N15530 G1 X0.6658 Y1.4053
N15540 G1 X0.6298 Y1.3966
N15550 G1 X0.594 Y1.3873
N15560 G1 X0.5584 Y1.3773
N15570 G1 X0.523 Y1.3666
N15580 G1 X0.4878 Y1.3551
N15590 G1 X0.4528 Y1.343
N15600 G1 X0.4182 Y1.3301
N15610 G1 X0.3838 Y1.3164
N15620 G1 X0.3497 Y1.302
N15630 G1 X0.316 Y1.2868
N15640 G1 X0.2826 Y1.2708
N15650 G1 X0.2496 Y1.254
N15660 G1 X0.2171 Y1.2364
N15670 G1 X0.185 Y1.2179
N15680 G1 X0.1535 Y1.1986
N15690 G1 X0.1187 Y1.1757
N15700 G1 X0.1111 Y1.1704
N15710 G1 X0.1028 Y1.1664
N15720 G1 X0.0906 Y1.1611
N15730 G1 X0.08 Y1.1532
N15740 G1 X0.0714 Y1.1431
N15750 G1 X0.0653 Y1.1313
N15760 G1 X0.062 Y1.1185
N15770 G1 X0.0617 Y1.1053
N15780 G3 X0.0648 Y1.096 R0.025
N15790 G1 X0.0668 Y1.0926 Z-0.1997
N15800 G1 X0.0687 Y1.0893 Z-0.1988
N15810 G1 X0.0705 Y1.0861 Z-0.1973
N15820 G1 X0.0721 Y1.0832 Z-0.1952
N15830 G1 X0.0736 Y1.0807 Z-0.1927
N15840 G1 X0.0749 Y1.0784 Z-0.1897
N15850 G1 X0.0759 Y1.0767 Z-0.1863
N15860 G1 X0.0766 Y1.0754 Z-0.1827
N15870 G1 X0.0771 Y1.0746 Z-0.1789
N15880 G1 X0.0772 Y1.0743 Z-0.175
N15890 G0 Z0.2
N15900 G0 X2.8676 Y0.8414
N15910 G0 Z-0.15
N15920 G1 Z-0.175 F24.
N15930 G1 X2.8679 Z-0.1789
N15940 G1 X2.8688 Y0.8413 Z-0.1827
N15950 G1 X2.8703 Y0.8412 Z-0.1863
N15960 G1 X2.8724 Y0.841 Z-0.1897
N15970 G1 X2.8749 Y0.8408 Z-0.1927
N15980 G1 X2.8779 Y0.8406 Z-0.1952
N15990 G1 X2.8812 Y0.8403 Z-0.1973
N16000 G1 X2.8848 Y0.84 Z-0.1988
N16010 G1 X2.8886 Y0.8396 Z-0.1997
N16020 G1 X2.8925 Y0.8393 Z-0.2
N16030 G3 X2.9007 Y0.8448 R0.0078
N16040 G1 X2.904 Y0.8581
N16050 G1 X2.9096 Y0.8868
N16060 G1 X2.9277 Y1.0044
N16070 G1 X2.9282 Y1.0098
N16080 G1 X2.9111 Y1.0413
N16090 G1 X2.8908 Y1.0723
N16100 G1 X2.8685 Y1.1018
N16110 G1 X2.8443 Y1.1298
N16120 G1 X2.8186 Y1.1564
N16130 G1 X2.7916 Y1.1818
N16140 G1 X2.7636 Y1.2059
N16150 G1 X2.7345 Y1.2288
N16160 G1 X2.7046 Y1.2506
N16170 G1 X2.674 Y1.2714
N16180 G1 X2.6427 Y1.2912
N16190 G1 X2.6109 Y1.31
N16200 G1 X2.5785 Y1.3279
N16210 G1 X2.5456 Y1.3449
N16220 G1 X2.5124 Y1.3611
N16230 G1 X2.4787 Y1.3765
N16240 G1 X2.4447 Y1.391
N16250 G1 X2.4104 Y1.4048
N16260 G1 X2.3757 Y1.4179
N16270 G1 X2.3408 Y1.4302
N16280 G1 X2.3057 Y1.4418
N16290 G1 X2.2703 Y1.4527
N16300 G1 X2.2348 Y1.463
N16310 G1 X2.1991 Y1.4726
N16320 G1 X2.1632 Y1.4816
N16330 G1 X2.1271 Y1.49
N16340 G1 X2.091 Y1.4978
N16350 G1 X2.0547 Y1.5051
N16360 G1 X2.0183 Y1.5118
N16370 G1 X1.9818 Y1.518
N16380 G1 X1.9453 Y1.5238
N16390 G1 X1.9086 Y1.529
N16400 G1 X1.872 Y1.5339
N16410 G1 X1.7984 Y1.5424
N16420 G1 X1.7248 Y1.5493
N16430 G1 X1.651 Y1.555
N16440 G1 X1.5771 Y1.5595
N16450 G1 X1.5032 Y1.5629
N16460 G1 X1.4292 Y1.5652
N16470 G1 X1.3552 Y1.5664
N16480 G1 X1.2812 Y1.5665
N16490 G1 X1.2072 Y1.5654
N16500 G1 X1.1332 Y1.5629
N16510 G1 X1.0963 Y1.5612
N16520 G1 X1.0593 Y1.559
N16530 G1 X1.0182 Y1.5586
N16540 G1 X0.9753 Y1.5568
N16550 G1 X0.9255 Y1.5533
N16560 G1 X0.8843 Y1.5493
N16570 G1 X0.8404 Y1.5441
N16580 G1 X0.7962 Y1.5378
N16590 G1 X0.7515 Y1.5305
N16600 G1 X0.7066 Y1.5221
N16610 G1 X0.6618 Y1.5128
N16620 G1 X0.6176 Y1.5025
N16630 G1 X0.574 Y1.4914
N16640 G1 X0.5321 Y1.4797
N16650 G1 X0.4795 Y1.4635
N16660 G1 X0.4403 Y1.4504
N16670 G1 X0.4024 Y1.4367
N16680 G1 X0.3655 Y1.4226
N16690 G1 X0.3174 Y1.4026
N16700 G1 X0.2717 Y1.382
N16710 G1 X0.2293 Y1.3615
N16720 G1 X0.1891 Y1.3405
N16730 G1 X0.1177 Y1.3003
N16740 G1 X0.1097 Y1.2957
N16750 G1 X0.1011 Y1.2923
N16760 G1 X0.0961 Y1.2912
N16770 G1 X0.0847 Y1.2875
N16780 G1 X0.0742 Y1.2814
N16790 G1 X0.0653 Y1.2734
N16800 G1 X0.0581 Y1.2637
N16810 G1 X0.0531 Y1.2527
N16820 G1 X0.0505 Y1.2409
N16830 G1 X0.0504 Y1.2289
N16840 G3 X0.0535 Y1.2196 R0.025
N16850 G1 X0.0554 Y1.2162 Z-0.1997
N16860 G1 X0.0573 Y1.2129 Z-0.1988
N16870 G1 X0.0591 Y1.2098 Z-0.1973
N16880 G1 X0.0608 Y1.2069 Z-0.1952
N16890 G1 X0.0622 Y1.2043 Z-0.1927
N16900 G1 X0.0635 Y1.2021 Z-0.1897
N16910 G1 X0.0645 Y1.2003 Z-0.1863
N16920 G1 X0.0653 Y1.199 Z-0.1827
N16930 G1 X0.0657 Y1.1982 Z-0.1789
N16940 G1 X0.0659 Y1.1979 Z-0.175
N16950 G0 Z0.2
N16960 G0 X2.8952 Y1.0055
N16970 G0 Z-0.15
N16980 G1 Z-0.175 F24.
N16990 G1 X2.8955 Y1.0054 Z-0.1789
N17000 G1 X2.8964 Y1.0052 Z-0.1827
N17010 G1 X2.8978 Y1.0048 Z-0.1863
N17020 G1 X2.8998 Y1.0043 Z-0.1897
N17030 G1 X2.9023 Y1.0036 Z-0.1927
N17040 G1 X2.9052 Y1.0029 Z-0.1952
N17050 G1 X2.9084 Y1.002 Z-0.1973
N17060 G1 X2.9119 Y1.0011 Z-0.1988
N17070 G1 X2.9156 Y1.0002 Z-0.1997
N17080 G1 X2.9194 Y0.9992 Z-0.2
N17090 G3 X2.9277 Y1.0044 R0.0067
N17100 G1 X2.9314 Y1.031
N17110 G1 X2.9414 Y1.1389
N17120 G1 X2.9416 Y1.1443
N17130 G1 X2.9204 Y1.1746
N17140 G1 X2.8971 Y1.2034
N17150 G1 X2.8721 Y1.2306
N17160 G1 X2.8457 Y1.2565
N17170 G1 X2.8181 Y1.2812
N17180 G1 X2.7894 Y1.3046
N17190 G1 X2.7599 Y1.327
N17200 G1 X2.7297 Y1.3482
N17210 G1 X2.6987 Y1.3685
N17220 G1 X2.6671 Y1.3878
N17230 G1 X2.635 Y1.4062
N17240 G1 X2.6025 Y1.4238
N17250 G1 X2.5695 Y1.4405
N17260 G1 X2.536 Y1.4564
N17270 G1 X2.5023 Y1.4715
N17280 G1 X2.4682 Y1.4859
N17290 G1 X2.4338 Y1.4996
N17300 G1 X2.3991 Y1.5125
N17310 G1 X2.3642 Y1.5247
N17320 G1 X2.3291 Y1.5363
N17330 G1 X2.2937 Y1.5472
N17340 G1 X2.2582 Y1.5575
N17350 G1 X2.2224 Y1.5672
N17360 G1 X2.1866 Y1.5763
N17370 G1 X2.1506 Y1.5848
N17380 G1 X2.1144 Y1.5927
N17390 G1 X2.0782 Y1.6002
N17400 G1 X2.0418 Y1.6071
N17410 G1 X2.0054 Y1.6135
N17420 G1 X1.9689 Y1.6194
N17430 G1 X1.9323 Y1.6249
N17440 G1 X1.8956 Y1.6299
N17450 G1 X1.8221 Y1.6388
N17460 G1 X1.7485 Y1.6462
N17470 G1 X1.6747 Y1.6523
N17480 G1 X1.6009 Y1.6572
N17490 G1 X1.527 Y1.6609
N17500 G1 X1.453 Y1.6635
N17510 G1 X1.379 Y1.6651
N17520 G1 X1.305 Y1.6655
N17530 G1 X1.231 Y1.6647
N17540 G1 X1.1571 Y1.6627
N17550 G1 X1.0831 Y1.6605
N17560 G1 X1.0461 Y1.6591
N17570 G1 X1.0031 Y1.6596
N17580 G1 X0.964 Y1.6588
N17590 G1 X0.9203 Y1.6566
N17600 G1 X0.872 Y1.6527
N17610 G1 X0.8195 Y1.647
N17620 G1 X0.7778 Y1.6413
N17630 G1 X0.7348 Y1.6345
N17640 G1 X0.6908 Y1.6266
N17650 G1 X0.6465 Y1.6176
N17660 G1 X0.6022 Y1.6076
N17670 G1 X0.5584 Y1.5966
N17680 G1 X0.5152 Y1.5848
N17690 G1 X0.4728 Y1.5722
N17700 G1 X0.4313 Y1.5589
N17710 G1 X0.3908 Y1.5449
N17720 G1 X0.3515 Y1.5303
N17730 G1 X0.3132 Y1.5152
N17740 G1 X0.264 Y1.4943
N17750 G1 X0.2172 Y1.4727
N17760 G1 X0.1567 Y1.4428
N17770 G1 X0.1154 Y1.4227
N17780 G1 X0.1066 Y1.4199
N17790 G1 X0.0974 Y1.4186
N17800 G1 X0.0882 Y1.4187
N17810 G1 X0.0764 Y1.4178
N17820 G1 X0.0652 Y1.414
N17830 G1 X0.0553 Y1.4077
N17840 G1 X0.0472 Y1.3991
N17850 G1 X0.0413 Y1.3889
N17860 G1 X0.0382 Y1.3775
N17870 G1 X0.0378 Y1.3657
N17880 G3 X0.0409 Y1.3565 R0.025
N17890 G1 X0.0428 Y1.3531 Z-0.1997
N17900 G1 X0.0447 Y1.3498 Z-0.1988
N17910 G1 X0.0465 Y1.3466 Z-0.1973
N17920 G1 X0.0482 Y1.3437 Z-0.1952
N17930 G1 X0.0497 Y1.3411 Z-0.1927
N17940 G1 X0.0509 Y1.3389 Z-0.1897
N17950 G1 X0.052 Y1.3372 Z-0.1863
N17960 G1 X0.0527 Y1.3359 Z-0.1827
N17970 G1 X0.0532 Y1.3351 Z-0.1789
N17980 G1 X0.0533 Y1.3348 Z-0.175
N17990 G0 Z0.2
N18000 G0 X2.9094 Y1.1299
N18010 G0 Z-0.15
N18020 G1 Z-0.175 F24.
N18030 G1 X2.9097 Y1.13 Z-0.1789
N18040 G1 X2.9106 Z-0.1827
N18050 G1 X2.9121 Y1.1302 Z-0.1863
N18060 G1 X2.9141 Y1.1303 Z-0.1897
N18070 G1 X2.9167 Y1.1306 Z-0.1927
N18080 G1 X2.9196 Y1.1308 Z-0.1952
N18090 G1 X2.923 Y1.1311 Z-0.1973
N18100 G1 X2.9266 Y1.1314 Z-0.1988
N18110 G1 X2.9304 Y1.1317 Z-0.1997
N18120 G1 X2.9343 Y1.1321 Z-0.2
N18130 G3 X2.9414 Y1.1389 R0.0078
N18140 G1 X2.9529 Y1.2649
N18150 G1 X2.9532 Y1.2703
N18160 G1 X2.9295 Y1.2988
N18170 G1 X2.9041 Y1.3257
N18180 G1 X2.8774 Y1.3513
N18190 G1 X2.8495 Y1.3756
N18200 G1 X2.8206 Y1.3987
N18210 G1 X2.7908 Y1.4207
N18220 G1 X2.7604 Y1.4417
N18230 G1 X2.7292 Y1.4617
N18240 G1 X2.6975 Y1.4808
N18250 G1 X2.6653 Y1.499
N18260 G1 X2.6327 Y1.5164
N18270 G1 X2.5996 Y1.533
N18280 G1 X2.5662 Y1.5488
N18290 G1 X2.5324 Y1.5639
N18300 G1 X2.4983 Y1.5782
N18310 G1 X2.4639 Y1.5919
N18320 G1 X2.4292 Y1.6049
N18330 G1 X2.3943 Y1.6172
N18340 G1 X2.3592 Y1.6288
N18350 G1 X2.3239 Y1.6399
N18360 G1 X2.2884 Y1.6503
N18370 G1 X2.2527 Y1.6601
N18380 G1 X2.2169 Y1.6694
N18390 G1 X2.1809 Y1.6781
N18400 G1 X2.1448 Y1.6863
N18410 G1 X2.1086 Y1.6939
N18420 G1 X2.0723 Y1.7011
N18430 G1 X2.0359 Y1.7077
N18440 G1 X1.9994 Y1.7139
N18450 G1 X1.9629 Y1.7196
N18460 G1 X1.9263 Y1.725
N18470 G1 X1.8529 Y1.7344
N18480 G1 X1.7793 Y1.7423
N18490 G1 X1.7056 Y1.7489
N18500 G1 X1.6318 Y1.7543
N18510 G1 X1.5579 Y1.7584
N18520 G1 X1.4839 Y1.7615
N18530 G1 X1.41 Y1.7635
N18540 G1 X1.336 Y1.7644
N18550 G1 X1.2619 Y1.7641
N18560 G1 X1.077 Y1.7607
N18570 G1 X1.04 Y1.76
N18580 G1 X0.9973 Y1.7613
N18590 G1 X0.9596 Y1.7612
N18600 G1 X0.9181 Y1.7599
N18610 G1 X0.8726 Y1.7571
N18620 G1 X0.8232 Y1.7526
N18630 G1 X0.7704 Y1.7463
N18640 G1 X0.7286 Y1.7401
N18650 G1 X0.6856 Y1.7329
N18660 G1 X0.6417 Y1.7245
N18670 G1 X0.5972 Y1.7149
N18680 G1 X0.5526 Y1.7043
N18690 G1 X0.5081 Y1.6927
N18700 G1 X0.4641 Y1.6801
N18710 G1 X0.4207 Y1.6667
N18720 G1 X0.3781 Y1.6525
N18730 G1 X0.3365 Y1.6376
N18740 G1 X0.2959 Y1.6221
N18750 G1 X0.2561 Y1.6059
N18760 G1 X0.2045 Y1.5834
N18770 G1 X0.1708 Y1.5682
N18780 G1 X0.1171 Y1.5482
N18790 G1 X0.108 Y1.5463
N18800 G1 X0.0987 Y1.546
N18810 G1 X0.0896 Y1.5471
N18820 G1 X0.0807 Y1.5496
N18830 G1 X0.0723 Y1.5535
N18840 G1 X0.0646 Y1.5587
N18850 G1 X0.0464 Y1.5755
N18860 G1 X0.0404 Y1.5778
N18870 G1 X0.034 Y1.5777
N18880 G1 X0.0281 Y1.5753
N18890 G1 X0.0235 Y1.571
N18900 G1 X0.0206 Y1.5653
N18910 G1 X0.0201 Y1.559
N18920 G3 X0.0232 Y1.5497 R0.025
N18930 G1 X0.0251 Y1.5464 Z-0.1997
N18940 G1 X0.027 Y1.543 Z-0.1988
N18950 G1 X0.0288 Y1.5399 Z-0.1973
N18960 G1 X0.0305 Y1.537 Z-0.1952
N18970 G1 X0.0319 Y1.5344 Z-0.1927
N18980 G1 X0.0332 Y1.5322 Z-0.1897
N18990 G1 X0.0342 Y1.5304 Z-0.1863
N19000 G1 X0.035 Y1.5291 Z-0.1827
N19010 G1 X0.0354 Y1.5283 Z-0.1789
N19020 G1 X0.0356 Y1.528 Z-0.175
N19030 G0 Z0.2
N19040 G0 X2.9209 Y1.256
N19050 G0 Z-0.15
N19060 G1 Z-0.175 F24.
N19070 G1 X2.9213 Z-0.1789
N19080 G1 X2.9222 Y1.2561 Z-0.1827
N19090 G1 X2.9237 Y1.2562 Z-0.1863
N19100 G1 X2.9257 Y1.2564 Z-0.1897
N19110 G1 X2.9282 Y1.2566 Z-0.1927
N19120 G1 X2.9312 Y1.2569 Z-0.1952
N19130 G1 X2.9345 Y1.2571 Z-0.1973
N19140 G1 X2.9382 Y1.2575 Z-0.1988
N19150 G1 X2.942 Y1.2578 Z-0.1997
N19160 G1 X2.9459 Y1.2581 Z-0.2
N19170 G3 X2.9529 Y1.2649 R0.0078
N19180 G1 X2.9653 Y1.3994
N19190 G1 X2.9655 Y1.4047
N19200 G1 X2.9375 Y1.4289
N19210 G1 X2.9088 Y1.4523
N19220 G1 X2.8796 Y1.475
N19230 G1 X2.8498 Y1.4969
N19240 G1 X2.8193 Y1.5179
N19250 G1 X2.7883 Y1.5382
N19260 G1 X2.7568 Y1.5576
N19270 G1 X2.7248 Y1.5762
N19280 G1 X2.6924 Y1.594
N19290 G1 X2.6596 Y1.6111
N19300 G1 X2.6264 Y1.6274
N19310 G1 X2.5928 Y1.643
N19320 G1 X2.559 Y1.6579
N19330 G1 X2.5248 Y1.6722
N19340 G1 X2.4904 Y1.6857
N19350 G1 X2.4557 Y1.6987
N19360 G1 X2.4208 Y1.7109
N19370 G1 X2.3857 Y1.7226
N19380 G1 X2.3504 Y1.7337
N19390 G1 X2.3149 Y1.7442
N19400 G1 X2.2793 Y1.7541
N19410 G1 X2.2435 Y1.7635
N19420 G1 X2.2075 Y1.7723
N19430 G1 X2.1715 Y1.7806
N19440 G1 X2.1353 Y1.7884
N19450 G1 X2.099 Y1.7958
N19460 G1 X2.0627 Y1.8026
N19470 G1 X2.0262 Y1.809
N19480 G1 X1.9897 Y1.8149
N19490 G1 X1.9531 Y1.8205
N19500 G1 X1.8798 Y1.8303
N19510 G1 X1.8062 Y1.8387
N19520 G1 X1.7326 Y1.8457
N19530 G1 X1.6588 Y1.8515
N19540 G1 X1.5849 Y1.856
N19550 G1 X1.511 Y1.8595
N19560 G1 X1.437 Y1.8618
N19570 G1 X1.363 Y1.8631
N19580 G1 X1.289 Y1.8632
N19590 G1 X1.141 Y1.8615
N19600 G1 X1.067 Y1.8614
N19610 G1 X0.993 Y1.8607
N19620 G1 X0.956 Y1.8597
N19630 G1 X0.9191 Y1.858
N19640 G1 X0.8821 Y1.8557
N19650 G1 X0.8453 Y1.8527
N19660 G1 X0.8084 Y1.849
N19670 G1 X0.7717 Y1.8447
N19680 G1 X0.735 Y1.8397
N19690 G1 X0.6985 Y1.834
N19700 G1 X0.662 Y1.8277
N19710 G1 X0.6257 Y1.8207
N19720 G1 X0.5895 Y1.8131
N19730 G1 X0.5534 Y1.8049
N19740 G1 X0.5174 Y1.7961
N19750 G1 X0.4817 Y1.7866
N19760 G1 X0.4461 Y1.7766
N19770 G1 X0.4106 Y1.7659
N19780 G1 X0.3754 Y1.7546
N19790 G1 X0.3403 Y1.7427
N19800 G1 X0.3055 Y1.7302
N19810 G1 X0.2709 Y1.7171
N19820 G1 X0.2022 Y1.6896
N19830 G1 X0.1656 Y1.6844
N19840 G1 X0.1194 Y1.6818
N19850 G1 X0.1102 Y1.6826
N19860 G1 X0.0923 Y1.6872
N19870 G1 X0.0608 Y1.7067
N19880 G1 X0.0371 Y1.7351
N19890 G1 X0.0196 Y1.7677
N19900 G1 X0.0091 Y1.7966
N19910 G1 X0.0066 Y1.7996
N19920 G1 X0.0027 Y1.8001
N19930 G1 X-0.0005 Y1.798
N19940 G1 X-0.0015 Y1.7943
N19950 G3 X0.0016 Y1.785 R0.025
N19960 G1 X0.0035 Y1.7816 Z-0.1997
N19970 G1 X0.0054 Y1.7783 Z-0.1988
N19980 G1 X0.0072 Y1.7752 Z-0.1973
N19990 G1 X0.0089 Y1.7723 Z-0.1952
N20000 G1 X0.0103 Y1.7697 Z-0.1927
N20010 G1 X0.0116 Y1.7675 Z-0.1897
N20020 G1 X0.0126 Y1.7657 Z-0.1863
N20030 G1 X0.0134 Y1.7644 Z-0.1827
N20040 G1 X0.0138 Y1.7636 Z-0.1789
N20050 G1 X0.014 Y1.7633 Z-0.175
N20060 G0 Z0.2
N20070 G0 X2.9333 Y1.3904
N20080 G0 Z-0.15
N20090 G1 Z-0.175 F24.
N20100 G1 X2.9336 Z-0.1789
N20110 G1 X2.9345 Y1.3905 Z-0.1827
N20120 G1 X2.936 Y1.3906 Z-0.1863
N20130 G1 X2.938 Y1.3908 Z-0.1897
N20140 G1 X2.9406 Y1.391 Z-0.1927
N20150 G1 X2.9436 Y1.3913 Z-0.1952
N20160 G1 X2.9469 Y1.3916 Z-0.1973
N20170 G1 X2.9505 Y1.3919 Z-0.1988
N20180 G1 X2.9543 Y1.3922 Z-0.1997
N20190 G1 X2.9582 Y1.3926 Z-0.2
N20200 G3 X2.9653 Y1.3994 R0.0078
N20210 G1 X2.9768 Y1.5254
N20220 G1 X2.9771 Y1.5308
N20230 G1 X2.916 Y1.5725
N20240 G1 X2.8851 Y1.5929
N20250 G1 X2.8539 Y1.6128
N20260 G1 X2.8223 Y1.6321
N20270 G1 X2.7904 Y1.6509
N20280 G1 X2.7581 Y1.669
N20290 G1 X2.7255 Y1.6864
N20300 G1 X2.6925 Y1.7032
N20310 G1 X2.6592 Y1.7193
N20320 G1 X2.6256 Y1.7348
N20330 G1 X2.5917 Y1.7496
N20340 G1 X2.5576 Y1.7638
N20350 G1 X2.5231 Y1.7774
N20360 G1 X2.4885 Y1.7904
N20370 G1 X2.4536 Y1.8028
N20380 G1 X2.4185 Y1.8145
N20390 G1 X2.3833 Y1.8257
N20400 G1 X2.3478 Y1.8364
N20410 G1 X2.3122 Y1.8465
N20420 G1 X2.2765 Y1.856
N20430 G1 X2.2406 Y1.8651
N20440 G1 X2.2046 Y1.8736
N20450 G1 X2.1685 Y1.8816
N20460 G1 X2.1322 Y1.8892
N20470 G1 X2.0959 Y1.8963
N20480 G1 X2.0595 Y1.9029
N20490 G1 X2.023 Y1.9091
N20500 G1 X1.9865 Y1.9149
N20510 G1 X1.9132 Y1.9253
N20520 G1 X1.8398 Y1.9342
N20530 G1 X1.7661 Y1.9418
N20540 G1 X1.6924 Y1.948
N20550 G1 X1.6186 Y1.9531
N20560 G1 X1.5447 Y1.957
N20570 G1 X1.4707 Y1.9599
N20580 G1 X1.3967 Y1.9616
N20590 G1 X1.3227 Y1.9623
N20600 G1 X1.1007 Y1.9614
N20610 G1 X1.0637 Y1.9611
N20620 G1 X0.9897 Y1.9595
N20630 G1 X0.9527 Y1.9581
N20640 G1 X0.9158 Y1.9562
N20650 G1 X0.8789 Y1.9537
N20660 G1 X0.842 Y1.9507
N20670 G1 X0.8052 Y1.947
N20680 G1 X0.7684 Y1.9427
N20690 G1 X0.7317 Y1.9379
N20700 G1 X0.6952 Y1.9324
N20710 G1 X0.6587 Y1.9262
N20720 G1 X0.6223 Y1.9195
N20730 G1 X0.586 Y1.9122
N20740 G1 X0.5499 Y1.9043
N20750 G1 X0.5138 Y1.8958
N20760 G1 X0.478 Y1.8867
N20770 G1 X0.4423 Y1.877
N20780 G1 X0.4067 Y1.8667
N20790 G1 X0.3713 Y1.8559
N20800 G1 X0.3362 Y1.8444
N20810 G1 X0.3012 Y1.8324
N20820 G1 X0.2664 Y1.8198
N20830 G1 X0.2486 Y1.8145
N20840 G1 X0.2116 Y1.8147
N20850 G1 X0.1766 Y1.8267
N20860 G1 X0.1137 Y1.8572
N20870 G1 X0.0793 Y1.8707
N20880 G1 X0.0509 Y1.8944
N20890 G1 X0.0297 Y1.9247
N20900 G1 X0.0143 Y1.9584
N20910 G1 X0.0031 Y1.9936
N20920 G1 X-0.0048 Y2.0298
N20930 G1 X-0.0104 Y2.0664
N20940 G1 X-0.0144 Y2.1031
N20950 G1 X-0.0172 Y2.14
N20960 G1 X-0.0192 Y2.177
N20970 G1 X-0.0205 Y2.214
N20980 G1 X-0.0222 Y2.288
N20990 G1 X-0.0232 Y2.399
N21000 G1 X-0.0238 Y2.769
N21010 G1 Y2.806
N21020 G1 X-0.0241 Y4.8041
N21030 G1 X-0.0242 Y5.3948
N21040 G1 X-0.0257 Y5.4024
N21050 G1 X-0.0298 Y5.4089
N21060 G1 X-0.036 Y5.4134
N21070 G1 X-0.0435 Y5.4153
N21080 G1 X-0.0511 Y5.4143
N21090 G1 X-0.0578 Y5.4106
N21100 G1 X-0.0627 Y5.4047
N21110 G3 X-0.0653 Y5.3953 R0.025
N21120 G1 X-0.0656 Y5.3914 Z-0.1997
N21130 G1 X-0.0658 Y5.3876 Z-0.1988
N21140 G1 X-0.0661 Y5.384 Z-0.1973
N21150 G1 X-0.0663 Y5.3806 Z-0.1952
N21160 G1 X-0.0665 Y5.3776 Z-0.1927
N21170 G1 X-0.0667 Y5.3751 Z-0.1897
N21180 G1 X-0.0668 Y5.3731 Z-0.1863
N21190 G1 X-0.0669 Y5.3716 Z-0.1827
N21200 G1 X-0.067 Y5.3706 Z-0.1789
N21210 G1 Y5.3703 Z-0.175
N21220 G0 Z0.2
N21230 G0 X2.9449 Y1.5164
N21240 G0 Z-0.15
N21250 G1 Z-0.175 F24.
N21260 G1 X2.9452 Y1.5165 Z-0.1789
N21270 G1 X2.9461 Y1.5166 Z-0.1827
N21280 G1 X2.9476 Y1.5167 Z-0.1863
N21290 G1 X2.9496 Y1.5169 Z-0.1897
N21300 G1 X2.9522 Y1.5171 Z-0.1927
N21310 G1 X2.9551 Y1.5173 Z-0.1952
N21320 G1 X2.9585 Y1.5176 Z-0.1973
N21330 G1 X2.9621 Y1.5179 Z-0.1988
N21340 G1 X2.9659 Y1.5183 Z-0.1997
N21350 G1 X2.9698 Y1.5186 Z-0.2
N21360 G3 X2.9768 Y1.5254 R0.0078
N21370 G1 X2.9892 Y1.6598
N21380 G1 X2.9894 Y1.6644
N21390 G1 X2.9557 Y1.6799
N21400 G1 X2.9226 Y1.6963
N21410 G1 X2.7912 Y1.7644
N21420 G1 X2.7581 Y1.7809
N21430 G1 X2.7248 Y1.797
N21440 G1 X2.6912 Y1.8127
N21450 G1 X2.6575 Y1.8278
N21460 G1 X2.6234 Y1.8424
N21470 G1 X2.5892 Y1.8564
N21480 G1 X2.5547 Y1.8699
N21490 G1 X2.5201 Y1.8828
N21500 G1 X2.4852 Y1.8952
N21510 G1 X2.4501 Y1.907
N21520 G1 X2.4149 Y1.9183
N21530 G1 X2.3795 Y1.929
N21540 G1 X2.3439 Y1.9393
N21550 G1 X2.3082 Y1.949
N21560 G1 X2.2724 Y1.9581
N21570 G1 X2.2364 Y1.9668
N21580 G1 X2.2003 Y1.9751
N21590 G1 X2.1641 Y1.9828
N21600 G1 X2.1279 Y1.9901
N21610 G1 X2.0915 Y1.997
N21620 G1 X2.0551 Y2.0034
N21630 G1 X2.0186 Y2.0094
N21640 G1 X1.9454 Y2.0203
N21650 G1 X1.872 Y2.0297
N21660 G1 X1.7984 Y2.0378
N21670 G1 X1.7247 Y2.0445
N21680 G1 X1.6509 Y2.0501
N21690 G1 X1.577 Y2.0545
N21700 G1 X1.5031 Y2.0577
N21710 G1 X1.4291 Y2.0599
N21720 G1 X1.3551 Y2.0611
N21730 G1 X1.2071 Y2.0616
N21740 G1 X1.0961 Y2.0609
N21750 G1 X1.0591 Y2.0604
N21760 G1 X0.9851 Y2.0582
N21770 G1 X0.9482 Y2.0566
N21780 G1 X0.9112 Y2.0545
N21790 G1 X0.8743 Y2.0519
N21800 G1 X0.8374 Y2.0487
N21810 G1 X0.8006 Y2.0451
N21820 G1 X0.7639 Y2.0408
N21830 G1 X0.7272 Y2.036
N21840 G1 X0.6906 Y2.0307
N21850 G1 X0.654 Y2.0247
N21860 G1 X0.6176 Y2.0182
N21870 G1 X0.5813 Y2.0111
N21880 G1 X0.5451 Y2.0034
N21890 G1 X0.509 Y1.9952
N21900 G1 X0.4731 Y1.9864
N21910 G1 X0.4373 Y1.977
N21920 G1 X0.4016 Y1.9671
N21930 G1 X0.3662 Y1.9566
N21940 G1 X0.3309 Y1.9455
N21950 G1 X0.2943 Y1.9398
N21960 G1 X0.2573 Y1.9407
N21970 G1 X0.2208 Y1.9465
N21980 G1 X0.188 Y1.9638
N21990 G1 X0.1611 Y1.9892
N22000 G1 X0.1399 Y2.0195
N22010 G1 X0.1235 Y2.0527
N22020 G1 X0.1111 Y2.0875
N22030 G1 X0.1018 Y2.1234
N22040 G1 X0.095 Y2.1597
N22050 G1 X0.0899 Y2.1964
N22060 G1 X0.0861 Y2.2332
N22070 G1 X0.0834 Y2.2701
N22080 G1 X0.0814 Y2.307
N22090 G1 X0.0789 Y2.381
N22100 G1 X0.0772 Y2.492
N22110 G1 X0.0763 Y2.714
N22120 G1 X0.0762 Y3.047
N22130 G1 X0.0758 Y5.0452
N22140 G1 Y5.3042
N22150 G1 X0.0748 Y5.3343
N22160 G1 X0.0726 Y5.3541
N22170 G1 X0.0693 Y5.3709
N22180 G1 X0.0655 Y5.3843
N22190 G1 X0.061 Y5.3965
N22200 G1 X0.0559 Y5.4075
N22210 G1 X0.0507 Y5.4168
N22220 G1 X0.0294 Y5.4485
N22230 G1 X0.0238 Y5.4572
N22240 G1 X0.0161 Y5.464
N22250 G1 X0.0068 Y5.4684
N22260 G1 X-0.0034 Y5.4702
N22270 G1 X-0.0136 Y5.4691
N22280 G1 X-0.0232 Y5.4653
N22290 G1 X-0.0314 Y5.459
N22300 G1 X-0.0375 Y5.4507
N22310 G3 X-0.0401 Y5.4413 R0.025
N22320 G1 X-0.0404 Y5.4374 Z-0.1997
N22330 G1 X-0.0407 Y5.4336 Z-0.1988
N22340 G1 X-0.041 Y5.43 Z-0.1973
N22350 G1 X-0.0412 Y5.4266 Z-0.1952
N22360 G1 X-0.0414 Y5.4237 Z-0.1927
N22370 G1 X-0.0416 Y5.4211 Z-0.1897
N22380 G1 X-0.0418 Y5.4191 Z-0.1863
N22390 G1 X-0.0419 Y5.4176 Z-0.1827
N22400 G1 Y5.4167 Z-0.1789
N22410 G1 X-0.042 Y5.4164 Z-0.175
N22420 G0 Z0.2
N22430 G0 X2.9572 Y1.6509
N22440 G0 Z-0.15
N22450 G1 Z-0.175 F24.
N22460 G1 X2.9575 Z-0.1789
N22470 G1 X2.9584 Y1.651 Z-0.1827
N22480 G1 X2.9599 Y1.6511 Z-0.1863
N22490 G1 X2.962 Y1.6513 Z-0.1897
N22500 G1 X2.9645 Y1.6515 Z-0.1927
N22510 G1 X2.9675 Y1.6518 Z-0.1952
N22520 G1 X2.9708 Y1.6521 Z-0.1973
N22530 G1 X2.9744 Y1.6524 Z-0.1988
N22540 G1 X2.9782 Y1.6527 Z-0.1997
N22550 G1 X2.9821 Y1.653 Z-0.2
N22560 G3 X2.9892 Y1.6598 R0.0078
N22570 G1 X3.0015 Y1.7943
N22580 G1 X3.0017 Y1.7989
N22590 G1 X2.9659 Y1.8083
N22600 G1 X2.9308 Y1.82
N22610 G1 X2.8963 Y1.8332
N22620 G1 X2.8621 Y1.8473
N22630 G1 X2.7264 Y1.9064
N22640 G1 X2.6581 Y1.935
N22650 G1 X2.6237 Y1.9487
N22660 G1 X2.5892 Y1.962
N22670 G1 X2.5545 Y1.9748
N22680 G1 X2.5196 Y1.9871
N22690 G1 X2.4845 Y1.9989
N22700 G1 X2.4493 Y2.0102
N22710 G1 X2.4139 Y2.0211
N22720 G1 X2.3784 Y2.0314
N22730 G1 X2.3427 Y2.0412
N22740 G1 X2.3069 Y2.0506
N22750 G1 X2.271 Y2.0595
N22760 G1 X2.2349 Y2.0679
N22770 G1 X2.1988 Y2.0758
N22780 G1 X2.1626 Y2.0834
N22790 G1 X2.1263 Y2.0905
N22800 G1 X2.0899 Y2.0972
N22810 G1 X2.0169 Y2.1093
N22820 G1 X1.9436 Y2.12
N22830 G1 X1.8702 Y2.1292
N22840 G1 X1.7966 Y2.1371
N22850 G1 X1.7229 Y2.1438
N22860 G1 X1.6491 Y2.1492
N22870 G1 X1.5752 Y2.1536
N22880 G1 X1.5013 Y2.1568
N22890 G1 X1.4273 Y2.159
N22900 G1 X1.3163 Y2.1607
N22910 G1 X1.2053 Y2.1611
N22920 G1 X1.0943 Y2.1602
N22930 G1 X1.0573 Y2.1595
N22940 G1 X0.9834 Y2.157
N22950 G1 X0.9464 Y2.1552
N22960 G1 X0.9095 Y2.153
N22970 G1 X0.8726 Y2.1504
N22980 G1 X0.8357 Y2.1472
N22990 G1 X0.7989 Y2.1436
N23000 G1 X0.7621 Y2.1394
N23010 G1 X0.7254 Y2.1347
N23020 G1 X0.6888 Y2.1295
N23030 G1 X0.6522 Y2.1237
N23040 G1 X0.6158 Y2.1174
N23050 G1 X0.5794 Y2.1105
N23060 G1 X0.5432 Y2.1031
N23070 G1 X0.507 Y2.0952
N23080 G1 X0.471 Y2.0867
N23090 G1 X0.4351 Y2.0776
N23100 G1 X0.3994 Y2.0681
N23110 G1 X0.3633 Y2.0599
N23120 G1 X0.3448 Y2.0611
N23130 G1 X0.3091 Y2.0708
N23140 G1 X0.2785 Y2.0917
N23150 G1 X0.2539 Y2.1193
N23160 G1 X0.2346 Y2.1509
N23170 G1 X0.2198 Y2.1848
N23180 G1 X0.2086 Y2.22
N23190 G1 X0.2002 Y2.2561
N23200 G1 X0.1939 Y2.2925
N23210 G1 X0.1892 Y2.3292
N23220 G1 X0.1858 Y2.3661
N23230 G1 X0.1832 Y2.403
N23240 G1 X0.1813 Y2.44
N23250 G1 X0.1789 Y2.5139
N23260 G1 X0.1773 Y2.6249
N23270 G1 X0.1763 Y2.8469
N23280 G1 X0.1761 Y3.254
N23290 G1 X0.1758 Y5.2151
N23300 G1 X0.1755 Y5.2521
N23310 G1 X0.1741 Y5.2891
N23320 G1 X0.1705 Y5.3258
N23330 G1 X0.1652 Y5.3556
N23340 G1 X0.1583 Y5.382
N23350 G1 X0.1467 Y5.4151
N23360 G1 X0.1372 Y5.4365
N23370 G1 X0.1275 Y5.4543
N23380 G1 X0.1188 Y5.4676
N23390 G1 X0.1093 Y5.48
N23400 G1 X0.1004 Y5.4897
N23410 G1 X0.0908 Y5.4987
N23420 G1 X0.0692 Y5.5158
N23430 G1 X0.0594 Y5.522
N23440 G1 X0.0485 Y5.5259
N23450 G1 X0.0371 Y5.5274
N23460 G1 X0.0255 Y5.5263
N23470 G1 X0.0145 Y5.5228
N23480 G1 X0.0045 Y5.517
N23490 G1 X-0.0041 Y5.5092
N23500 G1 X-0.0107 Y5.4997
N23510 G3 X-0.0133 Y5.4903 R0.025
N23520 G1 X-0.0136 Y5.4864 Z-0.1997
N23530 G1 X-0.0139 Y5.4826 Z-0.1988
N23540 G1 X-0.0141 Y5.479 Z-0.1973
N23550 G1 X-0.0144 Y5.4756 Z-0.1952
N23560 G1 X-0.0146 Y5.4727 Z-0.1927
N23570 G1 X-0.0148 Y5.4701 Z-0.1897
N23580 G1 X-0.0149 Y5.4681 Z-0.1863
N23590 G1 X-0.015 Y5.4666 Z-0.1827
N23600 G1 X-0.0151 Y5.4657 Z-0.1789
N23610 G1 Y5.4654 Z-0.175
N23620 G0 Z0.2
N23630 G0 X2.9695 Y1.7853
N23640 G0 Z-0.15
N23650 G1 Z-0.175 F24.
N23660 G1 X2.9699 Z-0.1789
N23670 G1 X2.9708 Y1.7854 Z-0.1827
N23680 G1 X2.9723 Y1.7856 Z-0.1863
N23690 G1 X2.9743 Y1.7857 Z-0.1897
N23700 G1 X2.9768 Y1.7859 Z-0.1927
N23710 G1 X2.9798 Y1.7862 Z-0.1952
N23720 G1 X2.9831 Y1.7865 Z-0.1973
N23730 G1 X2.9868 Y1.7868 Z-0.1988
N23740 G1 X2.9906 Y1.7871 Z-0.1997
N23750 G1 X2.9945 Y1.7875 Z-0.2
N23760 G3 X3.0015 Y1.7943 R0.0078
N23770 G1 X3.017 Y1.9623
N23780 G1 Y1.9635
N23790 G1 X2.9804 Y1.9583
N23800 G1 X2.9434 Y1.9589
N23810 G1 X2.9067 Y1.9637
N23820 G1 X2.8705 Y1.9716
N23830 G1 X2.8349 Y1.9814
N23840 G1 X2.7996 Y1.9926
N23850 G1 X2.7646 Y2.0047
N23860 G1 X2.6254 Y2.0551
N23870 G1 X2.5555 Y2.0793
N23880 G1 X2.5204 Y2.091
N23890 G1 X2.4851 Y2.1022
N23900 G1 X2.4498 Y2.113
N23910 G1 X2.4142 Y2.1234
N23920 G1 X2.3786 Y2.1333
N23930 G1 X2.3428 Y2.1428
N23940 G1 X2.3069 Y2.1518
N23950 G1 X2.2709 Y2.1604
N23960 G1 X2.2349 Y2.1686
N23970 G1 X2.1987 Y2.1763
N23980 G1 X2.1624 Y2.1837
N23990 G1 X2.1261 Y2.1906
N24000 G1 X2.0531 Y2.2032
N24010 G1 X1.98 Y2.2144
N24020 G1 X1.9066 Y2.2242
N24030 G1 X1.8331 Y2.2326
N24040 G1 X1.7594 Y2.2398
N24050 G1 X1.6857 Y2.2458
N24060 G1 X1.6118 Y2.2506
N24070 G1 X1.5379 Y2.2543
N24080 G1 X1.464 Y2.2571
N24090 G1 X1.353 Y2.2595
N24100 G1 X1.242 Y2.2605
N24110 G1 X1.131 Y2.26
N24120 G1 X1.057 Y2.2586
N24130 G1 X0.983 Y2.2559
N24140 G1 X0.9091 Y2.2518
N24150 G1 X0.8722 Y2.2491
N24160 G1 X0.8354 Y2.246
N24170 G1 X0.7985 Y2.2423
N24180 G1 X0.7618 Y2.2382
N24190 G1 X0.7251 Y2.2337
N24200 G1 X0.6884 Y2.2286
N24210 G1 X0.6518 Y2.223
N24220 G1 X0.6153 Y2.2168
N24230 G1 X0.5789 Y2.2102
N24240 G1 X0.5426 Y2.2031
N24250 G1 X0.5064 Y2.1954
N24260 G1 X0.4703 Y2.1872
N24270 G1 X0.4519 Y2.1864
N24280 G1 X0.4336 Y2.1897
N24290 G1 X0.3991 Y2.203
N24300 G1 X0.3703 Y2.2262
N24310 G1 X0.3474 Y2.2553
N24320 G1 X0.3296 Y2.2877
N24330 G1 X0.3161 Y2.3221
N24340 G1 X0.3058 Y2.3577
N24350 G1 X0.2981 Y2.3939
N24360 G1 X0.2924 Y2.4304
N24370 G1 X0.2882 Y2.4672
N24380 G1 X0.285 Y2.5041
N24390 G1 X0.2827 Y2.541
N24400 G1 X0.281 Y2.578
N24410 G1 X0.2788 Y2.6519
N24420 G1 X0.2772 Y2.7629
N24430 G1 X0.2763 Y2.985
N24440 G1 X0.2761 Y3.503
N24450 G1 X0.2757 Y5.1681
N24460 G1 X0.2752 Y5.2051
N24470 G1 X0.2739 Y5.2421
N24480 G1 X0.2713 Y5.279
N24490 G1 X0.267 Y5.3158
N24500 G1 X0.2605 Y5.3522
N24510 G1 X0.2518 Y5.3881
N24520 G1 X0.2411 Y5.4215
N24530 G1 X0.2295 Y5.4497
N24540 G1 X0.2168 Y5.4746
N24550 G1 X0.2031 Y5.497
N24560 G1 X0.1871 Y5.5187
N24570 G1 X0.1728 Y5.5353
N24580 G1 X0.1594 Y5.5486
N24590 G1 X0.147 Y5.5589
N24600 G1 X0.1341 Y5.5681
N24610 G1 X0.1223 Y5.5752
N24620 G1 X0.1097 Y5.5813
N24630 G1 X0.0985 Y5.5858
N24640 G1 X0.0859 Y5.5892
N24650 G1 X0.0729 Y5.5897
N24660 G1 X0.06 Y5.5873
N24670 G1 X0.0481 Y5.5821
N24680 G1 X0.0375 Y5.5744
N24690 G1 X0.029 Y5.5646
N24700 G3 X0.0254 Y5.5555 R0.025
N24710 G1 X0.0248 Y5.5516 Z-0.1997
N24720 G1 X0.0241 Y5.5479 Z-0.1988
N24730 G1 X0.0235 Y5.5443 Z-0.1973
N24740 G1 X0.0229 Y5.541 Z-0.1952
N24750 G1 X0.0224 Y5.5381 Z-0.1927
N24760 G1 X0.0219 Y5.5355 Z-0.1897
N24770 G1 X0.0216 Y5.5335 Z-0.1863
N24780 G1 X0.0213 Y5.532 Z-0.1827
N24790 G1 X0.0212 Y5.5311 Z-0.1789
N24800 G1 X0.0211 Y5.5308 Z-0.175
N24810 G0 Z0.2
N24820 G0 X2.985 Y1.9534
N24830 G0 Z-0.15
N24840 G1 Z-0.175 F24.
N24850 G1 X2.9853 Z-0.1789
N24860 G1 X2.9862 Y1.9535 Z-0.1827
N24870 G1 X2.9877 Y1.9536 Z-0.1863
N24880 G1 X2.9897 Y1.9538 Z-0.1897
N24890 G1 X2.9923 Y1.954 Z-0.1927
N24900 G1 X2.9952 Y1.9543 Z-0.1952
N24910 G1 X2.9986 Y1.9545 Z-0.1973
N24920 G1 X3.0022 Y1.9548 Z-0.1988
N24930 G1 X3.006 Y1.9552 Z-0.1997
N24940 G1 X3.0099 Y1.9555 Z-0.2
N24950 G3 X3.017 Y1.9623 R0.0078
N24960 G1 X3.1231 Y3.1181
N24970 G1 X3.1233 Y3.121 Z-0.1997
N24980 G1 X3.1236 Y3.1237 Z-0.1988
N24990 G1 X3.1238 Y3.1263 Z-0.1974
N25000 G1 X3.124 Y3.1285 Z-0.1955
N25010 G1 X3.1242 Y3.1302 Z-0.1931
N25020 G1 Y3.1307 Z-0.1923
N25030 G1 X3.1241 Y3.1316 Z-0.1902
N25040 G1 X3.124 Y3.1321 Z-0.188
N25050 G1 Y3.1323 Z-0.1857
N25060 G0 Z0.2
N25070 G0 X3.1586 Y5.1102
N25080 G0 Z-0.15
N25090 G1 Z-0.175 F24.
N25100 G1 Y5.1105 Z-0.1789
N25110 G1 X3.1585 Y5.1114 Z-0.1827
N25120 G1 X3.1583 Y5.1129 Z-0.1863
N25130 G1 X3.158 Y5.1149 Z-0.1897
N25140 G1 X3.1577 Y5.1175 Z-0.1927
N25150 G1 X3.1573 Y5.1204 Z-0.1952
N25160 G1 X3.1569 Y5.1237 Z-0.1973
N25170 G1 X3.1564 Y5.1273 Z-0.1988
N25180 G1 X3.156 Y5.1311 Z-0.1997
N25190 G1 X3.1555 Y5.135 Z-0.2
N25200 G3 X3.1235 Y5.2687 R0.6382
N25210 G1 X3.0983 Y5.3316
N25220 G1 X3.0911 Y5.3485
N25230 G1 X3.0827 Y5.3653
N25240 G1 X3.0821 Y5.3663
N25250 G1 X3.078 Y5.3628
N25260 G1 X3.0748 Y5.3584
N25270 G1 X3.0717 Y5.3534
N25280 G1 X3.0676 Y5.3452
N25290 G1 X3.059 Y5.324
N25300 G1 X3.0501 Y5.2954
N25310 G1 X3.0419 Y5.2594
N25320 G1 X3.0362 Y5.2228
N25330 G1 X3.0323 Y5.186
N25340 G1 X3.0297 Y5.1491
N25350 G1 X3.0278 Y5.1121
N25360 G1 X3.0256 Y5.0382
N25370 G1 X3.0243 Y4.9272
N25380 G1 X3.0236 Y4.6681
N25390 G1 X3.0238 Y3.3731
N25400 G1 Y3.225
N25410 G1 X3.023 Y3.188
N25420 G1 X3.0214 Y3.1511
N25430 G1 X3.0168 Y3.0772
N25440 G1 X3.008 Y2.9666
N25450 G1 X2.985 Y2.7086
N25460 G1 X2.9394 Y2.2111
N25470 G1 X2.9377 Y2.202
N25480 G1 X2.9347 Y2.1933
N25490 G1 X2.9303 Y2.1852
N25500 G1 X2.9246 Y2.1778
N25510 G1 X2.9112 Y2.1651
N25520 G1 X2.8788 Y2.1472
N25530 G1 X2.8429 Y2.1381
N25540 G1 X2.806 Y2.1354
N25550 G1 X2.7691 Y2.1373
N25560 G1 X2.7324 Y2.1423
N25570 G1 X2.6961 Y2.1494
N25580 G1 X2.6601 Y2.1579
N25590 G1 X2.6243 Y2.1674
N25600 G1 X2.4463 Y2.2177
N25610 G1 X2.3747 Y2.2367
N25620 G1 X2.3029 Y2.2542
N25630 G1 X2.2306 Y2.2703
N25640 G1 X2.158 Y2.2848
N25650 G1 X2.0852 Y2.2978
N25660 G1 X2.0121 Y2.3094
N25670 G1 X1.9388 Y2.3195
N25680 G1 X1.8653 Y2.3284
N25690 G1 X1.7917 Y2.336
N25700 G1 X1.718 Y2.3424
N25710 G1 X1.6442 Y2.3477
N25720 G1 X1.5703 Y2.3519
N25730 G1 X1.4963 Y2.3551
N25740 G1 X1.4224 Y2.3573
N25750 G1 X1.3114 Y2.3594
N25760 G1 X1.2004 Y2.3598
N25770 G1 X1.1264 Y2.3592
N25780 G1 X1.0524 Y2.3575
N25790 G1 X0.9784 Y2.3546
N25800 G1 X0.9046 Y2.3503
N25810 G1 X0.8677 Y2.3475
N25820 G1 X0.8308 Y2.3444
N25830 G1 X0.794 Y2.3407
N25840 G1 X0.7572 Y2.3367
N25850 G1 X0.7205 Y2.3321
N25860 G1 X0.6838 Y2.3271
N25870 G1 X0.6472 Y2.3216
N25880 G1 X0.6107 Y2.3156
N25890 G1 X0.5743 Y2.3091
N25900 G1 X0.5558 Y2.3081
N25910 G1 X0.5375 Y2.311
N25920 G1 X0.5027 Y2.3235
N25930 G1 X0.4734 Y2.346
N25940 G1 X0.4499 Y2.3747
N25950 G1 X0.4317 Y2.4069
N25960 G1 X0.4177 Y2.4411
N25970 G1 X0.4072 Y2.4766
N25980 G1 X0.3992 Y2.5127
N25990 G1 X0.3932 Y2.5493
N26000 G1 X0.3888 Y2.586
N26010 G1 X0.3855 Y2.6229
N26020 G1 X0.3831 Y2.6598
N26030 G1 X0.3813 Y2.6967
N26040 G1 X0.3789 Y2.7707
N26050 G1 X0.3773 Y2.8817
N26060 G1 X0.3763 Y3.1037
N26070 G1 X0.3759 Y4.6208
N26080 G1 X0.3757 Y5.1019
N26090 G1 X0.3754 Y5.1389
N26100 G1 X0.3746 Y5.1759
N26110 G1 X0.3732 Y5.2128
N26120 G1 X0.3708 Y5.2498
N26130 G1 X0.3672 Y5.2866
N26140 G1 X0.362 Y5.3232
N26150 G1 X0.3551 Y5.3596
N26160 G1 X0.3463 Y5.3955
N26170 G1 X0.3354 Y5.4309
N26180 G1 X0.3221 Y5.4654
N26190 G1 X0.3062 Y5.4988
N26200 G1 X0.2893 Y5.5284
N26210 G1 X0.272 Y5.5536
N26220 G1 X0.2539 Y5.576
N26230 G1 X0.2355 Y5.5952
N26240 G1 X0.2172 Y5.6115
N26250 G1 X0.1995 Y5.6249
N26260 G1 X0.1842 Y5.6347
N26270 G1 X0.1685 Y5.643
N26280 G1 X0.1547 Y5.649
N26290 G1 X0.1376 Y5.6546
N26300 G1 X0.126 Y5.6563
N26310 G1 X0.1143 Y5.6556
N26320 G1 X0.103 Y5.6526
N26330 G1 X0.0925 Y5.6474
N26340 G1 X0.0832 Y5.6403
N26350 G1 X0.0755 Y5.6314
N26360 G3 X0.0719 Y5.6223 R0.025
N26370 G1 X0.0712 Y5.6184 Z-0.1997
N26380 G1 X0.0706 Y5.6147 Z-0.1988
N26390 G1 X0.0699 Y5.6111 Z-0.1973
N26400 G1 X0.0693 Y5.6078 Z-0.1952
N26410 G1 X0.0688 Y5.6049 Z-0.1927
N26420 G1 X0.0683 Y5.6024 Z-0.1897
N26430 G1 X0.0679 Y5.6004 Z-0.1863
N26440 G1 X0.0677 Y5.5989 Z-0.1827
N26450 G1 X0.0675 Y5.598 Z-0.1789
N26460 G1 X0.0674 Y5.5977 Z-0.175
N26470 G0 Z0.2
N26480 G0 X3.0803 Y5.3557
N26490 G0 Z-0.0963
N26500 G1 Z-0.1213 F24.
N26510 G1 Z-0.2
N26520 G3 X3.0827 Y5.3653 R0.0078
N26530 G1 X3.0695 Y5.3905
N26540 G1 X3.0683 Y5.3925
N26550 G1 X3.0619 Y5.3901
N26560 G1 X3.0552 Y5.3871
N26570 G1 X3.0475 Y5.3828
N26580 G1 X3.0394 Y5.3774
N26590 G1 X3.031 Y5.3708
N26600 G1 X3.0216 Y5.3621
N26610 G1 X3.0121 Y5.3518
N26620 G1 X3.0022 Y5.339
N26630 G1 X2.9919 Y5.3233
N26640 G1 X2.9813 Y5.304
N26650 G1 X2.9706 Y5.2801
N26660 G1 X2.9596 Y5.2492
N26670 G1 X2.9501 Y5.2134
N26680 G1 X2.943 Y5.1771
N26690 G1 X2.9378 Y5.1405
N26700 G1 X2.934 Y5.1037
N26710 G1 X2.9312 Y5.0668
N26720 G1 X2.9291 Y5.0298
N26730 G1 X2.9276 Y4.9928
N26740 G1 X2.9257 Y4.9189
N26750 G1 X2.9244 Y4.8079
N26760 G1 X2.9237 Y4.5489
N26770 G1 X2.9238 Y3.4388
N26780 G1 X2.9237 Y3.2908
N26790 G1 X2.9232 Y3.2538
N26800 G1 X2.9223 Y3.2168
N26810 G1 X2.9209 Y3.1798
N26820 G1 X2.917 Y3.1059
N26830 G1 X2.912 Y3.0321
N26840 G1 X2.9032 Y2.9214
N26850 G1 X2.8837 Y2.7002
N26860 G1 X2.8534 Y2.3686
N26870 G1 X2.8473 Y2.3511
N26880 G1 X2.8367 Y2.336
N26890 G1 X2.8098 Y2.3106
N26900 G1 X2.7765 Y2.2944
N26910 G1 X2.7405 Y2.2856
N26920 G1 X2.7037 Y2.2823
N26930 G1 X2.6667 Y2.2829
N26940 G1 X2.6298 Y2.2864
N26950 G1 X2.5932 Y2.2918
N26960 G1 X2.5569 Y2.2986
N26970 G1 X2.5206 Y2.3062
N26980 G1 X2.4125 Y2.3312
N26990 G1 X2.3404 Y2.3478
N27000 G1 X2.2681 Y2.3636
N27010 G1 X2.1955 Y2.3782
N27020 G1 X2.1227 Y2.3915
N27030 G1 X2.0497 Y2.4035
N27040 G1 X1.9765 Y2.4141
N27050 G1 X1.903 Y2.4235
N27060 G1 X1.8295 Y2.4316
N27070 G1 X1.7558 Y2.4385
N27080 G1 X1.682 Y2.4443
N27090 G1 X1.6082 Y2.449
N27100 G1 X1.5343 Y2.4527
N27110 G1 X1.4603 Y2.4554
N27120 G1 X1.3493 Y2.4581
N27130 G1 X1.2383 Y2.4591
N27140 G1 X1.1643 Y2.4588
N27150 G1 X1.0903 Y2.4576
N27160 G1 X1.0164 Y2.4552
N27170 G1 X0.9424 Y2.4516
N27180 G1 X0.8686 Y2.4465
N27190 G1 X0.8317 Y2.4434
N27200 G1 X0.7949 Y2.4398
N27210 G1 X0.7581 Y2.4358
N27220 G1 X0.7214 Y2.4314
N27230 G1 X0.6847 Y2.4265
N27240 G1 X0.6663 Y2.4244
N27250 G1 X0.6479 Y2.4258
N27260 G1 X0.6122 Y2.4354
N27270 G1 X0.5815 Y2.4561
N27280 G1 X0.5566 Y2.4835
N27290 G1 X0.537 Y2.5149
N27300 G1 X0.5219 Y2.5487
N27310 G1 X0.5104 Y2.5838
N27320 G1 X0.5017 Y2.6198
N27330 G1 X0.4952 Y2.6562
N27340 G1 X0.4903 Y2.6929
N27350 G1 X0.4866 Y2.7297
N27360 G1 X0.4839 Y2.7666
N27370 G1 X0.4819 Y2.8036
N27380 G1 X0.4793 Y2.8775
N27390 G1 X0.4774 Y2.9885
N27400 G1 X0.4771 Y3.0255
N27410 G1 X0.4763 Y3.2475
N27420 G1 X0.4758 Y5.0237
N27430 G1 X0.4753 Y5.0977
N27440 G1 X0.4746 Y5.1347
N27450 G1 X0.4733 Y5.1717
N27460 G1 X0.4714 Y5.2086
N27470 G1 X0.4686 Y5.2455
N27480 G1 X0.4646 Y5.2823
N27490 G1 X0.4594 Y5.3189
N27500 G1 X0.4528 Y5.3553
N27510 G1 X0.4447 Y5.3914
N27520 G1 X0.4349 Y5.4271
N27530 G1 X0.4231 Y5.4622
N27540 G1 X0.4094 Y5.4966
N27550 G1 X0.3935 Y5.53
N27560 G1 X0.3755 Y5.5623
N27570 G1 X0.3551 Y5.5932
N27580 G1 X0.3333 Y5.6214
N27590 G1 X0.3114 Y5.6453
N27600 G1 X0.2892 Y5.6661
N27610 G1 X0.2669 Y5.6838
N27620 G1 X0.247 Y5.6971
N27630 G1 X0.2284 Y5.7075
N27640 G1 X0.2123 Y5.7149
N27650 G1 X0.1968 Y5.7206
N27660 G1 X0.1889 Y5.7227
N27670 G1 X0.1779 Y5.7246
N27680 G1 X0.1667 Y5.7244
N27690 G1 X0.1558 Y5.7221
N27700 G1 X0.1455 Y5.7177
N27710 G1 X0.1362 Y5.7114
N27720 G1 X0.1283 Y5.7035
N27730 G1 X0.1128 Y5.6845
N27740 G1 X0.1053 Y5.6739
N27750 G3 X0.1017 Y5.6648 R0.025
N27760 G1 X0.101 Y5.661 Z-0.1997
N27770 G1 X0.1002 Y5.6572 Z-0.1988
N27780 G1 X0.0996 Y5.6537 Z-0.1973
N27790 G1 X0.099 Y5.6504 Z-0.1952
N27800 G1 X0.0984 Y5.6475 Z-0.1927
N27810 G1 X0.0979 Y5.645 Z-0.1897
N27820 G1 X0.0976 Y5.6429 Z-0.1863
N27830 G1 X0.0973 Y5.6415 Z-0.1827
N27840 G1 X0.0971 Y5.6406 Z-0.1789
N27850 G1 Y5.6403 Z-0.175
N27860 G0 Z0.2
N27870 G0 X3.0475 Y5.3655
N27880 G0 Z-0.15
N27890 G1 Z-0.175 F24.
N27900 G1 X3.0478 Y5.3657 Z-0.1789
N27910 G1 X3.0485 Y5.3663 Z-0.1827
N27920 G1 X3.0497 Y5.3672 Z-0.1863
N27930 G1 X3.0513 Y5.3685 Z-0.1897
N27940 G1 X3.0533 Y5.37 Z-0.1927
N27950 G1 X3.0556 Y5.3719 Z-0.1952
N27960 G1 X3.0583 Y5.3739 Z-0.1973
N27970 G1 X3.0611 Y5.3762 Z-0.1988
N27980 G1 X3.0641 Y5.3785 Z-0.1997
N27990 G1 X3.0672 Y5.3809 Z-0.2
N28000 G3 X3.0695 Y5.3905 R0.0078
N28010 G1 X3.0517 Y5.4241
N28020 G1 X3.051 Y5.4253
N28030 G1 X3.0426 Y5.4249
N28040 G1 X3.034 Y5.4238
N28050 G1 X3.0243 Y5.4218
N28060 G1 X3.0145 Y5.4188
N28070 G1 X3.0036 Y5.4146
N28080 G1 X2.9926 Y5.4093
N28090 G1 X2.9807 Y5.4023
N28100 G1 X2.9684 Y5.3937
N28110 G1 X2.9558 Y5.3833
N28120 G1 X2.9426 Y5.3704
N28130 G1 X2.9293 Y5.3553
N28140 G1 X2.9154 Y5.3365
N28150 G1 X2.9021 Y5.3153
N28160 G1 X2.8884 Y5.2888
N28170 G1 X2.8749 Y5.2565
N28180 G1 X2.8633 Y5.2213
N28190 G1 X2.8543 Y5.1855
N28200 G1 X2.8471 Y5.1491
N28210 G1 X2.8416 Y5.1126
N28220 G1 X2.8373 Y5.0758
N28230 G1 X2.834 Y5.0389
N28240 G1 X2.8315 Y5.002
N28250 G1 X2.8295 Y4.9651
N28260 G1 X2.827 Y4.8911
N28270 G1 X2.825 Y4.7801
N28280 G1 X2.8239 Y4.5951
N28290 G1 X2.8238 Y3.596
N28300 G1 Y3.522
N28310 G1 X2.8235 Y3.337
N28320 G1 X2.8224 Y3.263
N28330 G1 X2.8199 Y3.1891
N28340 G1 X2.8162 Y3.1152
N28350 G1 X2.8115 Y3.0413
N28360 G1 X2.8031 Y2.9306
N28370 G1 X2.7873 Y2.7463
N28380 G1 X2.7673 Y2.5252
N28390 G1 X2.7639 Y2.507
N28400 G1 X2.7559 Y2.4903
N28410 G1 X2.7331 Y2.4611
N28420 G1 X2.7022 Y2.4408
N28430 G1 X2.6675 Y2.4279
N28440 G1 X2.6312 Y2.421
N28450 G1 X2.5943 Y2.4184
N28460 G1 X2.5573 Y2.419
N28470 G1 X2.5204 Y2.422
N28480 G1 X2.4837 Y2.4266
N28490 G1 X2.4471 Y2.4323
N28500 G1 X2.4107 Y2.4387
N28510 G1 X2.2289 Y2.4733
N28520 G1 X2.1561 Y2.4864
N28530 G1 X2.0831 Y2.4984
N28540 G1 X2.0099 Y2.5093
N28550 G1 X1.9365 Y2.5189
N28560 G1 X1.863 Y2.5274
N28570 G1 X1.8262 Y2.5312
N28580 G1 X1.7525 Y2.538
N28590 G1 X1.6787 Y2.5437
N28600 G1 X1.6048 Y2.5483
N28610 G1 X1.5309 Y2.552
N28620 G1 X1.457 Y2.5547
N28630 G1 X1.346 Y2.5574
N28640 G1 X1.235 Y2.5584
N28650 G1 X1.161 Y2.558
N28660 G1 X1.087 Y2.5566
N28670 G1 X1.013 Y2.5541
N28680 G1 X0.9391 Y2.5503
N28690 G1 X0.8653 Y2.5452
N28700 G1 X0.7916 Y2.5385
N28710 G1 X0.7548 Y2.5345
N28720 G1 X0.7188 Y2.5432
N28730 G1 X0.6874 Y2.5627
N28740 G1 X0.6616 Y2.5893
N28750 G1 X0.6412 Y2.6201
N28760 G1 X0.6253 Y2.6535
N28770 G1 X0.6131 Y2.6885
N28780 G1 X0.6038 Y2.7243
N28790 G1 X0.5968 Y2.7606
N28800 G1 X0.5915 Y2.7972
N28810 G1 X0.5876 Y2.834
N28820 G1 X0.5847 Y2.8709
N28830 G1 X0.5825 Y2.9079
N28840 G1 X0.5808 Y2.9448
N28850 G1 X0.5787 Y3.0188
N28860 G1 X0.5772 Y3.1298
N28870 G1 X0.5763 Y3.3518
N28880 G1 X0.5762 Y3.3888
N28890 G1 X0.576 Y4.3082
N28900 G1 X0.5756 Y4.3144
N28910 G1 X0.5746 Y4.3205
N28920 G1 X0.573 Y4.3265
N28930 G1 X0.5634 Y4.357
N28940 G1 X0.5611 Y4.3654
N28950 G1 X0.5447 Y4.441
N28960 G1 X0.539 Y4.4746
N28970 G1 X0.5333 Y4.525
N28980 G1 X0.531 Y4.5502
N28990 G1 X0.5299 Y4.5838
N29000 G1 X0.53 Y4.6595
N29010 G1 X0.5339 Y4.7015
N29020 G1 X0.5381 Y4.7435
N29030 G1 X0.5444 Y4.7687
N29040 G1 X0.545 Y4.7701
N29050 G1 X0.5468 Y4.7752
N29060 G1 X0.5558 Y4.8111
N29070 G1 X0.562 Y4.8476
N29080 G1 X0.5662 Y4.8843
N29090 G1 X0.5691 Y4.9212
N29100 G1 X0.5711 Y4.9582
N29110 G1 X0.5724 Y4.9951
N29120 G1 X0.5732 Y5.0321
N29130 G1 X0.5734 Y5.0691
N29140 G1 X0.5731 Y5.1061
N29150 G1 X0.5723 Y5.1431
N29160 G1 X0.5707 Y5.1801
N29170 G1 X0.5683 Y5.217
N29180 G1 X0.5651 Y5.2539
N29190 G1 X0.5608 Y5.2906
N29200 G1 X0.5553 Y5.3272
N29210 G1 X0.5486 Y5.3636
N29220 G1 X0.5405 Y5.3997
N29230 G1 X0.5309 Y5.4355
N29240 G1 X0.5197 Y5.4707
N29250 G1 X0.5069 Y5.5054
N29260 G1 X0.4924 Y5.5395
N29270 G1 X0.476 Y5.5727
N29280 G1 X0.4577 Y5.6048
N29290 G1 X0.4374 Y5.6358
N29300 G1 X0.4152 Y5.6654
N29310 G1 X0.391 Y5.6933
N29320 G1 X0.3647 Y5.7194
N29330 G1 X0.3396 Y5.7408
N29340 G1 X0.3151 Y5.7584
N29350 G1 X0.2932 Y5.7716
N29360 G1 X0.2748 Y5.7807
N29370 G1 X0.2572 Y5.7878
N29380 G1 X0.2495 Y5.7902
N29390 G1 X0.2385 Y5.7924
N29400 G1 X0.2273 Y5.7926
N29410 G1 X0.2163 Y5.7906
N29420 G1 X0.2058 Y5.7865
N29430 G1 X0.1964 Y5.7805
N29440 G1 X0.1882 Y5.7728
N29450 G1 X0.1335 Y5.7098
N29460 G1 X0.1283 Y5.7035
N29470 G3 X0.1251 Y5.6788 R0.025
N29480 G1 X0.4991 Y4.7709
N29490 G3 X0.545 Y4.7701 R0.025
N29500 G1 X0.5479 Y4.7771
N29510 G1 X0.552 Y4.7855
N29520 G1 X0.559 Y4.7967
N29530 G1 X0.5689 Y4.8107
N29540 G1 X0.5764 Y4.8191
N29550 G1 X0.5853 Y4.8275
N29560 G1 X0.5905 Y4.8321
N29570 G1 X0.5976 Y4.8396
N29580 G1 X0.6052 Y4.849
N29590 G1 X0.6134 Y4.861
N29600 G1 X0.622 Y4.8758
N29610 G1 X0.631 Y4.8949
N29620 G1 X0.6403 Y4.9196
N29630 G1 X0.6496 Y4.952
N29640 G1 X0.6569 Y4.9882
N29650 G1 X0.6619 Y5.0249
N29660 G1 X0.6651 Y5.0618
N29670 G1 X0.6668 Y5.0987
N29680 G1 X0.6672 Y5.1357
N29690 G1 X0.6666 Y5.1727
N29700 G1 X0.6649 Y5.2097
N29710 G1 X0.6621 Y5.2466
N29720 G1 X0.6583 Y5.2834
N29730 G1 X0.6534 Y5.3201
N29740 G1 X0.6472 Y5.3566
N29750 G1 X0.6399 Y5.3928
N29760 G1 X0.6312 Y5.4288
N29770 G1 X0.6213 Y5.4644
N29780 G1 X0.6099 Y5.4996
N29790 G1 X0.5969 Y5.5343
N29800 G1 X0.5824 Y5.5684
N29810 G1 X0.5663 Y5.6017
N29820 G1 X0.5486 Y5.6342
N29830 G1 X0.5293 Y5.6657
N29840 G1 X0.5083 Y5.6962
N29850 G1 X0.4855 Y5.7254
N29860 G1 X0.461 Y5.7531
N29870 G1 X0.4348 Y5.7792
N29880 G1 X0.4068 Y5.8034
N29890 G1 X0.3799 Y5.8232
N29900 G1 X0.3563 Y5.8377
N29910 G1 X0.3372 Y5.8475
N29920 G1 X0.3192 Y5.855
N29930 G1 X0.3111 Y5.8576
N29940 G1 X0.2985 Y5.8602
N29950 G1 X0.2856 Y5.8599
N29960 G1 X0.2732 Y5.8569
N29970 G1 X0.2616 Y5.8512
N29980 G1 X0.2517 Y5.8431
N29990 G1 X0.2313 Y5.8222
N30000 G1 X0.1882 Y5.7728
N30010 G3 X0.1844 Y5.7478 R0.025
N30020 G1 X0.547 Y4.8383
N30030 G3 X0.5853 Y4.8275 R0.025
N30040 G1 X0.5959 Y4.8359
N30050 G1 X0.6178 Y4.8484
N30060 G1 X0.6346 Y4.8545
N30070 G1 X0.6401 Y4.8567
N30080 G1 X0.6467 Y4.8599
N30090 G1 X0.6544 Y4.8644
N30100 G1 X0.6624 Y4.87
N30110 G1 X0.6706 Y4.8769
N30120 G1 X0.6799 Y4.886
N30130 G1 X0.6892 Y4.8966
N30140 G1 X0.699 Y4.9099
N30150 G1 X0.709 Y4.9261
N30160 G1 X0.7193 Y4.9461
N30170 G1 X0.7294 Y4.9702
N30180 G1 X0.7393 Y5.0007
N30190 G1 X0.7478 Y5.0367
N30200 G1 X0.7537 Y5.0733
N30210 G1 X0.7575 Y5.1111
N30220 G1 X0.7574 Y5.1181
N30230 G1 X0.7565 Y5.125
N30240 G1 X0.7548 Y5.1318
N30250 G1 X0.7522 Y5.1398
N30260 G1 X0.7506 Y5.1468
N30270 G1 X0.7483 Y5.1636
N30280 G1 X0.748 Y5.172
N30290 G1 X0.7487 Y5.1902
N30300 G1 X0.7516 Y5.2181
N30310 G1 X0.753 Y5.245
N30320 G1 X0.7532 Y5.272
N30330 G1 X0.7519 Y5.3046
N30340 G1 X0.749 Y5.3391
N30350 G1 X0.7452 Y5.369
N30360 G1 X0.7402 Y5.3997
N30370 G1 X0.7338 Y5.4315
N30380 G1 X0.726 Y5.4641
N30390 G1 X0.7168 Y5.4968
N30400 G1 X0.7072 Y5.5271
N30410 G1 X0.6964 Y5.5571
N30420 G1 X0.6843 Y5.5872
N30430 G1 X0.671 Y5.6171
N30440 G1 X0.6577 Y5.6442
N30450 G1 X0.6437 Y5.6703
N30460 G1 X0.6254 Y5.7014
N30470 G1 X0.6063 Y5.7307
N30480 G1 X0.5867 Y5.7579
N30490 G1 X0.5697 Y5.7796
N30500 G1 X0.5481 Y5.8047
N30510 G1 X0.5258 Y5.8282
N30520 G1 X0.5063 Y5.8469
N30530 G1 X0.486 Y5.8647
N30540 G1 X0.4648 Y5.8814
N30550 G1 X0.4426 Y5.8968
N30560 G1 X0.4242 Y5.9081
N30570 G1 X0.4051 Y5.9181
N30580 G1 X0.3887 Y5.9253
N30590 G1 X0.3761 Y5.9287
N30600 G1 X0.3631 Y5.9292
N30610 G1 X0.3503 Y5.9267
N30620 G1 X0.3383 Y5.9215
N30630 G1 X0.3278 Y5.9138
N30640 G1 X0.2528 Y5.8442
N30650 G1 X0.2517 Y5.8431
N30660 G3 X0.2466 Y5.8348 R0.025
N30670 G3 X0.2498 Y5.8115 R0.025
N30680 G1 X0.7039 Y5.1805
N30690 G3 X0.7487 Y5.1902 R0.025
N30700 G1 X0.7533 Y5.214
N30710 G1 X0.7634 Y5.2392
N30720 G1 X0.769 Y5.2488
N30730 G1 X0.7774 Y5.2608
N30740 G1 X0.7806 Y5.2644
N30750 G1 X0.7874 Y5.2728
N30760 G1 X0.7934 Y5.2818
N30770 G1 X0.8011 Y5.2961
N30780 G1 X0.8072 Y5.311
N30790 G1 X0.8122 Y5.3265
N30800 G1 X0.8159 Y5.3422
N30810 G1 X0.8187 Y5.3582
N30820 G1 X0.821 Y5.3797
N30830 G1 X0.822 Y5.4012
N30840 G1 X0.8217 Y5.4228
N30850 G1 X0.8198 Y5.4498
N30860 G1 X0.8165 Y5.4766
N30870 G1 X0.8118 Y5.5031
N30880 G1 X0.806 Y5.5295
N30890 G1 X0.7976 Y5.5608
N30900 G1 X0.7876 Y5.592
N30910 G1 X0.7758 Y5.624
N30920 G1 X0.7621 Y5.6567
N30930 G1 X0.7467 Y5.6894
N30940 G1 X0.7298 Y5.7215
N30950 G1 X0.7115 Y5.7528
N30960 G1 X0.692 Y5.7831
N30970 G1 X0.6717 Y5.8117
N30980 G1 X0.6508 Y5.8386
N30990 G1 X0.6296 Y5.8636
N31000 G1 X0.6075 Y5.8873
N31010 G1 X0.5894 Y5.9053
N31020 G1 X0.5839 Y5.9127
N31030 G1 X0.5796 Y5.9209
N31040 G1 X0.5766 Y5.9296
N31050 G1 X0.5751 Y5.9388
N31060 G1 X0.575 Y5.948
N31070 G1 X0.5765 Y5.9571
N31080 G1 X0.5793 Y5.966
N31090 G1 X0.5835 Y5.9742
N31100 G1 X0.5889 Y5.9817
N31110 G1 X0.5955 Y5.9882
N31120 G1 X0.603 Y5.9936
N31130 G1 X0.6112 Y5.9978
N31140 G1 X0.6465 Y6.009
N31150 G1 X0.6834 Y6.0108
N31160 G1 X0.7574 Y6.013
N31170 G1 X0.8684 Y6.0145
N31180 G1 X1.1274 Y6.0152
N31190 G1 X1.7565 Y6.0154
N31200 G1 X1.7935
N31210 G1 X1.8304 Y6.0181
N31220 G1 X1.8673 Y6.02
N31230 G1 X1.9413 Y6.0223
N31240 G1 X2.0523 Y6.0237
N31250 G1 X2.3113 Y6.0245
N31260 G1 X2.4583 Y6.0246
N31270 G1 X2.4663 Y6.0259
N31280 G1 X2.4734 Y6.0296
N31290 G1 X2.479 Y6.0355
N31300 G1 X2.4825 Y6.0428
N31310 G1 X2.4835 Y6.0508
N31320 G1 X2.4818 Y6.0587
N31330 G1 X2.4778 Y6.0657
N31340 G1 X2.4717 Y6.0711
N31350 G3 X2.4625 Y6.0742 R0.025
N31360 G1 X2.4586 Y6.0747 Z-0.1997
N31370 G1 X2.4548 Y6.0752 Z-0.1988
N31380 G1 X2.4512 Y6.0757 Z-0.1973
N31390 G1 X2.4479 Y6.0762 Z-0.1952
N31400 G1 X2.445 Y6.0766 Z-0.1927
N31410 G1 X2.4424 Y6.0769 Z-0.1897
N31420 G1 X2.4404 Y6.0772 Z-0.1863
N31430 G1 X2.4389 Y6.0774 Z-0.1827
N31440 G1 X2.438 Y6.0775 Z-0.1789
N31450 G1 X2.4377 Y6.0776 Z-0.175
N31460 G0 Z0.2
N31470 G0 X3.0298 Y5.3991
N31480 G0 Z-0.15
N31490 G1 Z-0.175 F24.
N31500 G1 X3.03 Y5.3993 Z-0.1789
N31510 G1 X3.0308 Y5.3999 Z-0.1827
N31520 G1 X3.032 Y5.4008 Z-0.1863
N31530 G1 X3.0336 Y5.4021 Z-0.1897
N31540 G1 X3.0356 Y5.4036 Z-0.1927
N31550 G1 X3.0379 Y5.4055 Z-0.1952
N31560 G1 X3.0406 Y5.4075 Z-0.1973
N31570 G1 X3.0434 Y5.4098 Z-0.1988
N31580 G1 X3.0464 Y5.4121 Z-0.1997
N31590 G1 X3.0495 Y5.4145 Z-0.2
N31600 G3 X3.0517 Y5.4241 R0.0078
N31610 G1 X3.0316 Y5.4623
N31620 G1 X3.0309 Y5.4635
N31630 G1 X3.0223 Y5.4649
N31640 G1 X3.0125 Y5.4657
N31650 G1 X3.0022
N31660 G1 X2.991 Y5.4649
N31670 G1 X2.9787 Y5.4629
N31680 G1 X2.9662 Y5.4599
N31690 G1 X2.9524 Y5.4554
N31700 G1 X2.9384 Y5.4495
N31710 G1 X2.9235 Y5.4417
N31720 G1 X2.9077 Y5.4319
N31730 G1 X2.8924 Y5.4204
N31740 G1 X2.8757 Y5.4058
N31750 G1 X2.8592 Y5.3888
N31760 G1 X2.8426 Y5.3687
N31770 G1 X2.8254 Y5.3441
N31780 G1 X2.8089 Y5.316
N31790 G1 X2.7928 Y5.2826
N31800 G1 X2.7795 Y5.2481
N31810 G1 X2.7685 Y5.2128
N31820 G1 X2.7594 Y5.1769
N31830 G1 X2.7521 Y5.1406
N31840 G1 X2.7461 Y5.1041
N31850 G1 X2.7413 Y5.0674
N31860 G1 X2.7375 Y5.0306
N31870 G1 X2.7344 Y4.9938
N31880 G1 X2.732 Y4.9568
N31890 G1 X2.7301 Y4.9199
N31900 G1 X2.7275 Y4.8459
N31910 G1 X2.7253 Y4.7349
N31920 G1 X2.7242 Y4.5869
N31930 G1 X2.7237 Y4.1799
N31940 G1 Y3.6249
N31950 G1 X2.7236 Y3.4028
N31960 G1 X2.7228 Y3.3288
N31970 G1 X2.7211 Y3.2549
N31980 G1 X2.7183 Y3.1809
N31990 G1 X2.7145 Y3.107
N32000 G1 X2.7072 Y2.9962
N32010 G1 X2.6955 Y2.8487
N32020 G1 X2.6794 Y2.6644
N32030 G1 X2.676 Y2.6462
N32040 G1 X2.6685 Y2.6293
N32050 G1 X2.6472 Y2.5991
N32060 G1 X2.6174 Y2.5771
N32070 G1 X2.5835 Y2.5623
N32080 G1 X2.5476 Y2.5535
N32090 G1 X2.5108 Y2.549
N32100 G1 X2.4738 Y2.5478
N32110 G1 X2.4369 Y2.5491
N32120 G1 X2.4 Y2.5521
N32130 G1 X2.3632 Y2.5562
N32140 G1 X2.3265 Y2.5612
N32150 G1 X2.2534 Y2.5724
N32160 G1 X2.1072 Y2.5955
N32170 G1 X2.0339 Y2.6061
N32180 G1 X1.9606 Y2.6158
N32190 G1 X1.8871 Y2.6244
N32200 G1 X1.8134 Y2.6319
N32210 G1 X1.7397 Y2.6383
N32220 G1 X1.7028 Y2.6412
N32230 G1 X1.629 Y2.6461
N32240 G1 X1.5551 Y2.65
N32250 G1 X1.4811 Y2.6531
N32260 G1 X1.3702 Y2.6562
N32270 G1 X1.2962 Y2.6573
N32280 G1 X1.2222 Y2.6576
N32290 G1 X1.1482 Y2.6569
N32300 G1 X1.0742 Y2.6553
N32310 G1 X1.0002 Y2.6525
N32320 G1 X0.9263 Y2.6485
N32330 G1 X0.8525 Y2.6432
N32340 G1 X0.8169 Y2.6532
N32350 G1 X0.786 Y2.6736
N32360 G1 X0.7607 Y2.7006
N32370 G1 X0.7406 Y2.7316
N32380 G1 X0.7249 Y2.7652
N32390 G1 X0.7129 Y2.8002
N32400 G1 X0.7038 Y2.836
N32410 G1 X0.6968 Y2.8724
N32420 G1 X0.6916 Y2.909
N32430 G1 X0.6877 Y2.9458
N32440 G1 X0.6847 Y2.9827
N32450 G1 X0.6825 Y3.0196
N32460 G1 X0.6809 Y3.0566
N32470 G1 X0.6788 Y3.1306
N32480 G1 X0.6772 Y3.2416
N32490 G1 X0.6763 Y3.4636
N32500 G1 X0.6761 Y3.7226
N32510 G1 X0.676 Y4.0846
N32520 G1 X0.6751 Y4.0949
N32530 G1 X0.6724 Y4.1049
N32540 G1 X0.6679 Y4.1142
N32550 G1 X0.6487 Y4.1469
N32560 G1 X0.6346 Y4.1725
N32570 G1 X0.6005 Y4.2477
N32580 G1 X0.5969 Y4.2561
N32590 G1 X0.5842 Y4.2926
N32600 G1 X0.573 Y4.3265
N32610 G3 X0.5679 Y4.3348 R0.025
N32620 G1 X0.5652 Y4.3377 Z-0.1997
N32630 G1 X0.5626 Y4.3405 Z-0.1988
N32640 G1 X0.5602 Y4.3431 Z-0.1973
N32650 G1 X0.5579 Y4.3456 Z-0.1952
N32660 G1 X0.5559 Y4.3478 Z-0.1927
N32670 G1 X0.5542 Y4.3496 Z-0.1897
N32680 G1 X0.5528 Y4.3511 Z-0.1863
N32690 G1 X0.5517 Y4.3522 Z-0.1827
N32700 G1 X0.5511 Y4.3529 Z-0.1789
N32710 G1 X0.5509 Y4.3531 Z-0.175
N32720 G0 Z0.2
N32730 G0 X0.6135 Y4.8802
N32740 G0 Z-0.15
N32750 G1 Z-0.175 F24.
N32760 G1 X0.6137 Y4.8799 Z-0.1789
N32770 G1 X0.6141 Y4.8791 Z-0.1827
N32780 G1 X0.6149 Y4.8778 Z-0.1863
N32790 G1 X0.6158 Y4.876 Z-0.1897
N32800 G1 X0.6171 Y4.8738 Z-0.1927
N32810 G1 X0.6185 Y4.8711 Z-0.1952
N32820 G1 X0.6201 Y4.8682 Z-0.1973
N32830 G1 X0.6218 Y4.865 Z-0.1988
N32840 G1 X0.6237 Y4.8617 Z-0.1997
N32850 G1 X0.6255 Y4.8582 Z-0.2
N32860 G3 X0.6346 Y4.8545 R0.0078
N32870 G1 X0.643 Y4.8573
N32880 G1 X0.6637 Y4.8611
N32890 G1 X0.6766 Y4.8621
N32900 G1 X0.6812
N32910 G1 X0.6866 Y4.8623
N32920 G1 X0.693 Y4.8632
N32930 G1 X0.6995 Y4.8646
N32940 G1 X0.7072 Y4.8669
N32950 G1 X0.7152 Y4.8701
N32960 G1 X0.7238 Y4.8743
N32970 G1 X0.7334 Y4.8801
N32980 G1 X0.743 Y4.8868
N32990 G1 X0.7539 Y4.8959
N33000 G1 X0.7643 Y4.9062
N33010 G1 X0.7757 Y4.9194
N33020 G1 X0.7871 Y4.9349
N33030 G1 X0.7988 Y4.9538
N33040 G1 X0.81 Y4.9758
N33050 G1 X0.8176 Y4.9942
N33060 G1 X0.8211 Y5.0057
N33070 G1 X0.8221 Y5.0177
N33080 G1 X0.8206 Y5.0296
N33090 G1 X0.8168 Y5.041
N33100 G1 X0.8107 Y5.0513
N33110 G1 X0.8027 Y5.0602
N33120 G1 X0.7907 Y5.0712
N33130 G1 X0.7833 Y5.0796
N33140 G1 X0.7801 Y5.0836
N33150 G3 X0.7382 Y5.0773 R0.025
N33160 G1 X0.6594 Y4.8971
N33170 G3 X0.6718 Y4.8644 R0.025
N33180 G3 X0.6812 Y4.8621 R0.025
N33190 G1 X0.6934 Y4.8617
N33200 G1 X0.7102 Y4.8594
N33210 G1 X0.7186 Y4.8576
N33220 G1 X0.727 Y4.8555
N33230 G1 X0.7323 Y4.8541
N33240 G1 X0.7381 Y4.8535
N33250 G1 X0.7447 Y4.8533
N33260 G1 X0.7521 Y4.8538
N33270 G1 X0.76 Y4.8549
N33280 G1 X0.7689 Y4.8568
N33290 G1 X0.7782 Y4.8597
N33300 G1 X0.7886 Y4.8638
N33310 G1 X0.7991 Y4.869
N33320 G1 X0.8108 Y4.8761
N33330 G1 X0.8224 Y4.8843
N33340 G1 X0.834 Y4.8941
N33350 G1 X0.8449 Y4.9049
N33360 G1 X0.8537 Y4.915
N33370 G1 X0.8618 Y4.9263
N33380 G1 X0.8683 Y4.9368
N33390 G1 X0.8741 Y4.9482
N33400 G1 X0.8794 Y4.962
N33410 G1 X0.8819 Y4.9738
N33420 G1 Y4.9858
N33430 G1 X0.8794 Y4.9975
N33440 G1 X0.8746 Y5.0085
N33450 G1 X0.8676 Y5.0183
N33460 G1 X0.8588 Y5.0264
N33470 G1 X0.8485 Y5.0326
N33480 G1 X0.8363 Y5.0384
N33490 G1 X0.8216 Y5.0465
N33500 G1 X0.8079 Y5.0561
N33510 G1 X0.8027 Y5.0602
N33520 G3 X0.7642 Y5.0477 R0.025
N33530 G1 X0.7119 Y4.8866
N33540 G3 X0.7187 Y4.8606 R0.025
N33550 G3 X0.727 Y4.8555 R0.025
N33560 G1 X0.7354 Y4.8527
N33570 G1 X0.7606 Y4.8418
N33580 G1 X0.769 Y4.8379
N33590 G1 X0.7749 Y4.8355
N33600 G1 X0.7805 Y4.8338
N33610 G1 X0.7868 Y4.8323
N33620 G1 X0.7939 Y4.8313
N33630 G1 X0.8016 Y4.8308
N33640 G1 X0.8103 Y4.8309
N33650 G1 X0.8193 Y4.8318
N33660 G1 X0.8291 Y4.8336
N33670 G1 X0.8393 Y4.8362
N33680 G1 X0.8498 Y4.8399
N33690 G1 X0.8607 Y4.8447
N33700 G1 X0.8717 Y4.8507
N33710 G1 X0.8825 Y4.8577
N33720 G1 X0.8928 Y4.8657
N33730 G1 X0.902 Y4.8741
N33740 G1 X0.9107 Y4.8834
N33750 G1 X0.9179 Y4.8924
N33760 G1 X0.9247 Y4.9025
N33770 G1 X0.9301 Y4.9121
N33780 G1 X0.9349 Y4.9226
N33790 G1 X0.9386 Y4.9329
N33800 G1 X0.9396 Y4.9364
N33810 G1 X0.9416 Y4.9479
N33820 G1 X0.9412 Y4.9596
N33830 G1 X0.9385 Y4.971
N33840 G1 X0.9336 Y4.9816
N33850 G1 X0.9267 Y4.991
N33860 G1 X0.9181 Y4.9989
N33870 G1 X0.908 Y5.0048
N33880 G1 X0.8485 Y5.0326
N33890 G3 X0.8155 Y5.0187 R0.025
N33900 G1 X0.7571 Y4.8693
N33910 G3 X0.769 Y4.8379 R0.025
N33920 G1 X0.8274 Y4.8107
N33930 G1 X0.8332 Y4.8084
N33940 G1 X0.8394 Y4.8064
N33950 G1 X0.846 Y4.8049
N33960 G1 X0.8536 Y4.8038
N33970 G1 X0.8616 Y4.8032
N33980 G1 X0.8704 Y4.8034
N33990 G1 X0.8799 Y4.8043
N34000 G1 X0.8895 Y4.806
N34010 G1 X0.8997 Y4.8087
N34020 G1 X0.9103 Y4.8124
N34030 G1 X0.9209 Y4.8171
N34040 G1 X0.9314 Y4.8228
N34050 G1 X0.9419 Y4.8297
N34060 G1 X0.9522 Y4.8376
N34070 G1 X0.9614 Y4.8459
N34080 G1 X0.9702 Y4.8553
N34090 G1 X0.9775 Y4.8645
N34100 G1 X0.9841 Y4.8745
N34110 G1 X0.9897 Y4.8844
N34120 G1 X0.9944 Y4.8945
N34130 G1 X0.9982 Y4.9051
N34140 G1 X0.9992 Y4.9086
N34150 G1 X1.0012 Y4.9201
N34160 G1 X1.0008 Y4.9318
N34170 G1 X0.9981 Y4.9432
N34180 G1 X0.9932 Y4.9538
N34190 G1 X0.9863 Y4.9632
N34200 G1 X0.9777 Y4.9711
N34210 G1 X0.9676 Y4.977
N34220 G1 X0.908 Y5.0048
N34230 G3 X0.875 Y4.9911 R0.025
N34240 G1 X0.8156 Y4.8423
N34250 G3 X0.8274 Y4.8107 R0.025
N34260 G1 X0.8867 Y4.7831
N34270 G1 X0.893 Y4.7805
N34280 G1 X0.8992 Y4.7786
N34290 G1 X0.9058 Y4.777
N34300 G1 X0.9134 Y4.7759
N34310 G1 X0.9214 Y4.7754
N34320 G1 X0.9301 Y4.7755
N34330 G1 X0.9395 Y4.7765
N34340 G1 X0.9492 Y4.7782
N34350 G1 X0.9593 Y4.7808
N34360 G1 X0.9699 Y4.7845
N34370 G1 X0.9805 Y4.7892
N34380 G1 X0.991 Y4.795
N34390 G1 X1.0015 Y4.8018
N34400 G1 X1.0118 Y4.8098
N34410 G1 X1.021 Y4.8181
N34420 G1 X1.0298 Y4.8275
N34430 G1 X1.0371 Y4.8367
N34440 G1 X1.0438 Y4.8466
N34450 G1 X1.0493 Y4.8565
N34460 G1 X1.054 Y4.8667
N34470 G1 X1.0578 Y4.8772
N34480 G1 X1.0588 Y4.8808
N34490 G1 X1.0608 Y4.8923
N34500 G1 X1.0604 Y4.904
N34510 G1 X1.0577 Y4.9154
N34520 G1 X1.0528 Y4.926
N34530 G1 X1.0459 Y4.9354
N34540 G1 X1.0373 Y4.9433
N34550 G1 X1.0272 Y4.9492
N34560 G1 X0.9676 Y4.977
N34570 G3 X0.9347 Y4.9634 R0.025
N34580 G1 X0.8748 Y4.8147
N34590 G3 X0.8867 Y4.7831 R0.025
N34600 G1 X0.9455 Y4.7557
N34610 G1 X0.9527 Y4.7527
N34620 G1 X0.9589 Y4.7508
N34630 G1 X0.9654 Y4.7493
N34640 G1 X0.9731 Y4.7481
N34650 G1 X0.981 Y4.7476
N34660 G1 X0.9897 Y4.7478
N34670 G1 X0.9992 Y4.7487
N34680 G1 X1.0088 Y4.7504
N34690 G1 X1.019 Y4.753
N34700 G1 X1.0295 Y4.7567
N34710 G1 X1.0402 Y4.7615
N34720 G1 X1.0507 Y4.7672
N34730 G1 X1.0611 Y4.774
N34740 G1 X1.0715 Y4.782
N34750 G1 X1.0806 Y4.7903
N34760 G1 X1.0894 Y4.7997
N34770 G1 X1.0967 Y4.8089
N34780 G1 X1.1034 Y4.8188
N34790 G1 X1.1089 Y4.8287
N34800 G1 X1.1136 Y4.8389
N34810 G1 X1.1174 Y4.8494
N34820 G1 X1.1184 Y4.853
N34830 G1 X1.1204 Y4.8645
N34840 G1 X1.12 Y4.8762
N34850 G1 X1.1174 Y4.8876
N34860 G1 X1.1125 Y4.8982
N34870 G1 X1.1056 Y4.9076
N34880 G1 X1.0969 Y4.9155
N34890 G1 X1.0869 Y4.9214
N34900 G1 X1.0272 Y4.9492
N34910 G3 X0.9943 Y4.9357 R0.025
N34920 G1 X0.9337 Y4.7874
N34930 G3 X0.9378 Y4.7617 R0.025
N34940 G3 X0.9455 Y4.7557 R0.025
N34950 G1 X1.0043 Y4.7282
N34960 G1 X1.0124 Y4.7249
N34970 G1 X1.0185 Y4.723
N34980 G1 X1.0251 Y4.7215
N34990 G1 X1.0327 Y4.7204
N35000 G1 X1.0407 Y4.7199
N35010 G1 X1.0494 Y4.72
N35020 G1 X1.0588 Y4.7209
N35030 G1 X1.0685 Y4.7226
N35040 G1 X1.0786 Y4.7253
N35050 G1 X1.0892 Y4.729
N35060 G1 X1.0998 Y4.7337
N35070 G1 X1.1103 Y4.7394
N35080 G1 X1.1208 Y4.7462
N35090 G1 X1.1311 Y4.7542
N35100 G1 X1.1402 Y4.7625
N35110 G1 X1.149 Y4.7719
N35120 G1 X1.1563 Y4.7811
N35130 G1 X1.163 Y4.791
N35140 G1 X1.1686 Y4.801
N35150 G1 X1.1732 Y4.8111
N35160 G1 X1.1771 Y4.8216
N35170 G1 X1.1781 Y4.8252
N35180 G1 X1.18 Y4.8367
N35190 G1 X1.1797 Y4.8484
N35200 G1 X1.177 Y4.8598
N35210 G1 X1.1721 Y4.8704
N35220 G1 X1.1652 Y4.8798
N35230 G1 X1.1565 Y4.8877
N35240 G1 X1.1465 Y4.8936
N35250 G1 X1.0869 Y4.9214
N35260 G3 X1.054 Y4.908 R0.025
N35270 G1 X0.9926 Y4.7601
N35280 G3 X1.0043 Y4.7282 R0.025
N35290 G1 X1.0677 Y4.6987
N35300 G1 X1.0727 Y4.6966
N35310 G1 X1.0791 Y4.6947
N35320 G1 X1.0858 Y4.6933
N35330 G1 X1.0935 Y4.6923
N35340 G1 X1.1017 Y4.6918
N35350 G1 X1.1104 Y4.6921
N35360 G1 X1.12 Y4.6932
N35370 G1 X1.1298 Y4.6951
N35380 G1 X1.1399 Y4.6979
N35390 G1 X1.1505 Y4.7017
N35400 G1 X1.1612 Y4.7067
N35410 G1 X1.1718 Y4.7126
N35420 G1 X1.1822 Y4.7196
N35430 G1 X1.1924 Y4.7277
N35440 G1 X1.2014 Y4.7361
N35450 G1 X1.2101 Y4.7457
N35460 G1 X1.2171 Y4.7548
N35470 G1 X1.2237 Y4.765
N35480 G1 X1.229 Y4.7748
N35490 G1 X1.2336 Y4.7852
N35500 G1 X1.2379 Y4.7981
N35510 G1 X1.2397 Y4.8096
N35520 G1 X1.2392 Y4.8212
N35530 G1 X1.2365 Y4.8324
N35540 G1 X1.2315 Y4.843
N35550 G1 X1.2246 Y4.8523
N35560 G1 X1.2159 Y4.86
N35570 G1 X1.2059 Y4.8659
N35580 G1 X1.1465 Y4.8936
N35590 G3 X1.1369 Y4.8956 R0.025
N35600 G3 X1.1134 Y4.8796 R0.025
N35610 G1 X1.0557 Y4.7299
N35620 G3 X1.0677 Y4.6987 R0.025
N35630 G1 X1.1265 Y4.6712
N35640 G1 X1.1316 Y4.6692
N35650 G1 X1.1376 Y4.6673
N35660 G1 X1.1443 Y4.6657
N35670 G1 X1.1519 Y4.6646
N35680 G1 X1.1598 Y4.6641
N35690 G1 X1.1687 Y4.6642
N35700 G1 X1.1779 Y4.6651
N35710 G1 X1.1876 Y4.6669
N35720 G1 X1.1979 Y4.6695
N35730 G1 X1.2084 Y4.6732
N35740 G1 X1.2189 Y4.6779
N35750 G1 X1.2295 Y4.6836
N35760 G1 X1.24 Y4.6905
N35770 G1 X1.2504 Y4.6985
N35780 G1 X1.2596 Y4.7069
N35790 G1 X1.2683 Y4.7162
N35800 G1 X1.2756 Y4.7255
N35810 G1 X1.2822 Y4.7353
N35820 G1 X1.2879 Y4.7453
N35830 G1 X1.2925 Y4.7553
N35840 G1 X1.2964 Y4.766
N35850 G1 X1.2997 Y4.7792
N35860 G1 X1.3008 Y4.7919
N35870 G1 X1.2991 Y4.8044
N35880 G1 X1.2947 Y4.8163
N35890 G1 X1.2879 Y4.827
N35900 G1 X1.2789 Y4.836
N35910 G1 X1.2682 Y4.8429
N35920 G1 X1.2563 Y4.8473
N35930 G1 X1.2395 Y4.8519
N35940 G1 X1.2297 Y4.8551
N35950 G1 X1.2059 Y4.8659
N35960 G3 X1.1964 Y4.8678 R0.025
N35970 G3 X1.1731 Y4.852 R0.025
N35980 G1 X1.1146 Y4.7026
N35990 G3 X1.1189 Y4.6773 R0.025
N36000 G3 X1.1265 Y4.6712 R0.025
N36010 G1 X1.1387 Y4.6651
N36020 G1 X1.1489 Y4.6595
N36030 G1 X1.1555 Y4.655
N36040 G1 X1.1662 Y4.6468
N36050 G1 X1.1706 Y4.6437
N36060 G1 X1.1754 Y4.641
N36070 G1 X1.1806 Y4.6385
N36080 G1 X1.1867 Y4.6363
N36090 G1 X1.1935 Y4.6344
N36100 G1 X1.2009 Y4.6329
N36110 G1 X1.2092 Y4.6319
N36120 G1 X1.2179 Y4.6317
N36130 G1 X1.2274 Y4.6321
N36140 G1 X1.2375 Y4.6334
N36150 G1 X1.2479 Y4.6355
N36160 G1 X1.2586 Y4.6387
N36170 G1 X1.2697 Y4.643
N36180 G1 X1.2808 Y4.6484
N36190 G1 X1.2918 Y4.6547
N36200 G1 X1.3025 Y4.6622
N36210 G1 X1.313 Y4.6708
N36220 G1 X1.3229 Y4.6805
N36230 G1 X1.3314 Y4.6902
N36240 G1 X1.3395 Y4.701
N36250 G1 X1.346 Y4.7113
N36260 G1 X1.3516 Y4.7222
N36270 G1 X1.3563 Y4.7331
N36280 G1 X1.3597 Y4.7437
N36290 G1 X1.3625 Y4.7551
N36300 G1 X1.3642 Y4.7656
N36310 G1 X1.3651 Y4.7768
N36320 G1 Y4.7875
N36330 G1 X1.3647 Y4.7923
N36340 G1 X1.3625 Y4.8039
N36350 G1 X1.358 Y4.8149
N36360 G1 X1.3515 Y4.8247
N36370 G1 X1.343 Y4.833
N36380 G1 X1.3331 Y4.8394
N36390 G1 X1.3221 Y4.8437
N36400 G1 X1.3104 Y4.8457
N36410 G1 X1.2986 Y4.8453
N36420 G3 X1.2895 Y4.8418 R0.025
N36430 G3 X1.2831 Y4.836 R0.025
N36440 G1 X1.1626 Y4.6813
N36450 G3 X1.1662 Y4.6468 R0.025
N36460 G1 X1.1723 Y4.6419
N36470 G1 X1.1807 Y4.6326
N36480 G1 X1.1913 Y4.6198
N36490 G1 X1.1947 Y4.6156
N36500 G1 X1.1985 Y4.6118
N36510 G1 X1.2027 Y4.6083
N36520 G1 X1.2075 Y4.6049
N36530 G1 X1.2129 Y4.6017
N36540 G1 X1.2192 Y4.5986
N36550 G1 X1.2262 Y4.5958
N36560 G1 X1.2339 Y4.5935
N36570 G1 X1.2426 Y4.5916
N36580 G1 X1.2517 Y4.5904
N36590 G1 X1.2617 Y4.5898
N36600 G1 X1.2725 Y4.5901
N36610 G1 X1.2836 Y4.5913
N36620 G1 X1.2954 Y4.5935
N36630 G1 X1.3077 Y4.5969
N36640 G1 X1.3202 Y4.6014
N36650 G1 X1.3327 Y4.6071
N36660 G1 X1.345 Y4.614
N36670 G1 X1.3573 Y4.6221
N36680 G1 X1.3691 Y4.6315
N36690 G1 X1.3804 Y4.642
N36700 G1 X1.391 Y4.6535
N36710 G1 X1.4006 Y4.666
N36720 G1 X1.4094 Y4.6793
N36730 G1 X1.4171 Y4.6934
N36740 G1 X1.4233 Y4.7073
N36750 G1 X1.4284 Y4.7216
N36760 G1 X1.4319 Y4.735
N36770 G1 X1.4343 Y4.7484
N36780 G1 X1.4356 Y4.7611
N36790 G1 X1.4358 Y4.7736
N36800 G1 X1.4351 Y4.7857
N36810 G1 X1.4334 Y4.7971
N36820 G1 X1.4308 Y4.8086
N36830 G1 X1.4276 Y4.8189
N36840 G1 X1.4225 Y4.8312
N36850 G1 X1.4156 Y4.8418
N36860 G1 X1.4066 Y4.8507
N36870 G1 X1.396 Y4.8575
N36880 G1 X1.3841 Y4.8618
N36890 G1 X1.3715 Y4.8634
N36900 G1 X1.3589 Y4.8623
N36910 G1 X1.3469 Y4.8585
N36920 G1 X1.332 Y4.8524
N36930 G1 X1.3222 Y4.8496
N36940 G1 X1.3054 Y4.8462
N36950 G1 X1.2986 Y4.8453
N36960 G3 X1.2895 Y4.8418 R0.025
N36970 G3 X1.2804 Y4.8316 R0.025
N36980 G1 X1.1893 Y4.645
N36990 G3 X1.1913 Y4.6198 R0.025
N37000 G1 X1.1984 Y4.609
N37010 G1 X1.2059 Y4.5942
N37020 G1 X1.2086 Y4.5876
N37030 G1 X1.2108 Y4.5827
N37040 G1 X1.2136 Y4.5781
N37050 G1 X1.2168 Y4.5738
N37060 G1 X1.2206 Y4.5695
N37070 G1 X1.2251 Y4.5651
N37080 G1 X1.2303 Y4.5608
N37090 G1 X1.2364 Y4.5566
N37100 G1 X1.2434 Y4.5525
N37110 G1 X1.251 Y4.5489
N37120 G1 X1.2597 Y4.5455
N37130 G1 X1.2692 Y4.5427
N37140 G1 X1.2794 Y4.5405
N37150 G1 X1.2908 Y4.5391
N37160 G1 X1.3027 Y4.5385
N37170 G1 X1.3154 Y4.539
N37180 G1 X1.3289 Y4.5405
N37190 G1 X1.343 Y4.5433
N37200 G1 X1.3572 Y4.5473
N37210 G1 X1.3719 Y4.5528
N37220 G1 X1.387 Y4.5598
N37230 G1 X1.402 Y4.5683
N37240 G1 X1.4167 Y4.5783
N37250 G1 X1.4309 Y4.5897
