%
(MOTORMOUNTLEFTV1)
(T2  D=0.25 CR=0. - ZMIN=-1.001 - FLAT END MILL)
(T6  D=0.125 CR=0. - ZMIN=-1.001 - FLAT END MILL)
N10 G90 G54 G64 G50 G17 G40 G80 G94 G91.1 G49
N20 G20
N30 G28 G91 Z0.
N40 G90

(ADAPTIVE1)
N50 M9
N60 M998
N70 T2 G43 H2 M6
N80 S5140 M3
N90 G4 P2.
N100 G54
N110 G0 X5.8706 Y-0.2213
N120 M8
N130 G4 P2.
N140 G0 Z0.6
N150 G0 Z0.2
N160 G0 Z-0.0963
N170 G1 Z-0.1213 F24.
N180 G1 Z-0.2
N190 G3 X5.8347 Y-0.1246 R0.4787
N200 G1 X5.8297 Y-0.1151
N210 G1 X5.8268 Y-0.1106
N220 G1 X5.8229 Y-0.1057
N230 G1 X5.8177 Y-0.1002
N240 G1 X5.8108 Y-0.0939
N250 G1 X5.802 Y-0.0871
N260 G1 X5.7907 Y-0.0797
N270 G1 X5.7761 Y-0.0717
N280 G1 X5.7572 Y-0.0633
N290 G1 X5.7321 Y-0.0545
N300 G1 X5.6974 Y-0.0454
N310 G1 X5.6609 Y-0.0388
N320 G1 X5.6242 Y-0.0343
N330 G1 X5.5873 Y-0.0312
N340 G1 X5.5504 Y-0.0291
N350 G1 X5.5134 Y-0.0276
N360 G1 X5.4394 Y-0.0258
N370 G1 X5.3284 Y-0.0247
N380 G1 X4.9954 Y-0.0242
N390 G1 X3.8853 Y-0.0243
N400 G1 X3.6999
N410 G1 X3.69 Y-0.0257
N420 G1 X3.6808 Y-0.0297
N430 G1 X3.673 Y-0.036
N440 G1 X3.6672 Y-0.0442
N450 G1 X3.6638 Y-0.0537
N460 G1 X3.6631 Y-0.0637
N470 G1 X3.6651 Y-0.0736
N480 G1 X3.6697 Y-0.0825
N490 G1 X3.6766 Y-0.0899
N500 G3 X3.6854 Y-0.0941 R0.025
N510 G1 X3.6891 Y-0.0951 Z-0.1997
N520 G1 X3.6928 Y-0.0961 Z-0.1988
N530 G1 X3.6963 Y-0.097 Z-0.1973
N540 G1 X3.6996 Y-0.0979 Z-0.1952
N550 G1 X3.7025 Y-0.0986 Z-0.1927
N560 G1 X3.7049 Y-0.0993 Z-0.1897
N570 G1 X3.7069 Y-0.0998 Z-0.1863
N580 G1 X3.7084 Y-0.1002 Z-0.1827
N590 G1 X3.7092 Y-0.1004 Z-0.1789
N600 G1 X3.7095 Y-0.1005 Z-0.175
N610 G0 Z0.2
N620 G0 X5.9164 Y-0.194
N630 G0 Z-0.15
N640 G1 Z-0.175 F24.
N650 G1 X5.9167 Y-0.1939 Z-0.1789
N660 G1 X5.9176 Y-0.1936 Z-0.1827
N670 G1 X5.919 Y-0.1931 Z-0.1863
N680 G1 X5.9209 Y-0.1924 Z-0.1897
N690 G1 X5.9233 Y-0.1915 Z-0.1927
N700 G1 X5.9261 Y-0.1905 Z-0.1952
N710 G1 X5.9293 Y-0.1893 Z-0.1973
N720 G1 X5.9327 Y-0.1881 Z-0.1988
N730 G1 X5.9362 Y-0.1868 Z-0.1997
N740 G1 X5.9399 Y-0.1854 Z-0.2
N750 G3 X6.0632 Y-0.1244 R0.6382
N760 G1 X6.09 Y-0.106
N770 G1 X6.0984 Y-0.0997
N780 G1 X6.0993 Y-0.0989
N790 G1 X6.0921 Y-0.0926
N800 G1 X6.0828 Y-0.0856
N810 G1 X6.0709 Y-0.0781
N820 G1 X6.0555 Y-0.0701
N830 G1 X6.0356 Y-0.0616
N840 G1 X6.0089 Y-0.0527
N850 G1 X5.973 Y-0.0438
N860 G1 X5.9381 Y-0.0315
N870 G1 X5.8699 Y-0.0028
N880 G1 X5.8355 Y0.011
N890 G1 X5.8007 Y0.0234
N900 G1 X5.7653 Y0.0341
N910 G1 X5.7294 Y0.0431
N920 G1 X5.6931 Y0.0505
N930 G1 X5.6566 Y0.0563
N940 G1 X5.6199 Y0.061
N950 G1 X5.583 Y0.0646
N960 G1 X5.5461 Y0.0674
N970 G1 X5.5092 Y0.0695
N980 G1 X5.4353 Y0.0723
N990 G1 X5.3613 Y0.0739
N1000 G1 X5.2503 Y0.0751
N1010 G1 X4.9912 Y0.0757
N1020 G1 X4.1402
N1030 G1 X3.8072
N1040 G1 X3.7702 Y0.0754
N1050 G1 X3.7448 Y0.0735
N1060 G1 X3.7259 Y0.0706
N1070 G1 X3.7089 Y0.0666
N1080 G1 X3.6949 Y0.062
N1090 G1 X3.6821 Y0.0567
N1100 G1 X3.6706 Y0.0508
N1110 G1 X3.6392 Y0.0313
N1120 G1 X3.6354 Y0.0294
N1130 G1 X3.6256 Y0.0231
N1140 G1 X3.6177 Y0.0145
N1150 G1 X3.6121 Y0.0042
N1160 G1 X3.6093 Y-0.0071
N1170 G1 X3.6094 Y-0.0188
N1180 G1 X3.6124 Y-0.03
N1190 G1 X3.6181 Y-0.0402
N1200 G1 X3.6261 Y-0.0487
N1210 G3 X3.6349 Y-0.053 R0.025
N1220 G1 X3.6387 Y-0.054 Z-0.1997
N1230 G1 X3.6424 Y-0.0549 Z-0.1988
N1240 G1 X3.6459 Y-0.0558 Z-0.1973
N1250 G1 X3.6491 Y-0.0567 Z-0.1952
N1260 G1 X3.652 Y-0.0574 Z-0.1927
N1270 G1 X3.6545 Y-0.0581 Z-0.1897
N1280 G1 X3.6565 Y-0.0586 Z-0.1863
N1290 G1 X3.6579 Y-0.059 Z-0.1827
N1300 G1 X3.6588 Y-0.0592 Z-0.1789
N1310 G1 X3.6591 Y-0.0593 Z-0.175
N1320 G0 Z0.2
N1330 G0 X6.07 Y-0.0824
N1340 G0 Z-0.15
N1350 G1 Z-0.175 F24.
N1360 G1 X6.0702 Y-0.0827 Z-0.1789
N1370 G1 X6.0709 Y-0.0833 Z-0.1827
N1380 G1 X6.072 Y-0.0843 Z-0.1863
N1390 G1 X6.0736 Y-0.0856 Z-0.1897
N1400 G1 X6.0755 Y-0.0873 Z-0.1927
N1410 G1 X6.0777 Y-0.0893 Z-0.1952
N1420 G1 X6.0802 Y-0.0916 Z-0.1973
N1430 G1 X6.0829 Y-0.094 Z-0.1988
N1440 G1 X6.0857 Y-0.0965 Z-0.1997
N1450 G1 X6.0886 Y-0.0992 Z-0.2
N1460 G3 X6.0984 Y-0.0997 R0.0078
N1470 G1 X6.1236 Y-0.0798
N1480 G1 X6.1247 Y-0.0788
N1490 G1 X6.1219 Y-0.0715
N1500 G1 X6.118 Y-0.0631
N1510 G1 X6.1133 Y-0.0548
N1520 G1 X6.1068 Y-0.0454
N1530 G1 X6.0992 Y-0.0359
N1540 G1 X6.0896 Y-0.0259
N1550 G1 X6.0742 Y-0.012
N1560 G1 X6.047 Y0.0087
N1570 G1 X6.0158 Y0.0287
N1580 G1 X5.9837 Y0.047
N1590 G1 X5.9508 Y0.0639
N1600 G1 X5.9173 Y0.0796
N1610 G1 X5.8831 Y0.0939
N1620 G1 X5.8484 Y0.1068
N1630 G1 X5.8133 Y0.1183
N1640 G1 X5.7777 Y0.1283
N1650 G1 X5.7417 Y0.137
N1660 G1 X5.7054 Y0.1444
N1670 G1 X5.6689 Y0.1506
N1680 G1 X5.6323 Y0.1557
N1690 G1 X5.5955 Y0.1599
N1700 G1 X5.5587 Y0.1633
N1710 G1 X5.5218 Y0.166
N1720 G1 X5.4849 Y0.1682
N1730 G1 X5.4109 Y0.1713
N1740 G1 X5.3369 Y0.1732
N1750 G1 X5.2259 Y0.1746
N1760 G1 X5.0039 Y0.1756
N1770 G1 X4.2269 Y0.1757
N1780 G1 X3.8568 Y0.1756
N1790 G1 X3.8198 Y0.1748
N1800 G1 X3.7829 Y0.1725
N1810 G1 X3.7483 Y0.168
N1820 G1 X3.7193 Y0.1618
N1830 G1 X3.6848 Y0.1516
N1840 G1 X3.6568 Y0.1407
N1850 G1 X3.6368 Y0.131
N1860 G1 X3.6214 Y0.122
N1870 G1 X3.6075 Y0.1123
N1880 G1 X3.5963 Y0.103
N1890 G1 X3.5862 Y0.0932
N1900 G1 X3.5702 Y0.0749
N1910 G1 X3.5626 Y0.0639
N1920 G1 X3.5577 Y0.0515
N1930 G1 X3.5558 Y0.0382
N1940 G1 X3.5569 Y0.0249
N1950 G1 X3.561 Y0.0123
N1960 G1 X3.5679 Y0.0008
N1970 G1 X3.5772 Y-0.0087
N1980 G3 X3.586 Y-0.013 R0.025
N1990 G1 X3.5897 Y-0.014 Z-0.1997
N2000 G1 X3.5934 Y-0.015 Z-0.1988
N2010 G1 X3.5969 Y-0.0159 Z-0.1973
N2020 G1 X3.6002 Y-0.0168 Z-0.1952
N2030 G1 X3.6031 Y-0.0175 Z-0.1927
N2040 G1 X3.6055 Y-0.0182 Z-0.1897
N2050 G1 X3.6075 Y-0.0187 Z-0.1863
N2060 G1 X3.609 Y-0.0191 Z-0.1827
N2070 G1 X3.6098 Y-0.0193 Z-0.1789
N2080 G1 X3.6101 Y-0.0194 Z-0.175
N2090 G0 Z0.2
N2100 G0 X6.1148 Y-0.0755
N2110 G0 Z-0.0963
N2120 G1 Z-0.1213 F24.
N2130 G1 Z-0.2
N2140 G3 X6.1236 Y-0.0798 R0.0055
N2150 G1 X6.1489 Y-0.0586
N2160 G1 X6.1508 Y-0.0567
N2170 G1 X6.1507 Y-0.0492
N2180 G1 X6.1499 Y-0.0403
N2190 G1 X6.1483 Y-0.0313
N2200 G1 X6.1456 Y-0.0206
N2210 G1 X6.1414 Y-0.0087
N2220 G1 X6.1361 Y0.0035
N2230 G1 X6.1284 Y0.0178
N2240 G1 X6.1187 Y0.0328
N2250 G1 X6.1054 Y0.05
N2260 G1 X6.0888 Y0.0684
N2270 G1 X6.067 Y0.089
N2280 G1 X6.0387 Y0.1116
N2290 G1 X6.0081 Y0.1323
N2300 G1 X5.9761 Y0.1509
N2310 G1 X5.9431 Y0.1676
N2320 G1 X5.9093 Y0.1827
N2330 G1 X5.8748 Y0.1961
N2340 G1 X5.8398 Y0.2081
N2350 G1 X5.8043 Y0.2187
N2360 G1 X5.7685 Y0.2279
N2370 G1 X5.7324 Y0.2359
N2380 G1 X5.696 Y0.2428
N2390 G1 X5.6595 Y0.2487
N2400 G1 X5.6228 Y0.2537
N2410 G1 X5.5861 Y0.2578
N2420 G1 X5.5492 Y0.2613
N2430 G1 X5.5123 Y0.2642
N2440 G1 X5.4754 Y0.2665
N2450 G1 X5.4015 Y0.27
N2460 G1 X5.3275 Y0.2722
N2470 G1 X5.2165 Y0.2741
N2480 G1 X5.0315 Y0.2753
N2490 G1 X4.4765 Y0.2757
N2500 G1 X4.2914
N2510 G1 X3.9214 Y0.2755
N2520 G1 X3.8844 Y0.275
N2530 G1 X3.8474 Y0.2737
N2540 G1 X3.8105 Y0.2712
N2550 G1 X3.7738 Y0.2671
N2560 G1 X3.7373 Y0.2609
N2570 G1 X3.7012 Y0.2525
N2580 G1 X3.6669 Y0.242
N2590 G1 X3.6365 Y0.23
N2600 G1 X3.6108 Y0.2174
N2610 G1 X3.5864 Y0.2029
N2620 G1 X3.5655 Y0.188
N2630 G1 X3.5499 Y0.1749
N2640 G1 X3.5363 Y0.1615
N2650 G1 X3.5259 Y0.1495
N2660 G1 X3.5164 Y0.1365
N2670 G1 X3.5092 Y0.1247
N2680 G1 X3.5024 Y0.1112
N2690 G1 X3.4991 Y0.1004
N2700 G1 X3.498 Y0.0891
N2710 G1 X3.4991 Y0.0778
N2720 G1 X3.5023 Y0.0669
N2730 G1 X3.5077 Y0.0569
N2740 G1 X3.5148 Y0.048
N2750 G3 X3.5231 Y0.0429 R0.025
N2760 G1 X3.5267 Y0.0415 Z-0.1997
N2770 G1 X3.5303 Y0.0401 Z-0.1988
N2780 G1 X3.5337 Y0.0388 Z-0.1973
N2790 G1 X3.5368 Y0.0376 Z-0.1952
N2800 G1 X3.5396 Y0.0366 Z-0.1927
N2810 G1 X3.542 Y0.0357 Z-0.1897
N2820 G1 X3.5439 Y0.0349 Z-0.1863
N2830 G1 X3.5453 Y0.0344 Z-0.1827
N2840 G1 X3.5461 Y0.0341 Z-0.1789
N2850 G1 X3.5464 Y0.0339 Z-0.175
N2860 G0 Z0.2
N2870 G0 X6.1198 Y-0.0425
N2880 G0 Z-0.15
N2890 G1 Z-0.175 F24.
N2900 G1 X6.1201 Y-0.0426 Z-0.1789
N2910 G1 X6.1208 Y-0.0432 Z-0.1827
N2920 G1 X6.1219 Y-0.0442 Z-0.1863
N2930 G1 X6.1235 Y-0.0455 Z-0.1897
N2940 G1 X6.1254 Y-0.0471 Z-0.1927
N2950 G1 X6.1277 Y-0.049 Z-0.1952
N2960 G1 X6.1303 Y-0.0512 Z-0.1973
N2970 G1 X6.1331 Y-0.0535 Z-0.1988
N2980 G1 X6.136 Y-0.0559 Z-0.1997
N2990 G1 X6.1391 Y-0.0584 Z-0.2
N3000 G3 X6.1489 Y-0.0586 R0.0078
N3010 G1 X6.1825 Y-0.0302
N3020 G1 X6.1835 Y-0.0293
N3030 G1 X6.1852 Y-0.0212
N3040 G1 X6.1865 Y-0.0119
N3050 G1 X6.187 Y-0.0019
N3060 G1 X6.1866 Y0.0095
N3070 G1 X6.1853 Y0.0215
N3080 G1 X6.1827 Y0.0351
N3090 G1 X6.1788 Y0.0493
N3100 G1 X6.1729 Y0.0654
N3110 G1 X6.1653 Y0.0819
N3120 G1 X6.1548 Y0.1006
N3130 G1 X6.1421 Y0.1195
N3140 G1 X6.1257 Y0.1401
N3150 G1 X6.105 Y0.1622
N3160 G1 X6.0796 Y0.1853
N3170 G1 X6.0503 Y0.2079
N3180 G1 X6.0194 Y0.2283
N3190 G1 X5.9872 Y0.2466
N3200 G1 X5.9541 Y0.2631
N3210 G1 X5.9202 Y0.2779
N3220 G1 X5.8856 Y0.2911
N3230 G1 X5.8505 Y0.3029
N3240 G1 X5.8151 Y0.3134
N3250 G1 X5.7792 Y0.3227
N3260 G1 X5.7431 Y0.3308
N3270 G1 X5.7068 Y0.338
N3280 G1 X5.6703 Y0.3441
N3290 G1 X5.6337 Y0.3494
N3300 G1 X5.597 Y0.3539
N3310 G1 X5.5602 Y0.3578
N3320 G1 X5.5233 Y0.361
N3330 G1 X5.4864 Y0.3638
N3340 G1 X5.4125 Y0.3679
N3350 G1 X5.3386 Y0.3707
N3360 G1 X5.2276 Y0.3732
N3370 G1 X5.0796 Y0.3748
N3380 G1 X4.7836 Y0.3756
N3390 G1 X4.3766 Y0.3757
N3400 G1 X3.9695 Y0.3754
N3410 G1 X3.9325 Y0.3749
N3420 G1 X3.8955 Y0.3739
N3430 G1 X3.8586 Y0.372
N3440 G1 X3.8217 Y0.3691
N3450 G1 X3.7849 Y0.3648
N3460 G1 X3.7484 Y0.3591
N3470 G1 X3.7121 Y0.3518
N3480 G1 X3.6763 Y0.3424
N3490 G1 X3.6412 Y0.3308
N3500 G1 X3.6069 Y0.3168
N3510 G1 X3.5751 Y0.301
N3520 G1 X3.5467 Y0.2838
N3530 G1 X3.5222 Y0.2663
N3540 G1 X3.5014 Y0.2486
N3550 G1 X3.4834 Y0.2307
N3560 G1 X3.4698 Y0.2148
N3570 G1 X3.4593 Y0.2003
N3580 G1 X3.4504 Y0.1856
N3590 G1 X3.4431 Y0.1709
N3600 G1 X3.4399 Y0.1601
N3610 G1 X3.4388 Y0.1488
N3620 G1 X3.44 Y0.1376
N3630 G1 X3.4432 Y0.1268
N3640 G1 X3.4485 Y0.1168
N3650 G1 X3.4556 Y0.108
N3660 G1 X3.4748 Y0.0886
N3670 G3 X3.483 Y0.0834 R0.025
N3680 G1 X3.4867 Y0.082 Z-0.1997
N3690 G1 X3.4903 Y0.0807 Z-0.1988
N3700 G1 X3.4936 Y0.0794 Z-0.1973
N3710 G1 X3.4968 Y0.0782 Z-0.1952
N3720 G1 X3.4996 Y0.0771 Z-0.1927
N3730 G1 X3.5019 Y0.0762 Z-0.1897
N3740 G1 X3.5038 Y0.0755 Z-0.1863
N3750 G1 X3.5052 Y0.075 Z-0.1827
N3760 G1 X3.5061 Y0.0746 Z-0.1789
N3770 G1 X3.5064 Y0.0745 Z-0.175
N3780 G0 Z0.2
N3790 G0 X6.1535 Y-0.0141
N3800 G0 Z-0.15
N3810 G1 Z-0.175 F24.
N3820 G1 X6.1537 Y-0.0143 Z-0.1789
N3830 G1 X6.1544 Y-0.0149 Z-0.1827
N3840 G1 X6.1555 Y-0.0158 Z-0.1863
N3850 G1 X6.1571 Y-0.0171 Z-0.1897
N3860 G1 X6.1591 Y-0.0188 Z-0.1927
N3870 G1 X6.1614 Y-0.0207 Z-0.1952
N3880 G1 X6.164 Y-0.0228 Z-0.1973
N3890 G1 X6.1667 Y-0.0251 Z-0.1988
N3900 G1 X6.1697 Y-0.0276 Z-0.1997
N3910 G1 X6.1727 Y-0.0301 Z-0.2
N3920 G3 X6.1825 Y-0.0302 R0.0078
N3930 G1 X6.2161 Y-0.0018
N3940 G1 X6.2201 Y0.0019
N3950 G1 X6.2234 Y0.0095
N3960 G1 X6.2262 Y0.0178
N3970 G1 X6.2287 Y0.0274
N3980 G1 X6.2304 Y0.0379
N3990 G1 X6.2315 Y0.0497
N4000 G1 X6.2316 Y0.0626
N4010 G1 X6.2306 Y0.0766
N4020 G1 X6.2282 Y0.0922
N4030 G1 X6.2243 Y0.1085
N4040 G1 X6.2183 Y0.127
N4050 G1 X6.2106 Y0.1454
N4060 G1 X6.1997 Y0.1666
N4070 G1 X6.1866 Y0.1878
N4080 G1 X6.1698 Y0.2106
N4090 G1 X6.1487 Y0.2348
N4100 G1 X6.1232 Y0.2598
N4110 G1 X6.0948 Y0.2835
N4120 G1 X6.0647 Y0.305
N4130 G1 X6.0332 Y0.3245
N4140 G1 X6.0007 Y0.3422
N4150 G1 X5.9674 Y0.3582
N4160 G1 X5.9333 Y0.3727
N4170 G1 X5.8987 Y0.3858
N4180 G1 X5.8636 Y0.3975
N4190 G1 X5.8281 Y0.408
N4200 G1 X5.7923 Y0.4174
N4210 G1 X5.7563 Y0.4257
N4220 G1 X5.72 Y0.433
N4230 G1 X5.6836 Y0.4394
N4240 G1 X5.647 Y0.4451
N4250 G1 X5.6103 Y0.4499
N4260 G1 X5.5736 Y0.4541
N4270 G1 X5.5367 Y0.4577
N4280 G1 X5.4999 Y0.4608
N4290 G1 X5.463 Y0.4634
N4300 G1 X5.3891 Y0.4675
N4310 G1 X5.3151 Y0.4703
N4320 G1 X5.2041 Y0.4729
N4330 G1 X5.0561 Y0.4746
N4340 G1 X4.7971 Y0.4756
N4350 G1 X4.4641 Y0.4757
N4360 G1 X4.0571 Y0.4756
N4370 G1 X3.9831 Y0.475
N4380 G1 X3.9461 Y0.4742
N4390 G1 X3.9091 Y0.4728
N4400 G1 X3.8721 Y0.4707
N4410 G1 X3.8353 Y0.4676
N4420 G1 X3.7985 Y0.4636
N4430 G1 X3.7619 Y0.4583
N4440 G1 X3.7254 Y0.4517
N4450 G1 X3.6894 Y0.4435
N4460 G1 X3.6537 Y0.4335
N4470 G1 X3.6187 Y0.4217
N4480 G1 X3.5844 Y0.4079
N4490 G1 X3.551 Y0.3919
N4500 G1 X3.5187 Y0.3738
N4510 G1 X3.4879 Y0.3533
N4520 G1 X3.461 Y0.3322
N4530 G1 X3.4385 Y0.3116
N4540 G1 X3.4198 Y0.2912
N4550 G1 X3.4059 Y0.2736
N4560 G1 X3.3957 Y0.2582
N4570 G1 X3.3872 Y0.2428
N4580 G1 X3.3838 Y0.2353
N4590 G1 X3.3802 Y0.2248
N4600 G1 X3.3787 Y0.2138
N4610 G1 X3.3793 Y0.2027
N4620 G1 X3.382 Y0.1919
N4630 G1 X3.3866 Y0.1819
N4640 G1 X3.3931 Y0.1729
N4650 G1 X3.4159 Y0.1483
N4660 G1 X3.4556 Y0.108
N4670 G3 X3.4639 Y0.1028 R0.025
N4680 G1 X3.4676 Y0.1014 Z-0.1997
N4690 G1 X3.4711 Y0.1001 Z-0.1988
N4700 G1 X3.4745 Y0.0988 Z-0.1973
N4710 G1 X3.4776 Y0.0976 Z-0.1952
N4720 G1 X3.4804 Y0.0965 Z-0.1927
N4730 G1 X3.4828 Y0.0956 Z-0.1897
N4740 G1 X3.4847 Y0.0949 Z-0.1863
N4750 G1 X3.4861 Y0.0943 Z-0.1827
N4760 G1 X3.487 Y0.094 Z-0.1789
N4770 G1 X3.4873 Y0.0939 Z-0.175
N4780 G0 Z0.2
N4790 G0 X6.1871 Y0.0143
N4800 G0 Z-0.15
N4810 G1 Z-0.175 F24.
N4820 G1 X6.1873 Y0.0141 Z-0.1789
N4830 G1 X6.188 Y0.0135 Z-0.1827
N4840 G1 X6.1892 Y0.0125 Z-0.1863
N4850 G1 X6.1908 Y0.0112 Z-0.1897
N4860 G1 X6.1927 Y0.0096 Z-0.1927
N4870 G1 X6.195 Y0.0077 Z-0.1952
N4880 G1 X6.1976 Y0.0056 Z-0.1973
N4890 G1 X6.2004 Y0.0032 Z-0.1988
N4900 G1 X6.2033 Y0.0008 Z-0.1997
N4910 G1 X6.2063 Y-0.0017 Z-0.2
N4920 G3 X6.2161 Y-0.0018 R0.0078
N4930 G1 X6.2576 Y0.0338
N4940 G1 X6.2615 Y0.0376
N4950 G1 X6.2658 Y0.0443
N4960 G1 X6.2697 Y0.0516
N4970 G1 X6.2735 Y0.0605
N4980 G1 X6.2766 Y0.07
N4990 G1 X6.2794 Y0.0813
N5000 G1 X6.2814 Y0.093
N5010 G1 X6.2825 Y0.107
N5020 G1 X6.2826 Y0.1214
N5030 G1 X6.2813 Y0.1378
N5040 G1 X6.2785 Y0.1552
N5050 G1 X6.2739 Y0.1741
N5060 G1 X6.267 Y0.195
N5070 G1 X6.2581 Y0.2161
N5080 G1 X6.2457 Y0.24
N5090 G1 X6.2304 Y0.2643
N5100 G1 X6.2118 Y0.2893
N5110 G1 X6.1884 Y0.3159
N5120 G1 X6.1618 Y0.3417
N5130 G1 X6.1334 Y0.3654
N5140 G1 X6.1035 Y0.3871
N5150 G1 X6.0724 Y0.4071
N5160 G1 X6.0402 Y0.4254
N5170 G1 X6.0072 Y0.4421
N5180 G1 X5.9734 Y0.4573
N5190 G1 X5.9391 Y0.4711
N5200 G1 X5.9043 Y0.4836
N5210 G1 X5.8691 Y0.495
N5220 G1 X5.8335 Y0.5052
N5230 G1 X5.7976 Y0.5144
N5240 G1 X5.7616 Y0.5226
N5250 G1 X5.7253 Y0.5299
N5260 G1 X5.6889 Y0.5363
N5270 G1 X5.6523 Y0.542
N5280 G1 X5.6156 Y0.547
N5290 G1 X5.5789 Y0.5514
N5300 G1 X5.5421 Y0.5552
N5310 G1 X5.5052 Y0.5585
N5320 G1 X5.4683 Y0.5613
N5330 G1 X5.3945 Y0.5658
N5340 G1 X5.3205 Y0.569
N5350 G1 X5.2096 Y0.5721
N5360 G1 X5.1404 Y0.5733
N5370 G1 X5.1295 Y0.5724
N5380 G1 X5.119 Y0.5695
N5390 G1 X5.1092 Y0.5648
N5400 G1 X5.1004 Y0.5582
N5410 G1 X5.0966 Y0.5548
N5420 G1 X5.0851 Y0.5464
N5430 G1 X5.0809 Y0.5437
N5440 G1 X5.0557 Y0.5313
N5450 G1 X5.0473 Y0.5288
N5460 G1 X5.0389 Y0.5266
N5470 G1 X5.0305 Y0.5251
N5480 G1 X4.9548 Y0.5169
N5490 G1 X4.9211 Y0.516
N5500 G1 X4.8455
N5510 G1 X4.8118 Y0.5185
N5520 G1 X4.753 Y0.5252
N5530 G1 X4.7361 Y0.5274
N5540 G1 X4.652 Y0.5454
N5550 G1 X4.6436 Y0.5475
N5560 G1 X4.6073 Y0.5546
N5570 G1 X4.5709 Y0.5611
N5580 G1 X4.5342 Y0.5656
N5590 G1 X4.4973 Y0.5687
N5600 G1 X4.4604 Y0.5708
N5610 G1 X4.4234 Y0.5723
N5620 G1 X4.3494 Y0.5741
N5630 G1 X4.2384 Y0.5751
N5640 G1 X4.0904 Y0.5754
N5650 G1 X4.0164 Y0.5747
N5660 G1 X3.9794 Y0.5739
N5670 G1 X3.9424 Y0.5727
N5680 G1 X3.9054 Y0.5708
N5690 G1 X3.8685 Y0.5683
N5700 G1 X3.8317 Y0.565
N5710 G1 X3.7949 Y0.5606
N5720 G1 X3.7583 Y0.5552
N5730 G1 X3.7219 Y0.5485
N5740 G1 X3.6858 Y0.5405
N5750 G1 X3.6501 Y0.531
N5760 G1 X3.6147 Y0.52
N5770 G1 X3.5799 Y0.5073
N5780 G1 X3.5459 Y0.4929
N5790 G1 X3.5126 Y0.4767
N5800 G1 X3.4804 Y0.4585
N5810 G1 X3.4493 Y0.4384
N5820 G1 X3.4197 Y0.4162
N5830 G1 X3.3921 Y0.3923
N5840 G1 X3.3698 Y0.3695
N5850 G1 X3.3524 Y0.3487
N5860 G1 X3.3399 Y0.331
N5870 G1 X3.33 Y0.3143
N5880 G1 X3.327 Y0.3081
N5890 G1 X3.3226 Y0.2958
N5900 G1 X3.321 Y0.2828
N5910 G1 X3.3224 Y0.2697
N5920 G1 X3.3267 Y0.2573
N5930 G1 X3.3337 Y0.2462
N5940 G1 X3.3826 Y0.1851
N5950 G1 X3.3931 Y0.1729
N5960 G3 X3.401 Y0.1672 R0.025
N5970 G1 X3.4046 Y0.1656 Z-0.1997
N5980 G1 X3.4081 Y0.164 Z-0.1988
N5990 G1 X3.4114 Y0.1625 Z-0.1973
N6000 G1 X3.4144 Y0.1611 Z-0.1952
N6010 G1 X3.4171 Y0.1599 Z-0.1927
N6020 G1 X3.4194 Y0.1588 Z-0.1897
N6030 G1 X3.4213 Y0.158 Z-0.1863
N6040 G1 X3.4227 Y0.1574 Z-0.1827
N6050 G1 X3.4235 Y0.157 Z-0.1789
N6060 G1 X3.4238 Y0.1569 Z-0.175
N6070 G0 Z0.2
N6080 G0 X4.6476 Y0.5145
N6090 G0 Z-0.15
N6100 G1 Z-0.175 F24.
N6110 G1 X4.6477 Y0.5148 Z-0.1789
N6120 G1 Y0.5157 Z-0.1827
N6130 G1 X4.6478 Y0.5172 Z-0.1863
N6140 G1 X4.648 Y0.5193 Z-0.1897
N6150 G1 X4.6481 Y0.5218 Z-0.1927
N6160 G1 X4.6483 Y0.5248 Z-0.1952
N6170 G1 X4.6485 Y0.5281 Z-0.1973
N6180 G1 X4.6488 Y0.5317 Z-0.1988
N6190 G1 X4.649 Y0.5356 Z-0.1997
N6200 G1 X4.6493 Y0.5395 Z-0.2
N6210 G3 X4.6436 Y0.5475 R0.0078
N6220 G1 X4.6268 Y0.5517
N6230 G1 X4.5415 Y0.58
N6240 G1 X4.5259 Y0.586
N6250 G1 X4.4502 Y0.6206
N6260 G1 X4.4418 Y0.6246
N6270 G1 X4.4157 Y0.636
N6280 G1 X4.3892 Y0.6452
N6290 G1 X4.3534 Y0.6544
N6300 G1 X4.317 Y0.6608
N6310 G1 X4.2802 Y0.6652
N6320 G1 X4.2434 Y0.6683
N6330 G1 X4.2064 Y0.6705
N6340 G1 X4.1694 Y0.672
N6350 G1 X4.1325 Y0.6729
N6360 G1 X4.0955 Y0.6734
N6370 G1 X4.0585 Y0.6735
N6380 G1 X4.0215 Y0.6732
N6390 G1 X3.9845 Y0.6724
N6400 G1 X3.9475 Y0.6711
N6410 G1 X3.9105 Y0.6692
N6420 G1 X3.8736 Y0.6666
N6430 G1 X3.8368 Y0.6632
N6440 G1 X3.8 Y0.6589
N6450 G1 X3.7634 Y0.6536
N6460 G1 X3.7269 Y0.6473
N6470 G1 X3.6907 Y0.6398
N6480 G1 X3.6547 Y0.631
N6490 G1 X3.6191 Y0.621
N6500 G1 X3.5839 Y0.6096
N6510 G1 X3.5493 Y0.5967
N6520 G1 X3.5152 Y0.5822
N6530 G1 X3.4819 Y0.5661
N6540 G1 X3.4494 Y0.5484
N6550 G1 X3.4179 Y0.529
N6560 G1 X3.3874 Y0.508
N6570 G1 X3.3584 Y0.4851
N6580 G1 X3.3309 Y0.4603
N6590 G1 X3.3076 Y0.4356
N6600 G1 X3.2913 Y0.4153
N6610 G1 X3.2799 Y0.3986
N6620 G1 X3.2693 Y0.3793
N6630 G1 X3.2652 Y0.3672
N6640 G1 X3.2638 Y0.3544
N6650 G1 X3.2653 Y0.3417
N6660 G1 X3.2695 Y0.3296
N6670 G1 X3.2763 Y0.3187
N6680 G1 X3.3337 Y0.2462
N6690 G3 X3.3602 Y0.2386 R0.025
N6700 G1 X4.4374 Y0.5788
N6710 G3 X4.4418 Y0.6246 R0.025
N6720 G1 X4.4307 Y0.6304
N6730 G1 X4.3577 Y0.6734
N6740 G1 X4.3465 Y0.6808
N6750 G1 X4.3157 Y0.7031
N6760 G1 X4.2991 Y0.7142
N6770 G1 X4.2834 Y0.7229
N6780 G1 X4.2634 Y0.7321
N6790 G1 X4.2374 Y0.7415
N6800 G1 X4.2025 Y0.7511
N6810 G1 X4.1661 Y0.758
N6820 G1 X4.1294 Y0.7627
N6830 G1 X4.0926 Y0.7659
N6840 G1 X4.0556 Y0.7677
N6850 G1 X4.0186 Y0.7686
N6860 G1 X3.9816
N6870 G1 X3.9446 Y0.7677
N6880 G1 X3.9076 Y0.7661
N6890 G1 X3.8707 Y0.7636
N6900 G1 X3.8339 Y0.7603
N6910 G1 X3.7971 Y0.756
N6920 G1 X3.7605 Y0.7508
N6930 G1 X3.724 Y0.7447
N6940 G1 X3.6877 Y0.7374
N6950 G1 X3.6517 Y0.7291
N6960 G1 X3.6159 Y0.7196
N6970 G1 X3.5805 Y0.7088
N6980 G1 X3.5455 Y0.6968
N6990 G1 X3.511 Y0.6835
N7000 G1 X3.477 Y0.6687
N7010 G1 X3.4437 Y0.6526
N7020 G1 X3.4112 Y0.6349
N7030 G1 X3.3795 Y0.6158
N7040 G1 X3.3488 Y0.5952
N7050 G1 X3.3192 Y0.573
N7060 G1 X3.2909 Y0.5491
N7070 G1 X3.2643 Y0.5234
N7080 G1 X3.2437 Y0.5001
N7090 G1 X3.2289 Y0.4805
N7100 G1 X3.2186 Y0.4641
N7110 G1 X3.2171 Y0.4613
N7120 G1 X3.2126 Y0.4499
N7130 G1 X3.2105 Y0.4379
N7140 G1 X3.211 Y0.4257
N7150 G1 X3.214 Y0.4139
N7160 G1 X3.2194 Y0.403
N7170 G1 X3.2512 Y0.3531
N7180 G1 X3.273 Y0.3229
N7190 G1 X3.2763 Y0.3187
N7200 G3 X3.3036 Y0.3112 R0.025
N7210 G1 X4.3083 Y0.66
N7220 G3 X4.3157 Y0.7031 R0.025
N7230 G1 X4.2736 Y0.7344
N7240 G1 X4.2568 Y0.7483
N7250 G1 X4.2148 Y0.787
N7260 G1 X4.2013 Y0.7982
N7270 G1 X4.1891 Y0.8069
N7280 G1 X4.1742 Y0.8157
N7290 G1 X4.1554 Y0.8249
N7300 G1 X4.1317 Y0.8342
N7310 G1 X4.1019 Y0.8432
N7320 G1 X4.0657 Y0.8511
N7330 G1 X4.0291 Y0.8562
N7340 G1 X3.9922 Y0.8593
N7350 G1 X3.9552 Y0.8607
N7360 G1 X3.9182
N7370 G1 X3.8812 Y0.8594
N7380 G1 X3.8443 Y0.8571
N7390 G1 X3.8074 Y0.8537
N7400 G1 X3.7707 Y0.8493
N7410 G1 X3.7341 Y0.8439
N7420 G1 X3.6977 Y0.8374
N7430 G1 X3.6614 Y0.8299
N7440 G1 X3.6254 Y0.8213
N7450 G1 X3.5897 Y0.8117
N7460 G1 X3.5543 Y0.8009
N7470 G1 X3.5193 Y0.7889
N7480 G1 X3.4848 Y0.7756
N7490 G1 X3.4507 Y0.7611
N7500 G1 X3.4173 Y0.7453
N7510 G1 X3.3844 Y0.7283
N7520 G1 X3.3523 Y0.7099
N7530 G1 X3.321 Y0.6902
N7540 G1 X3.2906 Y0.6691
N7550 G1 X3.2613 Y0.6465
N7560 G1 X3.2333 Y0.6223
N7570 G1 X3.2068 Y0.5964
N7580 G1 X3.188 Y0.575
N7590 G1 X3.1749 Y0.5574
N7600 G1 X3.168 Y0.5464
N7610 G1 X3.1623 Y0.5346
N7620 G1 X3.1594 Y0.5218
N7630 G1 Y0.5088
N7640 G1 X3.1624 Y0.496
N7650 G1 X3.1681 Y0.4842
N7660 G1 X3.2194 Y0.403
N7670 G3 X3.2264 Y0.3961 R0.025
N7680 G3 X3.2487 Y0.3936 R0.025
N7690 G1 X4.2058 Y0.7458
N7700 G3 X4.2148 Y0.787 R0.025
N7710 G1 X4.1895 Y0.8104
N7720 G1 X4.1554 Y0.8488
N7730 G1 X4.1391 Y0.8674
N7740 G1 X4.1274 Y0.8795
N7750 G1 X4.1179 Y0.8879
N7760 G1 X4.1065 Y0.8964
N7770 G1 X4.0921 Y0.9055
N7780 G1 X4.075 Y0.9144
N7790 G1 X4.0536 Y0.9234
N7800 G1 X4.0269 Y0.9322
N7810 G1 X3.9941 Y0.9403
N7820 G1 X3.9575 Y0.9461
N7830 G1 X3.9207 Y0.9494
N7840 G1 X3.8837 Y0.9507
N7850 G1 X3.8467 Y0.9502
N7860 G1 X3.8098 Y0.9482
N7870 G1 X3.7729 Y0.9449
N7880 G1 X3.7362 Y0.9404
N7890 G1 X3.6996 Y0.9348
N7900 G1 X3.6632 Y0.928
N7910 G1 X3.627 Y0.9202
N7920 G1 X3.5911 Y0.9114
N7930 G1 X3.5555 Y0.9014
N7940 G1 X3.5202 Y0.8903
N7950 G1 X3.4852 Y0.8782
N7960 G1 X3.4507 Y0.8648
N7970 G1 X3.4167 Y0.8504
N7980 G1 X3.3831 Y0.8347
N7990 G1 X3.3502 Y0.8178
N8000 G1 X3.3179 Y0.7998
N8010 G1 X3.2863 Y0.7805
N8020 G1 X3.2555 Y0.76
N8030 G1 X3.2257 Y0.7381
N8040 G1 X3.1968 Y0.7149
N8050 G1 X3.1694 Y0.6901
N8060 G1 X3.1461 Y0.6661
N8070 G1 X3.1306 Y0.6472
N8080 G1 X3.1221 Y0.635
N8090 G1 X3.1162 Y0.6242
N8100 G1 X3.1126 Y0.6123
N8110 G1 X3.1117 Y0.6
N8120 G1 X3.1134 Y0.5877
N8130 G1 X3.1176 Y0.5761
N8140 G1 X3.1323 Y0.5464
N8150 G1 X3.1457 Y0.5212
N8160 G1 X3.1681 Y0.4842
N8170 G3 X3.1976 Y0.475 R0.025
N8180 G1 X4.1286 Y0.8283
N8190 G3 X4.1437 Y0.8588 R0.025
N8200 G3 X4.1391 Y0.8674 R0.025
N8210 G1 X4.1223 Y0.8868
N8220 G1 X4.1055 Y0.9094
N8230 G1 X4.0772 Y0.9497
N8240 G1 X4.0709 Y0.9578
N8250 G1 X4.0635 Y0.9658
N8260 G1 X4.0539 Y0.9747
N8270 G1 X4.0431 Y0.9832
N8280 G1 X4.0293 Y0.9924
N8290 G1 X4.0131 Y1.0014
N8300 G1 X3.9929 Y1.0106
N8310 G1 X3.9694 Y1.019
N8320 G1 X3.9401 Y1.027
N8330 G1 X3.9041 Y1.0338
N8340 G1 X3.8673 Y1.0376
N8350 G1 X3.8303 Y1.0391
N8360 G1 X3.7933 Y1.0386
N8370 G1 X3.7564 Y1.0364
N8380 G1 X3.7195 Y1.0328
N8390 G1 X3.6829 Y1.0278
N8400 G1 X3.6464 Y1.0216
N8410 G1 X3.6101 Y1.0142
N8420 G1 X3.5741 Y1.0057
N8430 G1 X3.5384 Y0.9961
N8440 G1 X3.503 Y0.9854
N8450 G1 X3.4679 Y0.9736
N8460 G1 X3.4332 Y0.9608
N8470 G1 X3.3989 Y0.9469
N8480 G1 X3.3651 Y0.9318
N8490 G1 X3.3318 Y0.9157
N8500 G1 X3.299 Y0.8986
N8510 G1 X3.2668 Y0.8803
N8520 G1 X3.2353 Y0.8608
N8530 G1 X3.2046 Y0.8402
N8540 G1 X3.1748 Y0.8183
N8550 G1 X3.146 Y0.7951
N8560 G1 X3.1185 Y0.7703
N8570 G1 X3.097 Y0.7482
N8580 G1 X3.0826 Y0.7307
N8590 G1 X3.0784 Y0.7247
N8600 G1 X3.0724 Y0.7138
N8610 G1 X3.0688 Y0.7019
N8620 G1 X3.0679 Y0.6896
N8630 G1 X3.0695 Y0.6773
N8640 G1 X3.0738 Y0.6656
N8650 G1 X3.1176 Y0.5761
N8660 G3 X3.1486 Y0.5645 R0.025
N8670 G1 X4.0651 Y0.9126
N8680 G3 X4.0808 Y0.9406 R0.025
N8690 G3 X4.0772 Y0.9497 R0.025
N8700 G1 X4.0634 Y0.9694
N8710 G1 X4.0546 Y0.9833
N8720 G1 X4.0312 Y1.0253
N8730 G1 X4.0256 Y1.0342
N8740 G1 X4.0199 Y1.042
N8750 G1 X4.0127 Y1.0502
N8760 G1 X4.0033 Y1.0595
N8770 G1 X3.9928 Y1.0682
N8780 G1 X3.9795 Y1.0775
N8790 G1 X3.9638 Y1.0868
N8800 G1 X3.9449 Y1.096
N8810 G1 X3.9226 Y1.1047
N8820 G1 X3.8952 Y1.1129
N8830 G1 X3.8622 Y1.12
N8840 G1 X3.8255 Y1.1249
N8850 G1 X3.7886 Y1.127
N8860 G1 X3.7516 Y1.1269
N8870 G1 X3.7146 Y1.1249
N8880 G1 X3.6778 Y1.1213
N8890 G1 X3.6412 Y1.1162
N8900 G1 X3.6047 Y1.1097
N8910 G1 X3.5685 Y1.1021
N8920 G1 X3.5326 Y1.0933
N8930 G1 X3.4969 Y1.0834
N8940 G1 X3.4616 Y1.0725
N8950 G1 X3.4266 Y1.0605
N8960 G1 X3.3919 Y1.0474
N8970 G1 X3.3577 Y1.0334
N8980 G1 X3.3239 Y1.0183
N8990 G1 X3.2906 Y1.0022
N9000 G1 X3.2578 Y0.9851
N9010 G1 X3.2256 Y0.9669
N9020 G1 X3.194 Y0.9476
N9030 G1 X3.1631 Y0.9272
N9040 G1 X3.1331 Y0.9056
N9050 G1 X3.104 Y0.8827
N9060 G1 X3.0761 Y0.8584
N9070 G1 X3.0551 Y0.8376
N9080 G1 X3.0407 Y0.8207
N9090 G1 X3.0391 Y0.8185
N9100 G1 X3.0333 Y0.8087
N9110 G1 X3.0296 Y0.7979
N9120 G1 X3.028 Y0.7867
N9130 G1 X3.0287 Y0.7754
N9140 G1 X3.0315 Y0.7644
N9150 G1 X3.044 Y0.7312
N9160 G1 X3.0508 Y0.7144
N9170 G1 X3.0627 Y0.6882
N9180 G1 X3.0738 Y0.6656
N9190 G3 X3.1045 Y0.6539 R0.025
N9200 G1 X4.0176 Y0.9905
N9210 G3 X4.0312 Y1.0253 R0.025
N9220 G1 X4.0173 Y1.0505
N9230 G1 X4.0042 Y1.0757
N9240 G1 X3.9935 Y1.1009
N9250 G1 X3.9897 Y1.1089
N9260 G1 X3.9851 Y1.1167
N9270 G1 X3.9793 Y1.125
N9280 G1 X3.9723 Y1.1334
N9290 G1 X3.9631 Y1.1429
N9300 G1 X3.9527 Y1.152
N9310 G1 X3.9397 Y1.1617
N9320 G1 X3.9242 Y1.1714
N9330 G1 X3.906 Y1.1808
N9340 G1 X3.8844 Y1.1899
N9350 G1 X3.8581 Y1.1986
N9360 G1 X3.8276 Y1.206
N9370 G1 X3.791 Y1.2118
N9380 G1 X3.7542 Y1.2146
N9390 G1 X3.7172 Y1.2151
N9400 G1 X3.6802 Y1.2135
N9410 G1 X3.6433 Y1.2101
N9420 G1 X3.6067 Y1.2052
N9430 G1 X3.5702 Y1.1989
N9440 G1 X3.534 Y1.1913
N9450 G1 X3.498 Y1.1826
N9460 G1 X3.4624 Y1.1727
N9470 G1 X3.427 Y1.1618
N9480 G1 X3.392 Y1.1498
N9490 G1 X3.3573 Y1.1369
N9500 G1 X3.323 Y1.1229
N9510 G1 X3.2892 Y1.108
N9520 G1 X3.2558 Y1.0921
N9530 G1 X3.2229 Y1.0752
N9540 G1 X3.1905 Y1.0572
N9550 G1 X3.1587 Y1.0383
N9560 G1 X3.1276 Y1.0183
N9570 G1 X3.0972 Y0.9972
N9580 G1 X3.0676 Y0.9749
N9590 G1 X3.0392 Y0.9513
N9600 G1 X3.0183 Y0.9313
N9610 G1 X3.0079 Y0.9197
N9620 G1 X3.0005 Y0.9095
N9630 G1 X2.9956 Y0.898
N9640 G1 X2.9932 Y0.8857
N9650 G1 X2.9935 Y0.8731
N9660 G1 X2.9965 Y0.8609
N9670 G1 X3.0315 Y0.7644
N9680 G3 X3.0629 Y0.7501 R0.025
N9690 G1 X3.9784 Y1.0684
N9700 G3 X3.9951 Y1.0913 R0.025
N9710 G3 X3.9935 Y1.1009 R0.025
N9720 G1 X3.9688 Y1.1597
N9730 G1 X3.9632 Y1.1765
N9740 G1 X3.9596 Y1.1857
N9750 G1 X3.9561 Y1.193
N9760 G1 X3.9512 Y1.2014
N9770 G1 X3.945 Y1.2102
N9780 G1 X3.9375 Y1.2192
N9790 G1 X3.9278 Y1.2292
N9800 G1 X3.9169 Y1.2386
N9810 G1 X3.9029 Y1.249
N9820 G1 X3.8872 Y1.2588
N9830 G1 X3.8677 Y1.2689
N9840 G1 X3.8459 Y1.278
N9850 G1 X3.8191 Y1.2868
N9860 G1 X3.7873 Y1.2944
N9870 G1 X3.7508 Y1.3001
N9880 G1 X3.7139 Y1.303
N9890 G1 X3.6769 Y1.3034
N9900 G1 X3.6399 Y1.3017
N9910 G1 X3.6031 Y1.2982
N9920 G1 X3.5664 Y1.2932
N9930 G1 X3.53 Y1.2868
N9940 G1 X3.4938 Y1.2791
N9950 G1 X3.4578 Y1.2702
N9960 G1 X3.4222 Y1.2603
N9970 G1 X3.3869 Y1.2492
N9980 G1 X3.3519 Y1.2372
N9990 G1 X3.3173 Y1.2242
N10000 G1 X3.283 Y1.2102
N10010 G1 X3.2491 Y1.1953
N10020 G1 X3.2157 Y1.1794
N10030 G1 X3.1828 Y1.1626
N10040 G1 X3.1503 Y1.1448
N10050 G1 X3.1184 Y1.126
N10060 G1 X3.0872 Y1.1062
N10070 G1 X3.0566 Y1.0854
N10080 G1 X3.0269 Y1.0633
N10090 G1 X2.9983 Y1.0399
N10100 G1 X2.9806 Y1.0228
N10110 G1 X2.9768 Y1.0185
N10120 G1 X2.9702 Y1.0094
N10130 G1 X2.9655 Y0.9992
N10140 G1 X2.9628 Y0.9883
N10150 G1 X2.9622 Y0.9771
N10160 G1 X2.9639 Y0.966
N10170 G1 X2.9723 Y0.9329
N10180 G1 X2.9801 Y0.9077
N10190 G1 X2.9887 Y0.8825
N10200 G1 X2.9965 Y0.8609
N10210 G3 X3.0274 Y0.8465 R0.025
N10220 G1 X3.9469 Y1.1457
N10230 G3 X3.9632 Y1.1765 R0.025
N10240 G1 X3.9502 Y1.2185
N10250 G1 X3.9389 Y1.2568
N10260 G1 X3.9363 Y1.2643
N10270 G1 X3.9328 Y1.2724
N10280 G1 X3.9282 Y1.2809
N10290 G1 X3.9225 Y1.2898
N10300 G1 X3.9149 Y1.2997
N10310 G1 X3.9063 Y1.3093
N10320 G1 X3.8949 Y1.32
N10330 G1 X3.8823 Y1.3302
N10340 G1 X3.8663 Y1.3411
N10350 G1 X3.8483 Y1.3513
N10360 G1 X3.826 Y1.3617
N10370 G1 X3.8014 Y1.3709
N10380 G1 X3.7716 Y1.3793
N10390 G1 X3.7362 Y1.3863
N10400 G1 X3.6995 Y1.3905
N10410 G1 X3.6625 Y1.3922
N10420 G1 X3.6255 Y1.3917
N10430 G1 X3.5886 Y1.3892
N10440 G1 X3.5518 Y1.3851
N10450 G1 X3.5152 Y1.3796
N10460 G1 X3.4789 Y1.3726
N10470 G1 X3.4428 Y1.3644
N10480 G1 X3.407 Y1.3551
N10490 G1 X3.3715 Y1.3447
N10500 G1 X3.3363 Y1.3333
N10510 G1 X3.3014 Y1.3208
N10520 G1 X3.2669 Y1.3075
N10530 G1 X3.2328 Y1.2932
N10540 G1 X3.199 Y1.278
N10550 G1 X3.1657 Y1.2619
N10560 G1 X3.1329 Y1.2449
N10570 G1 X3.1005 Y1.2269
N10580 G1 X3.0687 Y1.2081
N10590 G1 X3.0375 Y1.1882
N10600 G1 X3.007 Y1.1672
N10610 G1 X2.9775 Y1.1449
N10620 G1 X2.9575 Y1.1273
N10630 G1 X2.9535 Y1.1231
N10640 G1 X2.9462 Y1.1139
N10650 G1 X2.9409 Y1.1034
N10660 G1 X2.9378 Y1.0921
N10670 G1 X2.9371 Y1.0803
N10680 G1 X2.9387 Y1.0687
N10690 G1 X2.9639 Y0.966
N10700 G3 X2.9683 Y0.9573 R0.025
N10710 G3 X2.9951 Y0.9488 R0.025
N10720 G1 X3.9218 Y1.2267
N10730 G3 X3.9394 Y1.247 R0.025
N10740 G3 X3.9389 Y1.2568 R0.025
N10750 G1 X3.9355 Y1.2689
N10760 G1 X3.9243 Y1.3278
N10770 G1 X3.922 Y1.3372
N10780 G1 X3.9195 Y1.3447
N10790 G1 X3.9159 Y1.3533
N10800 G1 X3.9112 Y1.3625
N10810 G1 X3.9052 Y1.372
N10820 G1 X3.8975 Y1.3824
N10830 G1 X3.8886 Y1.3926
N10840 G1 X3.8769 Y1.404
N10850 G1 X3.864 Y1.4146
N10860 G1 X3.8473 Y1.4264
N10870 G1 X3.8292 Y1.437
N10880 G1 X3.8066 Y1.4479
N10890 G1 X3.7807 Y1.458
N10900 G1 X3.7509 Y1.4669
N10910 G1 X3.7152 Y1.4745
N10920 G1 X3.6785 Y1.4792
N10930 G1 X3.6416 Y1.4815
N10940 G1 X3.6046
N10950 G1 X3.5676 Y1.4796
N10960 G1 X3.5308 Y1.4761
N10970 G1 X3.4941 Y1.471
N10980 G1 X3.4577 Y1.4645
N10990 G1 X3.4215 Y1.4568
N11000 G1 X3.3856 Y1.448
N11010 G1 X3.3499 Y1.438
N11020 G1 X3.3146 Y1.427
N11030 G1 X3.2796 Y1.4151
N11040 G1 X3.2449 Y1.4022
N11050 G1 X3.2106 Y1.3883
N11060 G1 X3.1766 Y1.3736
N11070 G1 X3.1431 Y1.358
N11080 G1 X3.1099 Y1.3415
N11090 G1 X3.0773 Y1.3242
N11100 G1 X3.0451 Y1.3059
N11110 G1 X3.0134 Y1.2867
N11120 G1 X2.9825 Y1.2665
N11130 G1 X2.9525 Y1.2448
N11140 G1 X2.9372 Y1.2318
N11150 G1 X2.9291 Y1.2235
N11160 G1 X2.9229 Y1.2137
N11170 G1 X2.9187 Y1.2028
N11180 G1 X2.9168 Y1.1914
N11190 G1 X2.9172 Y1.1797
N11200 G1 X2.9225 Y1.1429
N11210 G1 X2.9282 Y1.113
N11220 G1 X2.9387 Y1.0687
N11230 G3 X2.9692 Y1.0513 R0.025
N11240 G1 X3.906 Y1.2998
N11250 G3 X3.9243 Y1.3278 R0.025
N11260 G1 X3.9166 Y1.3698
N11270 G1 X3.9137 Y1.4034
N11280 G1 X3.913 Y1.4087
N11290 G1 X3.9114 Y1.4161
N11300 G1 X3.9088 Y1.4246
N11310 G1 X3.9054 Y1.4332
N11320 G1 X3.9006 Y1.4431
N11330 G1 X3.8947 Y1.453
N11340 G1 X3.887 Y1.4639
N11350 G1 X3.8778 Y1.4749
N11360 G1 X3.8663 Y1.4866
N11370 G1 X3.8528 Y1.4982
N11380 G1 X3.8364 Y1.5103
N11390 G1 X3.8175 Y1.5219
N11400 G1 X3.7944 Y1.5337
N11410 G1 X3.7691 Y1.5442
N11420 G1 X3.7385 Y1.5541
N11430 G1 X3.7025 Y1.5626
N11440 G1 X3.6659 Y1.5681
N11450 G1 X3.6291 Y1.5712
N11460 G1 X3.5921 Y1.572
N11470 G1 X3.5551 Y1.571
N11480 G1 X3.5182 Y1.5682
N11490 G1 X3.4814 Y1.5638
N11500 G1 X3.4449 Y1.5581
N11510 G1 X3.4086 Y1.5511
N11520 G1 X3.3725 Y1.5429
N11530 G1 X3.3367 Y1.5336
N11540 G1 X3.3011 Y1.5232
N11550 G1 X3.2659 Y1.5119
N11560 G1 X3.231 Y1.4996
N11570 G1 X3.1964 Y1.4865
N11580 G1 X3.1622 Y1.4724
N11590 G1 X3.1283 Y1.4575
N11600 G1 X3.0948 Y1.4417
N11610 G1 X3.0618 Y1.4251
N11620 G1 X3.0292 Y1.4077
N11630 G1 X2.997 Y1.3893
N11640 G1 X2.9655 Y1.3699
N11650 G1 X2.9359 Y1.3497
N11660 G1 X2.9241 Y1.3403
N11670 G1 X2.9157 Y1.3319
N11680 G1 X2.9091 Y1.3219
N11690 G1 X2.9046 Y1.3109
N11700 G1 X2.9026 Y1.2991
N11710 G1 X2.9029 Y1.2872
N11720 G1 X2.9172 Y1.1797
N11730 G3 X2.9475 Y1.1595 R0.025
N11740 G1 X3.8944 Y1.3779
N11750 G3 X3.9122 Y1.3937 R0.025
N11760 G3 X3.9137 Y1.4034 R0.025
N11770 G1 X3.9091 Y1.4622
N11780 G1 X3.9086 Y1.479
N11790 G1 X3.9082 Y1.4844
N11800 G1 X3.9069 Y1.4922
N11810 G1 X3.9049 Y1.5005
N11820 G1 X3.9017 Y1.5099
N11830 G1 X3.8976 Y1.5194
N11840 G1 X3.8918 Y1.5303
N11850 G1 X3.885 Y1.5411
N11860 G1 X3.8759 Y1.5531
N11870 G1 X3.8656 Y1.5647
N11880 G1 X3.8521 Y1.5776
N11890 G1 X3.8372 Y1.5897
N11900 G1 X3.818 Y1.6029
N11910 G1 X3.7972 Y1.6149
N11920 G1 X3.7718 Y1.6269
N11930 G1 X3.7419 Y1.6382
N11940 G1 X3.7074 Y1.6481
N11950 G1 X3.6711 Y1.6555
N11960 G1 X3.6344 Y1.6602
N11970 G1 X3.5975 Y1.6627
N11980 G1 X3.5605 Y1.6631
N11990 G1 X3.5235 Y1.6617
N12000 G1 X3.4867 Y1.6587
N12010 G1 X3.4499 Y1.6542
N12020 G1 X3.4134 Y1.6484
N12030 G1 X3.3771 Y1.6414
N12040 G1 X3.341 Y1.6332
N12050 G1 X3.3051 Y1.624
N12060 G1 X3.2696 Y1.6138
N12070 G1 X3.2343 Y1.6026
N12080 G1 X3.1993 Y1.5905
N12090 G1 X3.1647 Y1.5775
N12100 G1 X3.1304 Y1.5637
N12110 G1 X3.0964 Y1.549
N12120 G1 X3.0628 Y1.5335
N12130 G1 X3.0296 Y1.5171
N12140 G1 X2.9969 Y1.4999
N12150 G1 X2.9646 Y1.4817
N12160 G1 X2.9331 Y1.4623
N12170 G1 X2.9183 Y1.4517
N12180 G1 X2.9098 Y1.4442
N12190 G1 X2.9028 Y1.4352
N12200 G1 X2.8978 Y1.4251
N12210 G1 X2.8948 Y1.4142
N12220 G1 X2.894 Y1.4029
N12230 G1 X2.8949 Y1.3698
N12240 G1 X2.8963 Y1.3446
N12250 G1 X2.8998 Y1.311
N12260 G1 X2.9029 Y1.2872
N12270 G3 X2.9064 Y1.2781 R0.025
N12280 G3 X2.9324 Y1.2668 R0.025
N12290 G1 X3.8885 Y1.4548
N12300 G3 X3.9086 Y1.479 R0.025
N12310 G1 X3.9084 Y1.4874
N12320 G1 X3.9101 Y1.5508
N12330 G1 X3.91 Y1.5573
N12340 G1 X3.9091 Y1.5654
N12350 G1 X3.9076 Y1.5737
N12360 G1 X3.905 Y1.5833
N12370 G1 X3.9014 Y1.5932
N12380 G1 X3.8964 Y1.6042
N12390 G1 X3.8903 Y1.6154
N12400 G1 X3.8821 Y1.6278
N12410 G1 X3.8724 Y1.6401
N12420 G1 X3.86 Y1.6535
N12430 G1 X3.8458 Y1.6666
N12440 G1 X3.8277 Y1.6807
N12450 G1 X3.8081 Y1.6936
N12460 G1 X3.7837 Y1.7071
N12470 G1 X3.7554 Y1.7198
N12480 G1 X3.7236 Y1.7311
N12490 G1 X3.6878 Y1.7407
N12500 G1 X3.6515 Y1.7476
N12510 G1 X3.6147 Y1.752
N12520 G1 X3.5778 Y1.7543
N12530 G1 X3.5408 Y1.7548
N12540 G1 X3.5038 Y1.7535
N12550 G1 X3.4669 Y1.7507
N12560 G1 X3.4301 Y1.7465
N12570 G1 X3.3936 Y1.7411
N12580 G1 X3.3572 Y1.7344
N12590 G1 X3.321 Y1.7266
N12600 G1 X3.2851 Y1.7177
N12610 G1 X3.2494 Y1.7079
N12620 G1 X3.214 Y1.6971
N12630 G1 X3.1789 Y1.6854
N12640 G1 X3.1441 Y1.6729
N12650 G1 X3.1096 Y1.6595
N12660 G1 X3.0754 Y1.6452
N12670 G1 X3.0416 Y1.6302
N12680 G1 X3.0082 Y1.6143
N12690 G1 X2.9752 Y1.5976
N12700 G1 X2.9428 Y1.5798
N12710 G1 X2.915 Y1.5623
N12720 G1 X2.9067 Y1.5549
N12730 G1 X2.9 Y1.5461
N12740 G1 X2.8951 Y1.5361
N12750 G1 X2.8921 Y1.5254
N12760 G1 X2.8913 Y1.5144
N12770 G1 X2.894 Y1.4029
N12780 G3 X2.9227 Y1.3796 R0.025
N12790 G1 X3.889 Y1.5277
N12800 G3 X3.9101 Y1.5508 R0.025
N12810 G1 X3.9109 Y1.5714
N12820 G1 X3.9133 Y1.5966
N12830 G1 X3.9162 Y1.618
N12840 G1 X3.9168 Y1.6254
N12850 G1 Y1.6328
N12860 G1 X3.9161 Y1.6411
N12870 G1 X3.9147 Y1.65
N12880 G1 X3.9123 Y1.6602
N12890 G1 X3.9088 Y1.6705
N12900 G1 X3.9039 Y1.6822
N12910 G1 X3.8978 Y1.694
N12920 G1 X3.8895 Y1.7072
N12930 G1 X3.8798 Y1.7202
N12940 G1 X3.8673 Y1.7345
N12950 G1 X3.8528 Y1.7485
N12960 G1 X3.8352 Y1.7631
N12970 G1 X3.8141 Y1.7778
N12980 G1 X3.7904 Y1.7917
N12990 G1 X3.7619 Y1.8054
N13000 G1 X3.7286 Y1.8183
N13010 G1 X3.6931 Y1.8288
N13020 G1 X3.6569 Y1.8367
N13030 G1 X3.6204 Y1.8422
N13040 G1 X3.5835 Y1.8457
N13050 G1 X3.5465 Y1.8472
N13060 G1 X3.5095 Y1.847
N13070 G1 X3.4726 Y1.8453
N13080 G1 X3.4357 Y1.8422
N13090 G1 X3.399 Y1.8378
N13100 G1 X3.3624 Y1.8321
N13110 G1 X3.326 Y1.8253
N13120 G1 X3.2899 Y1.8175
N13130 G1 X3.2539 Y1.8087
N13140 G1 X3.2182 Y1.7989
N13150 G1 X3.1828 Y1.7882
N13160 G1 X3.1477 Y1.7766
N13170 G1 X3.1128 Y1.7642
N13180 G1 X3.0782 Y1.751
N13190 G1 X3.044 Y1.7369
N13200 G1 X3.0101 Y1.7221
N13210 G1 X2.9766 Y1.7064
N13220 G1 X2.9436 Y1.6896
N13230 G1 X2.9252 Y1.6789
N13240 G1 X2.9161 Y1.6724
N13250 G1 X2.9084 Y1.6642
N13260 G1 X2.9024 Y1.6548
N13270 G1 X2.8984 Y1.6443
N13280 G1 X2.8964 Y1.6333
N13290 G1 X2.8916 Y1.5714
N13300 G1 X2.8909 Y1.5378
N13310 G1 X2.8913 Y1.5144
N13320 G3 X2.919 Y1.4908 R0.025
N13330 G1 X3.8942 Y1.5974
N13340 G3 X3.9162 Y1.618 R0.025
N13350 G1 X3.9234 Y1.6722
N13360 G1 X3.9248 Y1.6806
N13370 G1 X3.9267 Y1.689
N13380 G1 X3.9277 Y1.6947
N13390 G1 X3.9283 Y1.702
N13400 G1 X3.9284 Y1.7098
N13410 G1 X3.9277 Y1.7189
N13420 G1 X3.9263 Y1.7283
N13430 G1 X3.9237 Y1.7392
N13440 G1 X3.9201 Y1.7502
N13450 G1 X3.9149 Y1.7629
N13460 G1 X3.9084 Y1.7754
N13470 G1 X3.8997 Y1.7896
N13480 G1 X3.8895 Y1.8034
N13490 G1 X3.8762 Y1.8187
N13500 G1 X3.861 Y1.8336
N13510 G1 X3.8422 Y1.8493
N13520 G1 X3.8196 Y1.8652
N13530 G1 X3.7946 Y1.88
N13540 G1 X3.7645 Y1.8947
N13550 G1 X3.73 Y1.9082
N13560 G1 X3.6946 Y1.919
N13570 G1 X3.6586 Y1.9273
N13580 G1 X3.6221 Y1.9334
N13590 G1 X3.5853 Y1.9375
N13600 G1 X3.5484 Y1.9398
N13610 G1 X3.5114 Y1.9404
N13620 G1 X3.4744 Y1.9395
N13630 G1 X3.4375 Y1.9372
N13640 G1 X3.4006 Y1.9336
N13650 G1 X3.3639 Y1.9287
N13660 G1 X3.3274 Y1.9228
N13670 G1 X3.2911 Y1.9158
N13680 G1 X3.255 Y1.9078
N13690 G1 X3.2191 Y1.8988
N13700 G1 X3.1834 Y1.889
N13710 G1 X3.148 Y1.8783
N13720 G1 X3.1128 Y1.8667
N13730 G1 X3.0779 Y1.8543
N13740 G1 X3.0434 Y1.8412
N13750 G1 X3.0091 Y1.8272
N13760 G1 X2.9752 Y1.8124
N13770 G1 X2.9419 Y1.7963
N13780 G1 X2.9348 Y1.7922
N13790 G1 X2.9259 Y1.7858
N13800 G1 X2.9184 Y1.7779
N13810 G1 X2.9124 Y1.7687
N13820 G1 X2.9083 Y1.7586
N13830 G1 X2.9061 Y1.7479
N13840 G1 X2.8964 Y1.6333
N13850 G3 X2.923 Y1.6071 R0.025
N13860 G1 X3.9041 Y1.6704
N13870 G3 X3.9267 Y1.689 R0.025
N13880 G1 X3.9366 Y1.7311
N13890 G1 X3.944 Y1.7609
N13900 G1 X3.9451 Y1.7665
N13910 G1 X3.9459 Y1.7739
N13920 G1 X3.9462 Y1.7826
N13930 G1 X3.9458 Y1.7917
N13940 G1 X3.9445 Y1.8023
N13950 G1 X3.9422 Y1.813
N13960 G1 X3.9385 Y1.8255
N13970 G1 X3.9337 Y1.838
N13980 G1 X3.9268 Y1.8523
N13990 G1 X3.9186 Y1.8664
N14000 G1 X3.9077 Y1.882
N14010 G1 X3.8949 Y1.8976
N14020 G1 X3.879 Y1.914
N14030 G1 X3.8597 Y1.931
N14040 G1 X3.8379 Y1.9473
N14050 G1 X3.8112 Y1.964
N14060 G1 X3.7801 Y1.9802
N14070 G1 X3.746 Y1.9947
N14080 G1 X3.7109 Y2.0065
N14090 G1 X3.6751 Y2.0159
N14100 G1 X3.6389 Y2.0231
N14110 G1 X3.6022 Y2.0284
N14120 G1 X3.5654 Y2.0319
N14130 G1 X3.5284 Y2.0337
N14140 G1 X3.4914 Y2.034
N14150 G1 X3.4544 Y2.0329
N14160 G1 X3.4175 Y2.0305
N14170 G1 X3.3807 Y2.0269
N14180 G1 X3.344 Y2.0222
N14190 G1 X3.3074 Y2.0164
N14200 G1 X3.2711 Y2.0096
N14210 G1 X3.2349 Y2.0018
N14220 G1 X3.1989 Y1.9931
N14230 G1 X3.1632 Y1.9835
N14240 G1 X3.1277 Y1.9731
N14250 G1 X3.0924 Y1.9619
N14260 G1 X3.0574 Y1.9498
N14270 G1 X3.0227 Y1.937
N14280 G1 X2.9884 Y1.9232
N14290 G1 X2.9601 Y1.9108
N14300 G1 X2.9503 Y1.9053
N14310 G1 X2.9418 Y1.898
N14320 G1 X2.9348 Y1.8892
N14330 G1 X2.9296 Y1.8793
N14340 G1 X2.9264 Y1.8685
N14350 G1 X2.9129 Y1.7983
N14360 G1 X2.9079 Y1.7647
N14370 G1 X2.9061 Y1.7479
N14380 G3 X2.9316 Y1.7211 R0.025
N14390 G1 X3.9205 Y1.7428
N14400 G3 X3.944 Y1.7609 R0.025
N14410 G1 X3.9493 Y1.7815
N14420 G1 X3.9517 Y1.7899
N14430 G1 X3.9638 Y1.8235
N14440 G1 X3.9658 Y1.8303
N14450 G1 X3.9674 Y1.8377
N14460 G1 X3.9685 Y1.8454
N14470 G1 X3.969 Y1.8546
N14480 G1 X3.9688 Y1.8642
N14490 G1 X3.9676 Y1.8753
N14500 G1 X3.9654 Y1.8869
N14510 G1 X3.9619 Y1.8998
N14520 G1 X3.957 Y1.9134
N14530 G1 X3.9502 Y1.9284
N14540 G1 X3.9418 Y1.9434
N14550 G1 X3.9306 Y1.9603
N14560 G1 X3.9177 Y1.9766
N14570 G1 X3.9009 Y1.9947
N14580 G1 X3.8816 Y2.0124
N14590 G1 X3.8586 Y2.0303
N14600 G1 X3.831 Y2.0485
N14610 G1 X3.7988 Y2.0661
N14620 G1 X3.765 Y2.0812
N14630 G1 X3.7302 Y2.0939
N14640 G1 X3.6947 Y2.1042
N14650 G1 X3.6587 Y2.1125
N14660 G1 X3.6222 Y2.1188
N14670 G1 X3.5855 Y2.1234
N14680 G1 X3.5486 Y2.1264
N14690 G1 X3.5116 Y2.128
N14700 G1 X3.4746 Y2.1281
N14710 G1 X3.4376 Y2.1269
N14720 G1 X3.4007 Y2.1245
N14730 G1 X3.3639 Y2.121
N14740 G1 X3.3272 Y2.1164
N14750 G1 X3.2906 Y2.1108
N14760 G1 X3.2542 Y2.1042
N14770 G1 X3.2179 Y2.0967
N14780 G1 X3.1819 Y2.0883
N14790 G1 X3.1461 Y2.079
N14800 G1 X3.1105 Y2.0689
N14810 G1 X3.0751 Y2.058
N14820 G1 X3.04 Y2.0463
N14830 G1 X3.0052 Y2.0337
N14840 G1 X2.9845 Y2.0252
N14850 G1 X2.9748 Y2.02
N14860 G1 X2.9662 Y2.0132
N14870 G1 X2.959 Y2.0049
N14880 G1 X2.9536 Y1.9953
N14890 G1 X2.95 Y1.985
N14900 G1 X2.9437 Y1.9579
N14910 G1 X2.9264 Y1.8685
N14920 G3 X2.9503 Y1.8396 R0.025
N14930 G1 X3.9397 Y1.8078
N14940 G3 X3.9584 Y1.8153 R0.025
N14950 G3 X3.9638 Y1.8235 R0.025
N14960 G1 X3.9793 Y1.8666
N14970 G1 X3.9893 Y1.8907
N14980 G1 X3.9912 Y1.8957
N14990 G1 X3.9932 Y1.9024
N15000 G1 X3.9949 Y1.9103
N15010 G1 X3.996 Y1.9191
N15020 G1 X3.9965 Y1.9289
N15030 G1 X3.9961 Y1.9396
N15040 G1 X3.9947 Y1.9514
N15050 G1 X3.9922 Y1.9643
N15060 G1 X3.9883 Y1.9781
N15070 G1 X3.9828 Y1.993
N15080 G1 X3.9753 Y2.009
N15090 G1 X3.966 Y2.0255
N15100 G1 X3.9536 Y2.0438
N15110 G1 X3.9394 Y2.0614
N15120 G1 X3.921 Y2.0809
N15130 G1 X3.8995 Y2.1004
N15140 G1 X3.8746 Y2.1194
N15150 G1 X3.8447 Y2.1387
N15160 G1 X3.8121 Y2.1562
N15170 G1 X3.7783 Y2.1713
N15180 G1 X3.7436 Y2.1841
N15190 G1 X3.7082 Y2.1947
N15200 G1 X3.6722 Y2.2035
N15210 G1 X3.6359 Y2.2105
N15220 G1 X3.5993 Y2.2158
N15230 G1 X3.5625 Y2.2195
N15240 G1 X3.5255 Y2.2218
N15250 G1 X3.4885 Y2.2228
N15260 G1 X3.4515 Y2.2225
N15270 G1 X3.4146 Y2.221
N15280 G1 X3.3777 Y2.2184
N15290 G1 X3.3408 Y2.2147
N15300 G1 X3.3041 Y2.21
N15310 G1 X3.2676 Y2.2044
N15320 G1 X3.2311 Y2.1978
N15330 G1 X3.1949 Y2.1903
N15340 G1 X3.1588 Y2.182
N15350 G1 X3.123 Y2.1729
N15360 G1 X3.0873 Y2.163
N15370 G1 X3.0519 Y2.1522
N15380 G1 X3.0226 Y2.1423
N15390 G1 X3.0125 Y2.1378
N15400 G1 X3.0035 Y2.1315
N15410 G1 X2.9958 Y2.1236
N15420 G1 X2.9898 Y2.1144
N15430 G1 X2.9856 Y2.1042
N15440 G1 X2.9563 Y2.0083
N15450 G1 X2.9507 Y1.9879
N15460 G1 X2.95 Y1.985
N15470 G3 X2.9725 Y1.955 R0.025
N15480 G1 X3.9649 Y1.8768
N15490 G3 X3.9834 Y1.8829 R0.025
N15500 G3 X3.9893 Y1.8907 R0.025
N15510 G1 X4.0012 Y1.9159
N15520 G1 X4.0196 Y1.9538
N15530 G1 X4.0226 Y1.9607
N15540 G1 X4.0249 Y1.9676
N15550 G1 X4.0269 Y1.976
N15560 G1 X4.0284 Y1.9848
N15570 G1 X4.0292 Y1.9953
N15580 G1 Y2.0062
N15590 G1 X4.0282 Y2.019
N15600 G1 X4.0261 Y2.0319
N15610 G1 X4.0224 Y2.047
N15620 G1 X4.0174 Y2.0622
N15630 G1 X4.0101 Y2.0794
N15640 G1 X4.001 Y2.0968
N15650 G1 X3.9892 Y2.1156
N15660 G1 X3.9742 Y2.1356
N15670 G1 X3.957 Y2.1552
N15680 G1 X3.9352 Y2.1762
N15690 G1 X3.9092 Y2.1976
N15700 G1 X3.8793 Y2.2184
N15710 G1 X3.8473 Y2.237
N15720 G1 X3.8141 Y2.2533
N15730 G1 X3.7798 Y2.2673
N15740 G1 X3.7448 Y2.2794
N15750 G1 X3.7093 Y2.2895
N15760 G1 X3.6732 Y2.298
N15770 G1 X3.6369 Y2.3048
N15780 G1 X3.6003 Y2.3101
N15790 G1 X3.5635 Y2.3139
N15800 G1 X3.5265 Y2.3165
N15810 G1 X3.4896 Y2.3177
N15820 G1 X3.4526 Y2.3178
N15830 G1 X3.4156 Y2.3167
N15840 G1 X3.3786 Y2.3145
N15850 G1 X3.3418 Y2.3113
N15860 G1 X3.305 Y2.3071
N15870 G1 X3.2684 Y2.302
N15880 G1 X3.2318 Y2.296
N15890 G1 X3.1955 Y2.2891
N15900 G1 X3.1593 Y2.2814
N15910 G1 X3.1233 Y2.2729
N15920 G1 X3.0875 Y2.2635
N15930 G1 X3.0631 Y2.2563
N15940 G1 X3.0512 Y2.2512
N15950 G1 X3.0407 Y2.2437
N15960 G1 X3.0321 Y2.234
N15970 G1 X3.0258 Y2.2226
N15980 G1 X3.014 Y2.1932
N15990 G1 X3.0026 Y2.1596
N16000 G1 X2.9856 Y2.1042
N16010 G3 X3.0064 Y2.0729 R0.025
N16020 G1 X3.9942 Y1.9408
N16030 G3 X4.0135 Y1.9463 R0.025
N16040 G3 X4.0196 Y1.9538 R0.025
N16050 G1 X4.03 Y1.9747
N16060 G1 X4.0466 Y2.0021
N16070 G1 X4.0529 Y2.0123
N16080 G1 X4.0557 Y2.0173
N16090 G1 X4.0588 Y2.0241
N16100 G1 X4.0615 Y2.0314
N16110 G1 X4.0639 Y2.0401
N16120 G1 X4.0656 Y2.0494
N16130 G1 X4.0668 Y2.0603
N16140 G1 X4.0671 Y2.0719
N16150 G1 X4.0664 Y2.0851
N16160 G1 X4.0645 Y2.099
N16170 G1 X4.0611 Y2.1148
N16180 G1 X4.0562 Y2.1308
N16190 G1 X4.049 Y2.1492
N16200 G1 X4.0401 Y2.1674
N16210 G1 X4.028 Y2.1878
N16220 G1 X4.0131 Y2.2089
N16230 G1 X3.9953 Y2.2302
N16240 G1 X3.9731 Y2.2528
N16250 G1 X3.9466 Y2.2757
N16260 G1 X3.9168 Y2.2976
N16270 G1 X3.8854 Y2.3172
N16280 G1 X3.8527 Y2.3344
N16290 G1 X3.8189 Y2.3496
N16300 G1 X3.7844 Y2.3629
N16310 G1 X3.7492 Y2.3744
N16320 G1 X3.7135 Y2.3842
N16330 G1 X3.6775 Y2.3924
N16340 G1 X3.6411 Y2.3992
N16350 G1 X3.6045 Y2.4045
N16360 G1 X3.5677 Y2.4086
N16370 G1 X3.5308 Y2.4113
N16380 G1 X3.4938 Y2.4129
N16390 G1 X3.4568 Y2.4133
N16400 G1 X3.4198 Y2.4127
N16410 G1 X3.3829 Y2.411
N16420 G1 X3.346 Y2.4082
N16430 G1 X3.3091 Y2.4046
N16440 G1 X3.2724 Y2.4
N16450 G1 X3.2358 Y2.3946
N16460 G1 X3.1994 Y2.3883
N16470 G1 X3.163 Y2.3812
N16480 G1 X3.1269 Y2.3732
N16490 G1 X3.1134 Y2.3697
N16500 G1 X3.1011 Y2.3649
N16510 G1 X3.0902 Y2.3575
N16520 G1 X3.0813 Y2.3478
N16530 G1 X3.0747 Y2.3363
N16540 G1 X3.0258 Y2.2226
N16550 G3 X3.0446 Y2.1893 R0.025
N16560 G1 X4.0275 Y2.0018
N16570 G3 X4.046 Y2.0055 R0.025
N16580 G3 X4.0529 Y2.0123 R0.025
N16590 G1 X4.082 Y2.0587
N16600 G1 X4.0886 Y2.0678
N16610 G1 X4.0934 Y2.075
N16620 G1 X4.0967 Y2.0809
N16630 G1 X4.1 Y2.0881
N16640 G1 X4.103 Y2.0961
N16650 G1 X4.1055 Y2.1053
N16660 G1 X4.1075 Y2.1155
N16670 G1 X4.1087 Y2.1271
N16680 G1 X4.1091 Y2.1397
N16690 G1 X4.1084 Y2.1538
N16700 G1 X4.1063 Y2.169
N16710 G1 X4.1027 Y2.1858
N16720 G1 X4.0974 Y2.2032
N16730 G1 X4.0897 Y2.2231
N16740 G1 X4.0801 Y2.2427
N16750 G1 X4.0671 Y2.2647
N16760 G1 X4.0509 Y2.2876
N16770 G1 X4.0319 Y2.3105
N16780 G1 X4.0082 Y2.3346
N16790 G1 X3.9803 Y2.3589
N16800 G1 X3.9505 Y2.3808
N16810 G1 X3.9193 Y2.4007
N16820 G1 X3.8869 Y2.4185
N16830 G1 X3.8534 Y2.4343
N16840 G1 X3.8192 Y2.4484
N16850 G1 X3.7843 Y2.4607
N16860 G1 X3.7489 Y2.4714
N16870 G1 X3.7131 Y2.4807
N16880 G1 X3.6769 Y2.4885
N16890 G1 X3.6405 Y2.4949
N16900 G1 X3.6038 Y2.5001
N16910 G1 X3.567 Y2.504
N16920 G1 X3.5301 Y2.5068
N16930 G1 X3.4932 Y2.5085
N16940 G1 X3.4562 Y2.5091
N16950 G1 X3.4192 Y2.5086
N16960 G1 X3.3822 Y2.5072
N16970 G1 X3.3453 Y2.5048
N16980 G1 X3.3084 Y2.5015
N16990 G1 X3.2716 Y2.4973
N17000 G1 X3.235 Y2.4923
N17010 G1 X3.1985 Y2.4864
N17020 G1 X3.1733 Y2.4816
N17030 G1 X3.1612 Y2.4779
N17040 G1 X3.1502 Y2.4717
N17050 G1 X3.1407 Y2.4633
N17060 G1 X3.1334 Y2.453
N17070 G1 X3.1102 Y2.4116
N17080 G1 X3.1013 Y2.3948
N17090 G1 X3.0854 Y2.3612
N17100 G1 X3.0747 Y2.3363
N17110 G3 X3.073 Y2.3267 R0.025
N17120 G3 X3.0919 Y2.303 R0.025
N17130 G1 X4.063 Y2.0592
N17140 G3 X4.0886 Y2.0678 R0.025
N17150 G1 X4.1071 Y2.0923
N17160 G1 X4.1335 Y2.126
N17170 G1 X4.1377 Y2.1318
N17180 G1 X4.1415 Y2.1382
N17190 G1 X4.1451 Y2.1456
N17200 G1 X4.1484 Y2.1541
N17210 G1 X4.1514 Y2.1639
N17220 G1 X4.1537 Y2.1746
N17230 G1 X4.1554 Y2.1868
N17240 G1 X4.1561 Y2.2001
N17250 G1 X4.1557 Y2.2149
N17260 G1 X4.1539 Y2.2311
N17270 G1 X4.1506 Y2.2486
N17280 G1 X4.1452 Y2.268
N17290 G1 X4.1381 Y2.2877
N17300 G1 X4.1279 Y2.31
N17310 G1 X4.1153 Y2.3326
N17320 G1 X4.0992 Y2.3566
N17330 G1 X4.079 Y2.3821
N17340 G1 X4.0546 Y2.4083
N17350 G1 X4.0273 Y2.4332
N17360 G1 X3.9982 Y2.4561
N17370 G1 X3.9675 Y2.4768
N17380 G1 X3.9357 Y2.4956
N17390 G1 X3.9028 Y2.5127
N17400 G1 X3.8691 Y2.528
N17410 G1 X3.8347 Y2.5416
N17420 G1 X3.7998 Y2.5538
N17430 G1 X3.7644 Y2.5645
N17440 G1 X3.7286 Y2.5738
N17450 G1 X3.6924 Y2.5818
N17460 G1 X3.656 Y2.5885
N17470 G1 X3.6195 Y2.5941
N17480 G1 X3.5827 Y2.5984
N17490 G1 X3.5459 Y2.6016
N17500 G1 X3.5089 Y2.6038
N17510 G1 X3.4719 Y2.6049
N17520 G1 X3.4349 Y2.605
N17530 G1 X3.3979 Y2.6042
N17540 G1 X3.361 Y2.6025
N17550 G1 X3.3241 Y2.5998
N17560 G1 X3.2872 Y2.5964
N17570 G1 X3.2505 Y2.592
N17580 G1 X3.2363 Y2.5898
N17590 G1 X3.2238 Y2.5864
N17600 G1 X3.2123 Y2.5802
N17610 G1 X3.2024 Y2.5717
N17620 G1 X3.1947 Y2.5612
N17630 G1 X3.1334 Y2.453
N17640 G3 X3.1481 Y2.4176 R0.025
N17650 G1 X4.107 Y2.1182
N17660 G3 X4.1335 Y2.126 R0.025
N17670 G1 X4.1475 Y2.1435
N17680 G1 X4.1643 Y2.162
N17690 G1 X4.1783 Y2.1764
N17700 G1 X4.1819 Y2.1804
N17710 G1 X4.1862 Y2.1863
N17720 G1 X4.1903 Y2.1928
N17730 G1 X4.1945 Y2.2009
N17740 G1 X4.1981 Y2.2095
N17750 G1 X4.2015 Y2.2199
N17760 G1 X4.2042 Y2.2309
N17770 G1 X4.2062 Y2.2441
N17780 G1 X4.2073 Y2.2578
N17790 G1 X4.2072 Y2.2739
N17800 G1 X4.2058 Y2.2903
N17810 G1 X4.2027 Y2.3094
N17820 G1 X4.1977 Y2.3291
N17830 G1 X4.1904 Y2.3508
N17840 G1 X4.1801 Y2.3747
N17850 G1 X4.1676 Y2.3984
N17860 G1 X4.1509 Y2.4246
N17870 G1 X4.1303 Y2.452
N17880 G1 X4.1057 Y2.4796
N17890 G1 X4.0789 Y2.5052
N17900 G1 X4.0504 Y2.5288
N17910 G1 X4.0204 Y2.5505
N17920 G1 X3.9892 Y2.5703
N17930 G1 X3.957 Y2.5885
N17940 G1 X3.9239 Y2.6051
N17950 G1 X3.8901 Y2.6201
N17960 G1 X3.8557 Y2.6336
N17970 G1 X3.8207 Y2.6458
N17980 G1 X3.7853 Y2.6566
N17990 G1 X3.7496 Y2.6661
N18000 G1 X3.7135 Y2.6744
N18010 G1 X3.6772 Y2.6815
N18020 G1 X3.6407 Y2.6875
N18030 G1 X3.604 Y2.6923
N18040 G1 X3.5672 Y2.696
N18050 G1 X3.5303 Y2.6988
N18060 G1 X3.4933 Y2.7005
N18070 G1 X3.4563 Y2.7013
N18080 G1 X3.4193 Y2.7012
N18090 G1 X3.3823 Y2.7001
N18100 G1 X3.3454 Y2.6983
N18110 G1 X3.3142 Y2.6959
N18120 G1 X3.3017 Y2.6936
N18130 G1 X3.29 Y2.6886
N18140 G1 X3.2797 Y2.6812
N18150 G1 X3.2712 Y2.6717
N18160 G1 X3.2141 Y2.5918
N18170 G1 X3.1947 Y2.5612
N18180 G3 X3.208 Y2.5261 R0.025
N18190 G1 X4.1522 Y2.171
N18200 G3 X4.1783 Y2.1764 R0.025
N18210 G1 X4.2232 Y2.2223
N18220 G1 X4.226 Y2.2247
N18230 G1 X4.2305 Y2.2291
N18240 G1 X4.2349 Y2.2342
N18250 G1 X4.2397 Y2.2406
N18260 G1 X4.2441 Y2.2477
N18270 G1 X4.2485 Y2.2562
N18280 G1 X4.2525 Y2.2656
N18290 G1 X4.2561 Y2.2767
N18300 G1 X4.259 Y2.2888
N18310 G1 X4.2612 Y2.3027
N18320 G1 X4.2624 Y2.3177
N18330 G1 X4.2623 Y2.335
N18340 G1 X4.2608 Y2.3527
N18350 G1 X4.2573 Y2.3735
N18360 G1 X4.252 Y2.3946
N18370 G1 X4.244 Y2.4183
N18380 G1 X4.2329 Y2.4441
N18390 G1 X4.2193 Y2.4698
N18400 G1 X4.2016 Y2.4978
N18410 G1 X4.1795 Y2.527
N18420 G1 X4.1549 Y2.5547
N18430 G1 X4.1283 Y2.5804
N18440 G1 X4.1001 Y2.6044
N18450 G1 X4.0706 Y2.6267
N18460 G1 X4.0398 Y2.6472
N18470 G1 X4.008 Y2.6662
N18480 G1 X3.9754 Y2.6836
N18490 G1 X3.942 Y2.6996
N18500 G1 X3.908 Y2.7142
N18510 G1 X3.8734 Y2.7274
N18520 G1 X3.8384 Y2.7394
N18530 G1 X3.803 Y2.7501
N18540 G1 X3.7673 Y2.7597
N18550 G1 X3.7312 Y2.7681
N18560 G1 X3.695 Y2.7754
N18570 G1 X3.6585 Y2.7816
N18580 G1 X3.6218 Y2.7867
N18590 G1 X3.5851 Y2.7908
N18600 G1 X3.5482 Y2.794
N18610 G1 X3.5113 Y2.7962
N18620 G1 X3.4743 Y2.7974
N18630 G1 X3.4373 Y2.7978
N18640 G1 X3.4003 Y2.7974
N18650 G1 X3.3919 Y2.7969
N18660 G1 X3.3805 Y2.7952
N18670 G1 X3.3696 Y2.7912
N18680 G1 X3.3597 Y2.7852
N18690 G1 X3.3512 Y2.7773
N18700 G1 X3.34 Y2.7645
N18710 G1 X3.3136 Y2.7309
N18720 G1 X3.2712 Y2.6717
N18730 G3 X3.2817 Y2.6351 R0.025
N18740 G1 X4.1999 Y2.2213
N18750 G3 X4.226 Y2.2247 R0.025
N18760 G1 X4.24 Y2.2367
N18770 G1 X4.2499 Y2.2436
N18780 G1 X4.2568 Y2.2481
N18790 G1 X4.2652 Y2.2524
N18800 G1 X4.2748 Y2.2575
N18810 G1 X4.2793 Y2.2605
N18820 G1 X4.2876 Y2.2673
N18830 G1 X4.2951 Y2.2751
N18840 G1 X4.3017 Y2.2837
N18850 G1 X4.3074 Y2.2928
N18860 G1 X4.3124 Y2.3024
N18870 G1 X4.3184 Y2.3174
N18880 G1 X4.3228 Y2.333
N18890 G1 X4.3259 Y2.3489
N18900 G1 X4.3276 Y2.365
N18910 G1 X4.3281 Y2.3812
N18920 G1 X4.3274 Y2.3974
N18930 G1 X4.3257 Y2.4135
N18940 G1 X4.3231 Y2.4295
N18950 G1 X4.3182 Y2.4505
N18960 G1 X4.3119 Y2.4712
N18970 G1 X4.3043 Y2.4914
N18980 G1 X4.2955 Y2.5111
N18990 G1 X4.2857 Y2.5304
N19000 G1 X4.2749 Y2.549
N19010 G1 X4.2601 Y2.5716
N19020 G1 X4.244 Y2.5933
N19030 G1 X4.2269 Y2.6142
N19040 G1 X4.2087 Y2.6342
N19050 G1 X4.1896 Y2.6532
N19060 G1 X4.1697 Y2.6715
N19070 G1 X4.1448 Y2.6923
N19080 G1 X4.1182 Y2.7124
N19090 G1 X4.0897 Y2.732
N19100 G1 X4.0598 Y2.7506
N19110 G1 X4.033 Y2.7659
N19120 G1 X4.0036 Y2.7813
N19130 G1 X3.972 Y2.7964
N19140 G1 X3.9381 Y2.811
N19150 G1 X3.9021 Y2.825
N19160 G1 X3.8639 Y2.8383
N19170 G1 X3.8237 Y2.8506
N19180 G1 X3.7811 Y2.862
N19190 G1 X3.7361 Y2.8723
N19200 G1 X3.6933 Y2.8805
N19210 G1 X3.6535 Y2.8869
N19220 G1 X3.6119 Y2.8923
N19230 G1 X3.5683 Y2.8967
N19240 G1 X3.5227 Y2.8999
N19250 G1 X3.4894 Y2.9013
N19260 G1 X3.4769 Y2.9002
N19270 G1 X3.4649 Y2.8965
N19280 G1 X3.454 Y2.8903
N19290 G1 X3.4446 Y2.8819
N19300 G1 X3.3512 Y2.7773
N19310 G3 X3.3585 Y2.7395 R0.025
N19320 G1 X4.2454 Y2.2542
N19330 G3 X4.2652 Y2.2524 R0.025
N19340 G1 X4.2905 Y2.2615
N19350 G1 X4.3073 Y2.2643
N19360 G1 X4.3178 Y2.2665
N19370 G1 X4.323 Y2.2682
N19380 G1 X4.3328 Y2.2727
N19390 G1 X4.342 Y2.2784
N19400 G1 X4.3504 Y2.2851
N19410 G1 X4.3582 Y2.2926
N19420 G1 X4.3652 Y2.3008
N19430 G1 X4.3716 Y2.3095
N19440 G1 X4.3799 Y2.3234
N19450 G1 X4.3867 Y2.3381
N19460 G1 X4.3922 Y2.3533
N19470 G1 X4.3964 Y2.369
N19480 G1 X4.3993 Y2.3849
N19490 G1 X4.4012 Y2.401
N19500 G1 X4.402 Y2.4172
N19510 G1 X4.4018 Y2.4334
N19520 G1 X4.4001 Y2.4549
N19530 G1 X4.397 Y2.4763
N19540 G1 X4.3924 Y2.4974
N19550 G1 X4.3866 Y2.5182
N19560 G1 X4.3796 Y2.5386
N19570 G1 X4.3715 Y2.5586
N19580 G1 X4.36 Y2.583
N19590 G1 X4.347 Y2.6068
N19600 G1 X4.3329 Y2.6297
N19610 G1 X4.3175 Y2.6519
N19620 G1 X4.3011 Y2.6734
N19630 G1 X4.2837 Y2.694
N19640 G1 X4.2654 Y2.7139
N19650 G1 X4.2424 Y2.7367
N19660 G1 X4.2184 Y2.7585
N19670 G1 X4.1927 Y2.7798
N19680 G1 X4.1646 Y2.801
N19690 G1 X4.1392 Y2.8186
N19700 G1 X4.1119 Y2.8361
N19710 G1 X4.0827 Y2.8533
N19720 G1 X4.0514 Y2.8702
N19730 G1 X4.0216 Y2.8851
N19740 G1 X3.9862 Y2.9012
N19750 G1 X3.9486 Y2.9166
N19760 G1 X3.9088 Y2.9313
N19770 G1 X3.8665 Y2.9452
N19780 G1 X3.849 Y2.9504
N19790 G3 X3.8393 Y2.9509 R0.025
N19800 G3 X3.8226 Y2.9115 R0.025
N19810 G1 X4.2847 Y2.2746
N19820 G3 X4.3073 Y2.2643 R0.025
N19830 G1 X4.3157 Y2.2654
N19840 G1 X4.3325
N19850 G1 X4.3409 Y2.2648
N19860 G1 X4.3455 Y2.264
N19870 G1 X4.3509 Y2.2633
N19880 G1 X4.3563 Y2.2632
N19890 G1 X4.3617 Y2.2636
N19900 G1 X4.3675 Y2.2645
N19910 G1 X4.3738 Y2.2661
N19920 G1 X4.3805 Y2.2683
N19930 G1 X4.3877 Y2.2713
N19940 G1 X4.3952 Y2.2752
N19950 G1 X4.403 Y2.28
N19960 G1 X4.411 Y2.286
N19970 G1 X4.4192 Y2.2931
N19980 G1 X4.4274 Y2.3016
N19990 G1 X4.4355 Y2.3114
N20000 G1 X4.4434 Y2.3227
N20010 G1 X4.451 Y2.3356
N20020 G1 X4.4581 Y2.3502
N20030 G1 X4.4644 Y2.3666
N20040 G1 X4.4699 Y2.3849
N20050 G1 X4.4742 Y2.4051
N20060 G1 X4.4771 Y2.4274
N20070 G1 X4.4783 Y2.4517
N20080 G1 X4.4774 Y2.4782
N20090 G1 X4.4742 Y2.5068
N20100 G1 X4.4682 Y2.5376
N20110 G1 X4.459 Y2.5705
N20120 G1 X4.4462 Y2.6052
N20130 G1 X4.4307 Y2.6388
N20140 G1 X4.4128 Y2.6712
N20150 G1 X4.3928 Y2.7023
N20160 G1 X4.3709 Y2.7321
N20170 G1 X4.3473 Y2.7607
N20180 G1 X4.3222 Y2.7879
N20190 G1 X4.2958 Y2.8138
N20200 G1 X4.2682 Y2.8385
N20210 G1 X4.2396 Y2.8618
N20220 G1 X4.221 Y2.8756
N20230 G1 X4.1908 Y2.897
N20240 G1 X4.1635 Y2.9145
N20250 G3 X4.1274 Y2.8849 R0.025
N20260 G1 X4.3269 Y2.2806
N20270 G3 X4.3455 Y2.264 R0.025
N20280 G1 X4.3577 Y2.2619
N20290 G1 X4.3661 Y2.2595
N20300 G1 X4.383 Y2.2535
N20310 G1 X4.3932 Y2.2501
N20320 G1 X4.3985 Y2.249
N20330 G1 X4.4038 Y2.2483
N20340 G1 X4.4146 Y2.2481
N20350 G1 X4.4254 Y2.2492
N20360 G1 X4.4359 Y2.2516
N20370 G1 X4.4461 Y2.255
N20380 G1 X4.456 Y2.2594
N20390 G1 X4.4655 Y2.2646
N20400 G1 X4.4789 Y2.2736
N20410 G1 X4.4913 Y2.284
N20420 G1 X4.5027 Y2.2956
N20430 G1 X4.513 Y2.3081
N20440 G1 X4.5223 Y2.3214
N20450 G1 X4.5305 Y2.3353
N20460 G1 X4.5378 Y2.3498
N20470 G1 X4.5441 Y2.3647
N20480 G1 X4.5495 Y2.38
N20490 G1 X4.554 Y2.3955
N20500 G1 X4.5587 Y2.4166
N20510 G1 X4.5619 Y2.438
N20520 G1 X4.5637 Y2.4595
N20530 G1 X4.5642 Y2.4811
N20540 G1 X4.5636 Y2.5027
N20550 G1 X4.5617 Y2.5242
N20560 G1 X4.5588 Y2.5456
N20570 G1 X4.5536 Y2.5721
N20580 G1 X4.547 Y2.5982
N20590 G1 X4.5389 Y2.624
N20600 G1 X4.5295 Y2.6493
N20610 G1 X4.5188 Y2.6741
N20620 G1 X4.507 Y2.6984
N20630 G1 X4.4941 Y2.7221
N20640 G1 X4.4802 Y2.7452
N20650 G1 X4.4623 Y2.7723
N20660 G1 X4.4426 Y2.799
N20670 G1 X4.4214 Y2.8253
N20680 G1 X4.3987 Y2.851
N20690 G1 X4.376 Y2.8746
N20700 G1 X4.3542 Y2.8956
N20710 G1 X4.3422 Y2.9065
N20720 G1 X4.3364 Y2.9138
N20730 G1 X4.3319 Y2.9218
N20740 G1 X4.3286 Y2.9305
N20750 G1 X4.3268 Y2.9395
N20760 G1 X4.3264 Y2.9488
N20770 G1 X4.3275 Y2.958
N20780 G1 X4.3301 Y2.9669
N20790 G1 X4.334 Y2.9753
N20800 G1 X4.3392 Y2.9829
N20810 G1 X4.3455 Y2.9897
N20820 G1 X4.3528 Y2.9953
N20830 G1 X4.3609 Y2.9998
N20840 G1 X4.3958 Y3.0121
N20850 G1 X4.4698 Y3.0138
N20860 G1 X4.5808 Y3.0149
N20870 G1 X4.9138 Y3.0155
N20880 G1 X5.3949
N20890 G1 X5.4319
N20900 G1 X5.4688 Y3.0182
N20910 G1 X5.5057 Y3.0201
N20920 G1 X5.5797 Y3.0224
N20930 G1 X5.6907 Y3.0238
N20940 G1 X5.9497 Y3.0245
N20950 G1 X6.0989 Y3.0246
N20960 G1 X6.1079 Y3.0258
N20970 G1 X6.1162 Y3.0295
N20980 G1 X6.1232 Y3.0353
N20990 G1 X6.1284 Y3.0427
N21000 G1 X6.1314 Y3.0513
N21010 G1 X6.1319 Y3.0604
N21020 G1 X6.1299 Y3.0693
N21030 G1 X6.1256 Y3.0773
N21040 G1 X6.1192 Y3.0838
N21050 G3 X6.1103 Y3.0876 R0.025
N21060 G1 X6.1065 Y3.0885 Z-0.1997
N21070 G1 X6.1027 Y3.0893 Z-0.1988
N21080 G1 X6.0992 Y3.09 Z-0.1973
N21090 G1 X6.0959 Y3.0907 Z-0.1952
N21100 G1 X6.093 Y3.0913 Z-0.1927
N21110 G1 X6.0905 Y3.0919 Z-0.1897
N21120 G1 X6.0885 Y3.0923 Z-0.1863
N21130 G1 X6.087 Y3.0926 Z-0.1827
N21140 G1 X6.0861 Y3.0928 Z-0.1789
N21150 G1 X6.0858 Y3.0929 Z-0.175
N21160 G0 Z0.2
N21170 G0 X3.5058 Y2.9115
N21180 G0 Z-0.15
N21190 G1 Z-0.175 F24.
N21200 G1 X3.5059 Y2.9118 Z-0.1789
N21210 G1 X3.5061 Y2.9127 Z-0.1827
N21220 G1 X3.5064 Y2.9141 Z-0.1863
N21230 G1 X3.5069 Y2.9161 Z-0.1897
N21240 G1 X3.5075 Y2.9186 Z-0.1927
N21250 G1 X3.5082 Y2.9215 Z-0.1952
N21260 G1 X3.5089 Y2.9248 Z-0.1973
N21270 G1 X3.5098 Y2.9283 Z-0.1988
N21280 G1 X3.5106 Y2.932 Z-0.1997
N21290 G1 X3.5115 Y2.9358 Z-0.2
N21300 G3 X3.5032 Y2.9409 R0.0052
N21310 G1 X3.4832 Y2.9225
N21320 G1 X3.4601 Y2.8989
N21330 G1 X3.4446 Y2.8819
N21340 G3 X3.4504 Y2.8447 R0.025
N21350 G1 X4.3745 Y2.2585
N21360 G1 X4.3796 Y2.2553
N21370 G3 X4.383 Y2.2535 R0.025
N21380 G1 X4.3914 Y2.2497
N21390 G1 X4.4082 Y2.2396
N21400 G1 X4.4166 Y2.2334
N21410 G1 X4.4209 Y2.2301
N21420 G1 X4.4255 Y2.2272
N21430 G1 X4.4303 Y2.2248
N21440 G1 X4.4353 Y2.2227
N21450 G1 X4.4456 Y2.2198
N21460 G1 X4.4563 Y2.2182
N21470 G1 X4.4671 Y2.2179
N21480 G1 X4.4779 Y2.2187
N21490 G1 X4.4885 Y2.2204
N21500 G1 X4.499 Y2.2231
N21510 G1 X4.5092 Y2.2266
N21520 G1 X4.524 Y2.2332
N21530 G1 X4.5381 Y2.2412
N21540 G1 X4.5514 Y2.2505
N21550 G1 X4.5638 Y2.2608
N21560 G1 X4.5754 Y2.2721
N21570 G1 X4.5862 Y2.2842
N21580 G1 X4.5961 Y2.2971
N21590 G1 X4.6051 Y2.3105
N21600 G1 X4.6134 Y2.3244
N21610 G1 X4.6231 Y2.3437
N21620 G1 X4.6314 Y2.3636
N21630 G1 X4.6384 Y2.3841
N21640 G1 X4.644 Y2.4049
N21650 G1 X4.6484 Y2.4261
N21660 G1 X4.6516 Y2.4474
N21670 G1 X4.6536 Y2.4689
N21680 G1 X4.6546 Y2.4905
N21690 G1 X4.6543 Y2.5175
N21700 G1 X4.6524 Y2.5444
N21710 G1 X4.649 Y2.5712
N21720 G1 X4.6442 Y2.5978
N21730 G1 X4.6381 Y2.6241
N21740 G1 X4.6307 Y2.6501
N21750 G1 X4.6222 Y2.6757
N21760 G1 X4.6125 Y2.7009
N21770 G1 X4.6017 Y2.7256
N21780 G1 X4.5875 Y2.7547
N21790 G1 X4.5773 Y2.7738
N21800 G1 X4.5736 Y2.7822
N21810 G1 X4.5712 Y2.7912
N21820 G1 X4.5704 Y2.8004
N21830 G1 X4.5709 Y2.8096
N21840 G1 X4.573 Y2.8187
N21850 G1 X4.5764 Y2.8272
N21860 G1 X4.5812 Y2.8352
N21870 G1 X4.5871 Y2.8423
N21880 G1 X4.6011 Y2.8544
N21890 G1 X4.6349 Y2.8695
N21900 G1 X4.6703 Y2.8803
N21910 G1 X4.7065 Y2.888
N21920 G1 X4.7431 Y2.8934
N21930 G1 X4.7799 Y2.8973
N21940 G1 X4.8168 Y2.9
N21950 G1 X4.8537 Y2.9019
N21960 G1 X4.8907 Y2.9033
N21970 G1 X4.9647 Y2.9049
N21980 G1 X5.0757 Y2.906
N21990 G1 X5.3434 Y2.9067
N22000 G1 X5.4384 Y2.9091
N22010 G1 X5.5493 Y2.9122
N22020 G1 X5.6603 Y2.914
N22030 G1 X5.7713 Y2.9149
N22040 G1 X5.8083 Y2.9151
N22050 G1 X5.8452 Y2.9179
N22060 G1 X5.8822 Y2.9199
N22070 G1 X5.9192 Y2.9213
N22080 G1 X6.0301 Y2.9238
N22090 G1 X6.0551 Y2.926
N22100 G1 X6.0735 Y2.9292
N22110 G1 X6.0902 Y2.9334
N22120 G1 X6.1036 Y2.938
N22130 G1 X6.1162 Y2.9435
N22140 G1 X6.1272 Y2.9494
N22150 G1 X6.1583 Y2.9694
N22160 G1 X6.1672 Y2.976
N22170 G1 X6.1743 Y2.9846
N22180 G1 X6.1791 Y2.9945
N22190 G1 X6.1815 Y3.0054
N22200 G1 X6.1813 Y3.0165
N22210 G1 X6.1784 Y3.0272
N22220 G1 X6.1731 Y3.037
N22230 G1 X6.1657 Y3.0452
N22240 G3 X6.1571 Y3.0497 R0.025
N22250 G1 X6.1533 Y3.0508 Z-0.1997
N22260 G1 X6.1496 Y3.0519 Z-0.1988
N22270 G1 X6.1462 Y3.053 Z-0.1973
N22280 G1 X6.143 Y3.0539 Z-0.1952
N22290 G1 X6.1401 Y3.0548 Z-0.1927
N22300 G1 X6.1377 Y3.0555 Z-0.1897
N22310 G1 X6.1357 Y3.0561 Z-0.1863
N22320 G1 X6.1343 Y3.0565 Z-0.1827
N22330 G1 X6.1334 Y3.0567 Z-0.1789
N22340 G1 X6.1331 Y3.0568 Z-0.175
N22350 G0 Z0.2
N22360 G0 X6.2284 Y0.0495
N22370 G0 Z-0.15
N22380 G1 Z-0.175 F24.
N22390 G1 X6.2286 Y0.0493 Z-0.1789
N22400 G1 X6.2293 Y0.0487 Z-0.1827
N22410 G1 X6.2305 Y0.0478 Z-0.1863
N22420 G1 X6.2321 Y0.0465 Z-0.1897
N22430 G1 X6.2341 Y0.0449 Z-0.1927
N22440 G1 X6.2364 Y0.0431 Z-0.1952
N22450 G1 X6.239 Y0.041 Z-0.1973
N22460 G1 X6.2418 Y0.0387 Z-0.1988
N22470 G1 X6.2448 Y0.0363 Z-0.1997
N22480 G1 X6.2478 Y0.0338 Z-0.2
N22490 G3 X6.2576 R0.0078
N22500 G1 X6.2752 Y0.0506
N22510 G1 X6.3002 Y0.0761
N22520 G1 X6.3045 Y0.0806
N22530 G1 X6.31 Y0.087
N22540 G1 X6.3146 Y0.0932
N22550 G1 X6.3188 Y0.1002
N22560 G1 X6.3231 Y0.1086
N22570 G1 X6.3269 Y0.1177
N22580 G1 X6.3304 Y0.1287
N22590 G1 X6.3332 Y0.1404
N22600 G1 X6.3352 Y0.1539
N22610 G1 X6.3362 Y0.1685
N22620 G1 X6.3361 Y0.1849
N22630 G1 X6.3344 Y0.2028
N22640 G1 X6.3311 Y0.222
N22650 G1 X6.3255 Y0.2436
N22660 G1 X6.3181 Y0.2653
N22670 G1 X6.3074 Y0.2898
N22680 G1 X6.2934 Y0.3157
N22690 G1 X6.2766 Y0.3418
N22700 G1 X6.2551 Y0.3699
N22710 G1 X6.2303 Y0.3973
N22720 G1 X6.2036 Y0.4229
N22730 G1 X6.1752 Y0.4466
N22740 G1 X6.1454 Y0.4686
N22750 G1 X6.1145 Y0.4889
N22760 G1 X6.0826 Y0.5077
N22770 G1 X6.0499 Y0.525
N22780 G1 X6.0165 Y0.5408
N22790 G1 X5.9824 Y0.5554
N22800 G1 X5.9479 Y0.5687
N22810 G1 X5.9129 Y0.5808
N22820 G1 X5.8776 Y0.5918
N22830 G1 X5.842 Y0.6019
N22840 G1 X5.8061 Y0.6109
N22850 G1 X5.77 Y0.6191
N22860 G1 X5.7338 Y0.6264
N22870 G1 X5.6973 Y0.633
N22880 G1 X5.6608 Y0.6388
N22890 G1 X5.6242 Y0.6439
N22900 G1 X5.5874 Y0.6485
N22910 G1 X5.5506 Y0.6525
N22920 G1 X5.5138 Y0.656
N22930 G1 X5.4769 Y0.659
N22940 G1 X5.4031 Y0.6639
N22950 G1 X5.3292 Y0.6675
N22960 G1 X5.2552 Y0.6701
N22970 G1 X5.2182 Y0.671
N22980 G1 X5.1975 Y0.6704
N22990 G1 X5.1853 Y0.6688
N23000 G1 X5.1736 Y0.6646
N23010 G1 X5.1631 Y0.658
N23020 G1 X5.1543 Y0.6494
N23030 G1 X5.1474 Y0.6391
N23040 G1 X5.1429 Y0.6276
N23050 G1 X5.1413 Y0.622
N23060 G1 X5.1363 Y0.609
N23070 G3 X5.1349 Y0.5993 R0.025
N23080 G1 X5.1352 Y0.5954 Z-0.1997
N23090 G1 X5.1354 Y0.5916 Z-0.1988
N23100 G1 X5.1356 Y0.588 Z-0.1973
N23110 G1 X5.1358 Y0.5846 Z-0.1952
N23120 G1 X5.1359 Y0.5817 Z-0.1927
N23130 G1 X5.1361 Y0.5791 Z-0.1897
N23140 G1 X5.1362 Y0.5771 Z-0.1863
N23150 G1 X5.1363 Y0.5756 Z-0.1827
N23160 G1 Y0.5747 Z-0.1789
N23170 G1 X5.1364 Y0.5743 Z-0.175
N23180 G0 Z0.2
N23190 G0 X6.2739 Y0.0935
N23200 G0 Z-0.15
N23210 G1 Z-0.175 F24.
N23220 G1 X6.2741 Y0.0933 Z-0.1789
N23230 G1 X6.2749 Y0.0928 Z-0.1827
N23240 G1 X6.2761 Y0.092 Z-0.1863
N23250 G1 X6.2779 Y0.0909 Z-0.1897
N23260 G1 X6.28 Y0.0894 Z-0.1927
N23270 G1 X6.2825 Y0.0878 Z-0.1952
N23280 G1 X6.2853 Y0.086 Z-0.1973
N23290 G1 X6.2883 Y0.0839 Z-0.1988
N23300 G1 X6.2915 Y0.0818 Z-0.1997
N23310 G1 X6.2947 Y0.0797 Z-0.2
N23320 G3 X6.3045 Y0.0806 R0.0078
N23330 G1 X6.3591 Y0.1378
N23340 G1 X6.3644 Y0.1439
N23350 G1 X6.3691 Y0.1503
N23360 G1 X6.3737 Y0.1577
N23370 G1 X6.378 Y0.1663
N23380 G1 X6.3821 Y0.1763
N23390 G1 X6.3857 Y0.1874
N23400 G1 X6.3887 Y0.2001
N23410 G1 X6.3908 Y0.214
N23420 G1 X6.3919 Y0.2297
N23430 G1 X6.3917 Y0.2471
N23440 G1 X6.39 Y0.2659
N23450 G1 X6.3863 Y0.2872
N23460 G1 X6.3808 Y0.3087
N23470 G1 X6.3722 Y0.3335
N23480 G1 X6.3609 Y0.3592
N23490 G1 X6.3465 Y0.3861
N23500 G1 X6.3277 Y0.4152
N23510 G1 X6.3052 Y0.4446
N23520 G1 X6.2806 Y0.4722
N23530 G1 X6.2541 Y0.498
N23540 G1 X6.226 Y0.5221
N23550 G1 X6.1967 Y0.5447
N23560 G1 X6.1662 Y0.5656
N23570 G1 X6.1347 Y0.5851
N23580 G1 X6.1024 Y0.6032
N23590 G1 X6.0694 Y0.6199
N23600 G1 X6.0358 Y0.6354
N23610 G1 X6.0017 Y0.6496
N23620 G1 X5.9671 Y0.6628
N23630 G1 X5.9321 Y0.6749
N23640 G1 X5.8968 Y0.6859
N23650 G1 X5.8612 Y0.696
N23660 G1 X5.8254 Y0.7052
N23670 G1 X5.7893 Y0.7136
N23680 G1 X5.7531 Y0.7211
N23690 G1 X5.7167 Y0.728
N23700 G1 X5.6802 Y0.7341
N23710 G1 X5.6436 Y0.7395
N23720 G1 X5.6069 Y0.7444
N23730 G1 X5.5702 Y0.7487
N23740 G1 X5.5464 Y0.7512
N23750 G1 X5.5362 Y0.7513
N23760 G1 X5.5261 Y0.7497
N23770 G1 X5.5165 Y0.7464
N23780 G1 X5.5056 Y0.7417
N23790 G1 X5.4845 Y0.7364
N23800 G1 X5.4593 Y0.7343
N23810 G1 X5.4341 Y0.737
N23820 G1 X5.4257 Y0.7393
N23830 G1 X5.3895 Y0.7473
N23840 G1 X5.3532 Y0.7541
N23850 G1 X5.3165 Y0.7592
N23860 G1 X5.2797 Y0.7626
N23870 G1 X5.2532 Y0.7633
N23880 G1 X5.2318 Y0.7621
N23890 G1 X5.2128 Y0.7595
N23900 G1 X5.197 Y0.7561
N23910 G1 X5.1874 Y0.7531
N23920 G1 X5.1766 Y0.7486
N23930 G1 X5.1669 Y0.742
N23940 G1 X5.1588 Y0.7335
N23950 G1 X5.1525 Y0.7235
N23960 G1 X5.1484 Y0.7125
N23970 G1 X5.1465 Y0.7009
N23980 G1 X5.1471 Y0.6892
N23990 G1 X5.148 Y0.6808
N24000 G3 X5.1513 Y0.6716 R0.025
N24010 G3 X5.1759 Y0.6596 R0.025
N24020 G1 X5.4214 Y0.6906
N24030 G3 X5.4257 Y0.7393 R0.025
N24040 G1 X5.4173 Y0.7416
N24050 G1 X5.4089 Y0.7444
N24060 G1 X5.392 Y0.752
N24070 G1 X5.3836 Y0.757
N24080 G1 X5.3752 Y0.7626
N24090 G1 X5.362 Y0.7732
N24100 G1 X5.3537 Y0.7816
N24110 G1 X5.3432 Y0.7916
N24120 G1 X5.3348 Y0.7984
N24130 G1 X5.3255 Y0.8048
N24140 G1 X5.3144 Y0.8111
N24150 G1 X5.302 Y0.817
N24160 G1 X5.2884 Y0.822
N24170 G1 X5.2735 Y0.8263
N24180 G1 X5.2583 Y0.8294
N24190 G1 X5.2429 Y0.8312
N24200 G1 X5.229 Y0.8317
N24210 G1 X5.2152 Y0.8311
N24220 G1 X5.2025 Y0.8296
N24230 G1 X5.1901 Y0.827
N24240 G1 X5.1785 Y0.8236
N24250 G1 X5.1676 Y0.8195
N24260 G1 X5.1557 Y0.8137
N24270 G1 X5.146 Y0.8066
N24280 G1 X5.1379 Y0.7976
N24290 G1 X5.1318 Y0.7872
N24300 G1 X5.128 Y0.7757
N24310 G1 X5.1266 Y0.7637
N24320 G1 X5.1278 Y0.7517
N24330 G1 X5.1314 Y0.7402
N24340 G1 X5.1401 Y0.7193
N24350 G1 X5.145 Y0.7014
N24360 G1 X5.1471 Y0.6892
N24370 G3 X5.1817 Y0.6709 R0.025
N24380 G1 X5.345 Y0.7421
N24390 G3 X5.3537 Y0.7816 R0.025
N24400 G1 X5.3461 Y0.79
N24410 G1 X5.3395 Y0.7984
N24420 G1 X5.3289 Y0.8152
N24430 G1 X5.3205 Y0.832
N24440 G1 X5.318 Y0.8368
N24450 G1 X5.3145 Y0.8423
N24460 G1 X5.3101 Y0.8481
N24470 G1 X5.3048 Y0.854
N24480 G1 X5.2986 Y0.8599
N24490 G1 X5.2913 Y0.8658
N24500 G1 X5.2833 Y0.8713
N24510 G1 X5.2742 Y0.8765
N24520 G1 X5.264 Y0.8813
N24530 G1 X5.2531 Y0.8854
N24540 G1 X5.2414 Y0.8888
N24550 G1 X5.2289 Y0.8913
N24560 G1 X5.2157 Y0.8929
N24570 G1 X5.2034 Y0.8934
N24580 G1 X5.1906 Y0.8928
N24590 G1 X5.179 Y0.8914
N24600 G1 X5.1674 Y0.889
N24610 G1 X5.1563 Y0.8858
N24620 G1 X5.1462 Y0.8819
N24630 G1 X5.1358 Y0.877
N24640 G1 X5.1246 Y0.8702
N24650 G1 X5.1157 Y0.8627
N24660 G1 X5.1085 Y0.8535
N24670 G1 X5.1032 Y0.8431
N24680 G1 X5.1002 Y0.8318
N24690 G1 X5.0994 Y0.8202
N24700 G1 X5.101 Y0.8086
N24710 G1 X5.1049 Y0.7976
N24720 G1 X5.1314 Y0.7402
N24730 G3 X5.1372 Y0.7323 R0.025
N24740 G3 X5.1651 Y0.7285 R0.025
N24750 G1 X5.3086 Y0.7999
N24760 G3 X5.3225 Y0.8225 R0.025
N24770 G3 X5.3205 Y0.832 R0.025
N24780 G1 X5.2931 Y0.8909
N24790 G1 X5.289 Y0.8986
N24800 G1 X5.2855 Y0.9041
N24810 G1 X5.2812 Y0.9098
N24820 G1 X5.276 Y0.9156
N24830 G1 X5.2701 Y0.9213
N24840 G1 X5.263 Y0.927
N24850 G1 X5.2552 Y0.9324
N24860 G1 X5.2465 Y0.9374
N24870 G1 X5.2369 Y0.942
N24880 G1 X5.2263 Y0.946
N24890 G1 X5.2151 Y0.9492
N24900 G1 X5.2033 Y0.9516
N24910 G1 X5.1908 Y0.9531
N24920 G1 X5.1777 Y0.9536
N24930 G1 X5.1655 Y0.9531
N24940 G1 X5.1529 Y0.9516
N24950 G1 X5.1415 Y0.9493
N24960 G1 X5.13 Y0.946
N24970 G1 X5.1195 Y0.942
N24980 G1 X5.1095 Y0.9372
N24990 G1 X5.0998 Y0.9317
N25000 G1 X5.0969 Y0.9297
N25010 G1 X5.088 Y0.9221
N25020 G1 X5.0808 Y0.913
N25030 G1 X5.0756 Y0.9025
N25040 G1 X5.0725 Y0.8913
N25050 G1 X5.0717 Y0.8796
N25060 G1 X5.0733 Y0.868
N25070 G1 X5.0772 Y0.857
N25080 G1 X5.1049 Y0.7976
N25090 G3 X5.1109 Y0.7899 R0.025
N25100 G3 X5.1384 Y0.7866 R0.025
N25110 G1 X5.2813 Y0.8588
N25120 G3 X5.2951 Y0.8813 R0.025
N25130 G3 X5.2931 Y0.8909 R0.025
N25140 G1 X5.2635 Y0.9543
N25150 G1 X5.2609 Y0.9592
N25160 G1 X5.2574 Y0.9647
N25170 G1 X5.2533 Y0.9701
N25180 G1 X5.2481 Y0.9759
N25190 G1 X5.2423 Y0.9815
N25200 G1 X5.2355 Y0.987
N25210 G1 X5.2277 Y0.9924
N25220 G1 X5.2191 Y0.9973
N25230 G1 X5.2096 Y1.0018
N25240 G1 X5.1991 Y1.0058
N25250 G1 X5.1879 Y1.009
N25260 G1 X5.1761 Y1.0114
N25270 G1 X5.1637 Y1.0129
N25280 G1 X5.1507 Y1.0134
N25290 G1 X5.1383 Y1.013
N25300 G1 X5.1256 Y1.0114
N25310 G1 X5.1141 Y1.0091
N25320 G1 X5.1026 Y1.0057
N25330 G1 X5.092 Y1.0017
N25340 G1 X5.0819 Y0.997
N25350 G1 X5.0722 Y0.9914
N25360 G1 X5.0692 Y0.9893
N25370 G1 X5.0603 Y0.9817
N25380 G1 X5.053 Y0.9725
N25390 G1 X5.0478 Y0.9621
N25400 G1 X5.0447 Y0.9508
N25410 G1 X5.0439 Y0.9392
N25420 G1 X5.0455 Y0.9276
N25430 G1 X5.0494 Y0.9166
N25440 G1 X5.0772 Y0.857
N25450 G3 X5.0832 Y0.8493 R0.025
N25460 G3 X5.1113 Y0.8463 R0.025
N25470 G1 X5.2524 Y0.9225
N25480 G3 X5.2655 Y0.9447 R0.025
N25490 G3 X5.2635 Y0.9543 R0.025
N25500 G1 X5.2361 Y1.0131
N25510 G1 X5.2329 Y1.0191
N25520 G1 X5.2294 Y1.0246
N25530 G1 X5.2253 Y1.03
N25540 G1 X5.2202 Y1.0357
N25550 G1 X5.2144 Y1.0413
N25560 G1 X5.2077 Y1.0468
N25570 G1 X5.1998 Y1.0521
N25580 G1 X5.1913 Y1.057
N25590 G1 X5.1818 Y1.0615
N25600 G1 X5.1713 Y1.0655
N25610 G1 X5.1602 Y1.0687
N25620 G1 X5.1485 Y1.0711
N25630 G1 X5.136 Y1.0726
N25640 G1 X5.123 Y1.0731
N25650 G1 X5.1106 Y1.0726
N25660 G1 X5.0979 Y1.0711
N25670 G1 X5.0864 Y1.0687
N25680 G1 X5.0749 Y1.0654
N25690 G1 X5.0642 Y1.0614
N25700 G1 X5.0542 Y1.0566
N25710 G1 X5.0444 Y1.051
N25720 G1 X5.0414 Y1.0489
N25730 G1 X5.0325 Y1.0413
N25740 G1 X5.0252 Y1.0322
N25750 G1 X5.02 Y1.0217
N25760 G1 X5.0169 Y1.0105
N25770 G1 X5.0161 Y0.9988
N25780 G1 X5.0177 Y0.9872
N25790 G1 X5.0216 Y0.9762
N25800 G1 X5.0494 Y0.9166
N25810 G3 X5.0554 Y0.9089 R0.025
N25820 G3 X5.0834 Y0.9059 R0.025
N25830 G1 X5.2248 Y0.9813
N25840 G3 X5.2381 Y1.0036 R0.025
N25850 G3 X5.2361 Y1.0131 R0.025
N25860 G1 X5.207 Y1.0753
N25870 G1 X5.2045 Y1.0801
N25880 G1 X5.2008 Y1.0856
N25890 G1 X5.1965 Y1.0911
N25900 G1 X5.1913 Y1.0968
N25910 G1 X5.1851 Y1.1024
N25920 G1 X5.1782 Y1.1078
N25930 G1 X5.1701 Y1.1131
N25940 G1 X5.1613 Y1.118
N25950 G1 X5.1517 Y1.1223
N25960 G1 X5.141 Y1.126
N25970 G1 X5.1296 Y1.1291
N25980 G1 X5.1175 Y1.1313
N25990 G1 X5.105 Y1.1325
N26000 G1 X5.092 Y1.1328
N26010 G1 X5.0798 Y1.1321
N26020 G1 X5.0671 Y1.1302
N26030 G1 X5.0559 Y1.1277
N26040 G1 X5.0443 Y1.1241
N26050 G1 X5.034 Y1.12
N26060 G1 X5.0237 Y1.1149
N26070 G1 X5.0126 Y1.1079
N26080 G1 X5.0039 Y1.1003
N26090 G1 X4.9969 Y1.0911
N26100 G1 X4.9919 Y1.0808
N26110 G1 X4.989 Y1.0696
N26120 G1 X4.9883 Y1.0581
N26130 G1 X4.9899 Y1.0467
N26140 G1 X4.9937 Y1.0359
N26150 G1 X5.0216 Y0.9762
N26160 G3 X5.056 Y0.9657 R0.025
N26170 G1 X5.1962 Y1.0437
N26180 G3 X5.209 Y1.0658 R0.025
N26190 G3 X5.207 Y1.0753 R0.025
N26200 G1 X5.1795 Y1.1345
N26210 G1 X5.1769 Y1.1393
N26220 G1 X5.1735 Y1.1446
N26230 G1 X5.1692 Y1.1501
N26240 G1 X5.164 Y1.1558
N26250 G1 X5.1581 Y1.1613
N26260 G1 X5.1512 Y1.1669
N26270 G1 X5.1434 Y1.1721
N26280 G1 X5.1347 Y1.177
N26290 G1 X5.125 Y1.1815
N26300 G1 X5.1145 Y1.1853
N26310 G1 X5.1033 Y1.1884
N26320 G1 X5.0915 Y1.1907
N26330 G1 X5.0789 Y1.1921
N26340 G1 X5.0657 Y1.1925
N26350 G1 X5.0534 Y1.1918
N26360 G1 X5.0408 Y1.1902
N26370 G1 X5.0293 Y1.1877
N26380 G1 X5.0179 Y1.1843
N26390 G1 X5.0073 Y1.1801
N26400 G1 X4.9973 Y1.1753
N26410 G1 X4.9852 Y1.1679
N26420 G1 X4.9764 Y1.1603
N26430 G1 X4.9693 Y1.1512
N26440 G1 X4.9642 Y1.1408
N26450 G1 X4.9612 Y1.1296
N26460 G1 X4.9605 Y1.118
N26470 G1 X4.9621 Y1.1065
N26480 G1 X4.9659 Y1.0955
N26490 G1 X4.9937 Y1.0359
N26500 G3 X5.0281 Y1.0253 R0.025
N26510 G1 X5.1685 Y1.1029
N26520 G3 X5.1814 Y1.125 R0.025
N26530 G3 X5.1795 Y1.1345 R0.025
N26540 G1 X5.152 Y1.1933
N26550 G1 X5.1494 Y1.1982
N26560 G1 X5.146 Y1.2036
N26570 G1 X5.1419 Y1.209
N26580 G1 X5.1368 Y1.2148
N26590 G1 X5.1311 Y1.2203
N26600 G1 X5.1242 Y1.2258
N26610 G1 X5.1165 Y1.2311
N26620 G1 X5.108 Y1.236
N26630 G1 X5.0984 Y1.2406
N26640 G1 X5.088 Y1.2445
N26650 G1 X5.0769 Y1.2477
N26660 G1 X5.0651 Y1.2501
N26670 G1 X5.0526 Y1.2516
N26680 G1 X5.0396 Y1.2521
N26690 G1 X5.0272 Y1.2516
N26700 G1 X5.0145 Y1.2501
N26710 G1 X5.0029 Y1.2477
N26720 G1 X4.9915 Y1.2444
N26730 G1 X4.9808 Y1.2404
N26740 G1 X4.9708 Y1.2356
N26750 G1 X4.961 Y1.23
N26760 G1 X4.9565 Y1.2269
N26770 G1 X4.947 Y1.2187
N26780 G1 X4.9394 Y1.2087
N26790 G1 X4.9342 Y1.1973
N26800 G1 X4.9315 Y1.185
N26810 G1 X4.9316 Y1.1724
N26820 G1 X4.9343 Y1.1602
N26830 G1 X4.9396 Y1.1488
N26840 G1 X4.9464 Y1.1373
N26850 G1 X4.9659 Y1.0955
N26860 G3 X5.0001 Y1.0849 R0.025
N26870 G1 X5.141 Y1.1616
N26880 G3 X5.154 Y1.1838 R0.025
N26890 G3 X5.152 Y1.1933 R0.025
N26900 G1 X5.1398 Y1.2201
N26910 G1 X5.131 Y1.2425
N26920 G1 X5.1293 Y1.2476
N26930 G1 X5.1272 Y1.2526
N26940 G1 X5.1244 Y1.2578
N26950 G1 X5.1208 Y1.2634
N26960 G1 X5.1165 Y1.2689
N26970 G1 X5.1112 Y1.2748
N26980 G1 X5.1053 Y1.2804
N26990 G1 X5.0983 Y1.2861
N27000 G1 X5.0903 Y1.2915
N27010 G1 X5.0816 Y1.2965
N27020 G1 X5.0718 Y1.301
N27030 G1 X5.0611 Y1.305
N27040 G1 X5.0498 Y1.3082
N27050 G1 X5.0378 Y1.3106
N27060 G1 X5.0252 Y1.312
N27070 G1 X5.0119 Y1.3125
N27080 G1 X4.9991 Y1.3119
N27090 G1 X4.9861 Y1.3102
N27100 G1 X4.9741 Y1.3077
N27110 G1 X4.9627 Y1.3044
N27120 G1 X4.9515 Y1.3
N27130 G1 X4.9416 Y1.2953
N27140 G1 X4.9315 Y1.2894
N27150 G1 X4.9227 Y1.2833
N27160 G1 X4.9143 Y1.2764
N27170 G1 X4.9065 Y1.2688
N27180 G1 X4.8999 Y1.2613
N27190 G1 X4.8974 Y1.258
N27200 G1 X4.8915 Y1.2479
N27210 G1 X4.8881 Y1.2367
N27220 G1 X4.8872 Y1.225
N27230 G1 X4.889 Y1.2134
N27240 G1 X4.8933 Y1.2025
N27250 G1 X4.9 Y1.1928
N27260 G1 X4.9087 Y1.1849
N27270 G1 X4.9127 Y1.1814
N27280 G3 X4.9337 Y1.1761 R0.025
N27290 G1 X5.1116 Y1.2125
N27300 G3 X5.131 Y1.2425 R0.025
N27310 G1 X5.1269 Y1.2605
N27320 G1 X5.1257 Y1.2689
N27330 G1 X5.125 Y1.282
N27340 G1 X5.1244 Y1.2882
N27350 G1 X5.1234 Y1.2935
N27360 G1 X5.122 Y1.2989
N27370 G1 X5.1199 Y1.3044
N27380 G1 X5.1172 Y1.3105
N27390 G1 X5.1138 Y1.3166
N27400 G1 X5.1094 Y1.3231
N27410 G1 X5.1043 Y1.3296
N27420 G1 X5.0983 Y1.336
N27430 G1 X5.0911 Y1.3426
N27440 G1 X5.0831 Y1.3488
N27450 G1 X5.0742 Y1.3547
N27460 G1 X5.0639 Y1.3602
N27470 G1 X5.0529 Y1.3652
N27480 G1 X5.0412 Y1.3693
N27490 G1 X5.0286 Y1.3726
N27500 G1 X5.0151 Y1.375
N27510 G1 X5.0012 Y1.3764
N27520 G1 X4.9868 Y1.3767
N27530 G1 X4.9722 Y1.3758
N27540 G1 X4.9575 Y1.3736
N27550 G1 X4.9428 Y1.3703
N27560 G1 X4.9282 Y1.3657
N27570 G1 X4.9143 Y1.3601
N27580 G1 X4.9018 Y1.3538
N27590 G1 X4.8898 Y1.3466
N27600 G1 X4.8797 Y1.3393
N27610 G1 X4.8699 Y1.3309
N27620 G1 X4.8618 Y1.3228
N27630 G1 X4.8541 Y1.3138
N27640 G1 X4.8476 Y1.3047
N27650 G1 X4.8421 Y1.2957
N27660 G1 X4.8365 Y1.2841
N27670 G1 X4.833 Y1.2715
N27680 G1 X4.8324 Y1.2584
N27690 G1 X4.8348 Y1.2454
N27700 G1 X4.84 Y1.2334
N27710 G1 X4.8477 Y1.2228
N27720 G1 X4.8577 Y1.2142
N27730 G1 X4.8693 Y1.208
N27740 G3 X4.8831 Y1.2072 R0.025
N27750 G1 X5.1055 Y1.2572
N27760 G3 X5.1233 Y1.2724 R0.025
N27770 G3 X5.125 Y1.282 R0.025
N27780 G1 X5.1248 Y1.2857
N27790 G1 X5.1252 Y1.2942
N27800 G1 X5.1272 Y1.311
N27810 G1 X5.1293 Y1.3194
N27820 G1 X5.1305 Y1.3246
N27830 G1 X5.1308 Y1.33
N27840 G1 X5.1306 Y1.3354
N27850 G1 X5.13 Y1.3411
N27860 G1 X5.1287 Y1.3475
N27870 G1 X5.1269 Y1.354
N27880 G1 X5.1243 Y1.3611
N27890 G1 X5.1208 Y1.3685
N27900 G1 X5.1166 Y1.3759
N27910 G1 X5.1113 Y1.3838
N27920 G1 X5.1051 Y1.3915
N27930 G1 X5.0978 Y1.3992
N27940 G1 X5.0892 Y1.407
N27950 G1 X5.0798 Y1.4142
N27960 G1 X5.0691 Y1.4211
N27970 G1 X5.0571 Y1.4276
N27980 G1 X5.044 Y1.4333
N27990 G1 X5.0301 Y1.4381
N28000 G1 X5.0151 Y1.4419
N28010 G1 X4.999 Y1.4447
N28020 G1 X4.982 Y1.4463
N28030 G1 X4.9646 Y1.4465
N28040 G1 X4.947 Y1.4452
N28050 G1 X4.9292 Y1.4426
N28060 G1 X4.9116 Y1.4384
N28070 G1 X4.8943 Y1.4329
N28080 G1 X4.8776 Y1.426
N28090 G1 X4.8616 Y1.4178
N28100 G1 X4.8464 Y1.4085
N28110 G1 X4.8321 Y1.398
N28120 G1 X4.8199 Y1.3875
N28130 G1 X4.8088 Y1.3762
N28140 G1 X4.7996 Y1.3652
N28150 G1 X4.7916 Y1.354
N28160 G1 X4.7847 Y1.3425
N28170 G1 X4.7794 Y1.3316
N28180 G1 X4.7746 Y1.3196
N28190 G1 X4.7713 Y1.3087
N28200 G1 X4.7684 Y1.2943
N28210 G1 X4.7679 Y1.2832
N28220 G1 X4.7696 Y1.2722
N28230 G1 X4.7733 Y1.2618
N28240 G1 X4.7883 Y1.2301
N28250 G1 X4.7905 Y1.2269
N28260 G1 X4.795 Y1.2228
N28270 G1 X4.7992 Y1.2204
N28280 G1 X4.8049 Y1.2185
N28290 G1 X4.8084 Y1.2181
N28300 G1 X4.8202 Y1.2178
N28310 G1 X4.8286 Y1.2171
N28320 G3 X4.8371 Y1.2182 R0.025
N28330 G1 X4.8383 Y1.2186
N28340 G1 X5.1129 Y1.3033
N28350 G3 X5.1245 Y1.3109 R0.025
N28360 G3 X5.1293 Y1.3194 R0.025
N28370 G1 X5.1342 Y1.3362
N28380 G1 X5.1422 Y1.353
N28390 G1 X5.1445 Y1.3579
N28400 G1 X5.146 Y1.363
N28410 G1 X5.1471 Y1.3683
N28420 G1 X5.1478 Y1.3739
N28430 G1 X5.1481 Y1.3803
N28440 G1 X5.1479 Y1.3869
N28450 G1 X5.147 Y1.3943
N28460 G1 X5.1454 Y1.4022
N28470 G1 X5.1431 Y1.4103
N28480 G1 X5.1398 Y1.4191
N28490 G1 X5.1356 Y1.428
N28500 G1 X5.1304 Y1.4372
N28510 G1 X5.1238 Y1.4468
N28520 G1 X5.1163 Y1.456
N28530 G1 X5.1074 Y1.4654
N28540 G1 X5.097 Y1.4747
N28550 G1 X5.0856 Y1.4834
N28560 G1 X5.0726 Y1.4917
N28570 G1 X5.058 Y1.4995
N28580 G1 X5.0421 Y1.5064
N28590 G1 X5.0252 Y1.5122
N28600 G1 X5.007 Y1.5168
N28610 G1 X4.9876 Y1.52
N28620 G1 X4.9672 Y1.5218
N28630 G1 X4.946 Y1.522
N28640 G1 X4.9245 Y1.5204
N28650 G1 X4.9027 Y1.517
N28660 G1 X4.881 Y1.5119
N28670 G1 X4.8595 Y1.5049
N28680 G1 X4.8386 Y1.4962
N28690 G1 X4.8187 Y1.4859
N28700 G1 X4.7999 Y1.4743
N28710 G1 X4.7825 Y1.4615
N28720 G1 X4.7667 Y1.4477
N28730 G1 X4.7522 Y1.4329
N28740 G1 X4.7394 Y1.4175
N28750 G1 X4.7356 Y1.4121
N28760 G1 X4.7296 Y1.4014
N28770 G1 X4.726 Y1.3897
N28780 G1 X4.7249 Y1.3775
N28790 G1 X4.7264 Y1.3654
N28800 G1 X4.7304 Y1.3538
N28810 G1 X4.7733 Y1.2618
N28820 G3 X4.8024 Y1.2491 R0.025
N28830 G1 X5.1273 Y1.3413
N28840 G3 X5.1358 Y1.3456 R0.025
N28850 G3 X5.1422 Y1.353 R0.025
N28860 G1 X5.1466 Y1.3614
N28870 G1 X5.1566 Y1.3754
N28880 G1 X5.1622 Y1.3824
N28890 G1 X5.1654 Y1.3866
N28900 G1 X5.1673 Y1.3908
N28910 G1 X5.1684 Y1.395
N28920 G1 X5.1687 Y1.3992
N28930 G1 X5.1683 Y1.4034
N28940 G1 X5.1671 Y1.4076
N28950 G1 X5.123 Y1.5025
N28960 G1 X5.1186 Y1.5109
N28970 G1 X5.1129 Y1.5197
N28980 G1 X5.1064 Y1.5283
N28990 G1 X5.0983 Y1.5374
N29000 G1 X5.0889 Y1.5464
N29010 G1 X5.0781 Y1.5552
N29020 G1 X5.0653 Y1.564
N29030 G1 X5.0514 Y1.572
N29040 G1 X5.0356 Y1.5795
N29050 G1 X5.0178 Y1.5862
N29060 G1 X4.9988 Y1.5917
N29070 G1 X4.9785 Y1.5958
N29080 G1 X4.9564 Y1.5985
N29090 G1 X4.9329 Y1.5994
N29100 G1 X4.9084 Y1.5984
N29110 G1 X4.8834 Y1.5954
N29120 G1 X4.8583 Y1.5903
N29130 G1 X4.833 Y1.583
N29140 G1 X4.808 Y1.5735
N29150 G1 X4.7837 Y1.562
N29160 G1 X4.7602 Y1.5485
N29170 G1 X4.7389 Y1.5338
N29180 G1 X4.7216 Y1.5197
N29190 G1 X4.7084 Y1.5071
N29200 G1 X4.7014 Y1.4993
N29210 G1 X4.6947 Y1.4901
N29220 G1 X4.69 Y1.4799
N29230 G1 X4.6873 Y1.4689
N29240 G1 X4.6867 Y1.4577
N29250 G1 X4.6884 Y1.4465
N29260 G1 X4.6921 Y1.4358
N29270 G1 X4.7304 Y1.3538
N29280 G3 X4.7613 Y1.3417 R0.025
N29290 G1 X5.1086 Y1.4693
N29300 G3 X5.1249 Y1.493 R0.025
N29310 G3 X5.123 Y1.5025 R0.025
N29320 G1 X5.083 Y1.5882
N29330 G1 X5.0796 Y1.5946
N29340 G1 X5.075 Y1.6019
N29350 G1 X5.0692 Y1.6096
N29360 G1 X5.0621 Y1.6175
N29370 G1 X5.0537 Y1.6255
N29380 G1 X5.0439 Y1.6336
N29390 G1 X5.0322 Y1.6416
N29400 G1 X5.0193 Y1.649
N29410 G1 X5.0038 Y1.6563
N29420 G1 X4.9874 Y1.6625
N29430 G1 X4.9685 Y1.668
N29440 G1 X4.9475 Y1.6723
N29450 G1 X4.9256 Y1.6749
N29460 G1 X4.9016 Y1.6759
N29470 G1 X4.8757 Y1.6748
N29480 G1 X4.8485 Y1.6715
N29490 G1 X4.8209 Y1.6659
N29500 G1 X4.793 Y1.6578
N29510 G1 X4.765 Y1.6472
N29520 G1 X4.7382 Y1.6346
N29530 G1 X4.7151 Y1.6213
N29540 G1 X4.6958 Y1.608
N29550 G1 X4.6809 Y1.5958
N29560 G1 X4.6685 Y1.584
N29570 G1 X4.6642 Y1.5791
N29580 G1 X4.6575 Y1.57
N29590 G1 X4.6527 Y1.5597
N29600 G1 X4.65 Y1.5488
N29610 G1 X4.6495 Y1.5375
N29620 G1 X4.6511 Y1.5263
N29630 G1 X4.6549 Y1.5157
N29640 G1 X4.6921 Y1.4358
N29650 G3 X4.7233 Y1.4238 R0.025
N29660 G1 X5.0689 Y1.5551
N29670 G3 X5.085 Y1.5787 R0.025
N29680 G3 X5.083 Y1.5882 R0.025
N29690 G1 X5.0477 Y1.6638
N29700 G1 X5.0431 Y1.6726
N29710 G1 X5.0388 Y1.6794
N29720 G1 X5.033 Y1.6871
N29730 G1 X5.0263 Y1.6945
N29740 G1 X5.018 Y1.7026
N29750 G1 X5.0086 Y1.7102
N29760 G1 X4.997 Y1.7181
N29770 G1 X4.9845 Y1.7253
N29780 G1 X4.9692 Y1.7325
N29790 G1 X4.953 Y1.7387
N29800 G1 X4.934 Y1.7442
N29810 G1 X4.9128 Y1.7485
N29820 G1 X4.8905 Y1.7512
N29830 G1 X4.8655 Y1.7522
N29840 G1 X4.8381 Y1.7511
N29850 G1 X4.8101 Y1.7477
N29860 G1 X4.7812 Y1.7418
N29870 G1 X4.7518 Y1.7333
N29880 G1 X4.7233 Y1.7225
N29890 G1 X4.697 Y1.7101
N29900 G1 X4.6797 Y1.7001
N29910 G1 X4.6706 Y1.6936
N29920 G1 X4.6629 Y1.6856
N29930 G1 X4.6569 Y1.6762
N29940 G1 X4.6528 Y1.6658
N29950 G1 X4.652 Y1.6633
N29960 G1 X4.6487 Y1.6554
N29970 G1 X4.6436 Y1.6455
N29980 G1 X4.6397 Y1.6386
N29990 G1 X4.6268 Y1.621
N30000 G1 X4.6221 Y1.6153
N30010 G1 X4.6194 Y1.6102
N30020 G1 X4.618 Y1.605
N30030 G1 X4.6177 Y1.6008
N30040 G1 X4.6184 Y1.5953
N30050 G1 X4.6195 Y1.5918
N30060 G1 X4.6549 Y1.5157
N30070 G3 X4.6857 Y1.5036 R0.025
N30080 G1 X5.0333 Y1.6306
N30090 G3 X5.0497 Y1.6543 R0.025
N30100 G3 X5.0477 Y1.6638 R0.025
N30110 G1 X5.0125 Y1.7395
N30120 G1 X5.0074 Y1.7491
N30130 G1 X5.0031 Y1.7558
N30140 G1 X5.0003 Y1.7596
N30150 G1 X4.992 Y1.7684
N30160 G1 X4.9821 Y1.7753
N30170 G1 X4.971 Y1.7801
N30180 G1 X4.9592 Y1.7825
N30190 G3 X4.9412 Y1.7387 R0.025
N30200 G1 X4.973 Y1.7109
N30210 G3 X5.0125 Y1.7395 R0.025
N30220 G1 X4.999 Y1.7682
N30230 G1 X4.9958 Y1.7731
N30240 G1 X4.9921 Y1.7766
N30250 G1 X4.9884 Y1.779
N30260 G1 X4.9849 Y1.7805
N30270 G1 X4.98 Y1.7817
N30280 G1 X4.9606 Y1.7823
N30290 G1 X4.9548 Y1.7829
N30300 G1 X4.938 Y1.7858
N30310 G1 X4.9295 Y1.7877
N30320 G1 X4.9211 Y1.7904
N30330 G1 X4.9127 Y1.7937
N30340 G1 X4.9032 Y1.7983
N30350 G1 X4.8933 Y1.8031
N30360 G1 X4.8804 Y1.8081
N30370 G1 X4.8645 Y1.8128
N30380 G1 X4.8479 Y1.8164
N30390 G1 X4.828 Y1.819
N30400 G1 X4.8069 Y1.82
N30410 G1 X4.7838 Y1.8193
N30420 G1 X4.7583 Y1.8164
N30430 G1 X4.7329 Y1.8115
N30440 G1 X4.7104 Y1.8052
N30450 G1 X4.692 Y1.7984
N30460 G1 X4.6811 Y1.7918
N30470 G1 X4.672 Y1.7829
N30480 G1 X4.665 Y1.7722
N30490 G1 X4.6607 Y1.7602
N30500 G1 X4.6591 Y1.7475
N30510 G1 X4.6605 Y1.7348
N30520 G1 X4.6611 Y1.7227
N30530 G3 X4.6922 Y1.7005 R0.025
N30540 G1 X4.8966 Y1.7525
N30550 G3 X4.9032 Y1.7983 R0.025
N30560 G1 X4.8959 Y1.8023
N30570 G1 X4.8833 Y1.8106
N30580 G1 X4.878 Y1.8151
N30590 G1 X4.8605 Y1.8319
N30600 G1 X4.8568 Y1.8365
N30610 G1 X4.8529 Y1.841
N30620 G1 X4.8477 Y1.8461
N30630 G1 X4.8415 Y1.8511
N30640 G1 X4.8337 Y1.8566
N30650 G1 X4.8252 Y1.8616
N30660 G1 X4.8147 Y1.8667
N30670 G1 X4.8032 Y1.8712
N30680 G1 X4.7897 Y1.8752
N30690 G1 X4.7754 Y1.8782
N30700 G1 X4.7594 Y1.8803
N30710 G1 X4.7452 Y1.881
N30720 G1 X4.7305 Y1.8806
N30730 G1 X4.7178 Y1.8791
N30740 G1 X4.7048 Y1.8766
N30750 G1 X4.693 Y1.8733
N30760 G1 X4.6821 Y1.8693
N30770 G1 X4.6711 Y1.8642
N30780 G1 X4.6678 Y1.8623
N30790 G1 X4.6577 Y1.8551
N30800 G1 X4.6493 Y1.8459
N30810 G1 X4.6431 Y1.8352
N30820 G1 X4.6393 Y1.8233
N30830 G1 X4.6381 Y1.811
N30840 G1 X4.6395 Y1.7986
N30850 G1 X4.6435 Y1.7869
N30860 G1 X4.6527 Y1.7661
N30870 G1 X4.656 Y1.7549
N30880 G1 X4.6605 Y1.7348
N30890 G3 X4.6964 Y1.7189 R0.025
N30900 G1 X4.8484 Y1.7996
N30910 G3 X4.8568 Y1.8365 R0.025
N30920 G1 X4.8479 Y1.8487
N30930 G1 X4.8386 Y1.8655
N30940 G1 X4.8308 Y1.8823
N30950 G1 X4.8282 Y1.8871
N30960 G1 X4.8246 Y1.8926
N30970 G1 X4.8204 Y1.8981
N30980 G1 X4.8151 Y1.904
N30990 G1 X4.809 Y1.9097
N31000 G1 X4.8019 Y1.9154
N31010 G1 X4.7936 Y1.9209
N31020 G1 X4.7847 Y1.9259
N31030 G1 X4.7747 Y1.9305
N31040 G1 X4.7636 Y1.9346
N31050 G1 X4.7519 Y1.9379
N31060 G1 X4.7396 Y1.9402
N31070 G1 X4.7266 Y1.9417
N31080 G1 X4.7143 Y1.9421
N31090 G1 X4.7013 Y1.9414
N31100 G1 X4.6897 Y1.9399
N31110 G1 X4.678 Y1.9374
N31120 G1 X4.667 Y1.9341
N31130 G1 X4.6568 Y1.9301
N31140 G1 X4.6465 Y1.9251
N31150 G1 X4.6353 Y1.9183
N31160 G1 X4.6266 Y1.9107
N31170 G1 X4.6195 Y1.9016
N31180 G1 X4.6143 Y1.8912
N31190 G1 X4.6113 Y1.8799
N31200 G1 X4.6106 Y1.8684
N31210 G1 X4.6122 Y1.8569
N31220 G1 X4.616 Y1.8459
N31230 G1 X4.6435 Y1.7869
N31240 G3 X4.6774 Y1.7761 R0.025
N31250 G1 X4.8193 Y1.8504
N31260 G3 X4.8327 Y1.8727 R0.025
N31270 G3 X4.8308 Y1.8823 R0.025
N31280 G1 X4.8034 Y1.9409
N31290 G1 X4.7999 Y1.9475
N31300 G1 X4.7965 Y1.9529
N31310 G1 X4.7922 Y1.9585
N31320 G1 X4.7871 Y1.9643
N31330 G1 X4.7812 Y1.9699
N31340 G1 X4.7742 Y1.9756
N31350 G1 X4.7664 Y1.981
N31360 G1 X4.7578 Y1.9859
N31370 G1 X4.7481 Y1.9905
N31380 G1 X4.7376 Y1.9945
N31390 G1 X4.7265 Y1.9977
N31400 G1 X4.7147 Y2.0001
N31410 G1 X4.7022 Y2.0016
N31420 G1 X4.6891 Y2.0021
N31430 G1 X4.6769 Y2.0016
N31440 G1 X4.6642 Y2.0001
N31450 G1 X4.6527 Y1.9978
N31460 G1 X4.6414 Y1.9945
N31470 G1 X4.6307 Y1.9904
N31480 G1 X4.6207 Y1.9857
N31490 G1 X4.611 Y1.9801
N31500 G1 X4.6081 Y1.9781
N31510 G1 X4.5992 Y1.9706
N31520 G1 X4.5919 Y1.9614
N31530 G1 X4.5867 Y1.9509
N31540 G1 X4.5836 Y1.9397
N31550 G1 X4.5828 Y1.928
N31560 G1 X4.5844 Y1.9164
N31570 G1 X4.5883 Y1.9054
N31580 G1 X4.616 Y1.8459
N31590 G3 X4.6498 Y1.8351 R0.025
N31600 G1 X4.7919 Y1.909
N31610 G3 X4.8054 Y1.9314 R0.025
N31620 G3 X4.8034 Y1.9409 R0.025
N31630 G1 X4.7759 Y1.9999
N31640 G1 X4.7692 Y2.0125
N31650 G1 X4.7631 Y2.0214
N31660 G1 X4.756 Y2.0295
N31670 G1 X4.748 Y2.0368
N31680 G1 X4.7393 Y2.0432
N31690 G1 X4.7301 Y2.0488
N31700 G1 X4.7204 Y2.0536
N31710 G1 X4.7104 Y2.0576
N31720 G1 X4.7 Y2.0607
N31730 G1 X4.6842 Y2.0641
N31740 G1 X4.6681 Y2.0657
N31750 G1 X4.6519 Y2.0658
N31760 G1 X4.6358 Y2.0641
N31770 G1 X4.6199 Y2.0608
N31780 G1 X4.6045 Y2.0558
N31790 G1 X4.5946 Y2.0515
N31800 G1 X4.5804 Y2.0438
N31810 G1 X4.5701 Y2.0356
N31820 G1 X4.5626 Y2.0264
N31830 G1 X4.5571 Y2.0159
N31840 G1 X4.5538 Y2.0045
N31850 G1 X4.5529 Y1.9926
N31860 G1 X4.5544 Y1.9808
N31870 G1 X4.5583 Y1.9696
N31880 G1 X4.5883 Y1.9054
N31890 G3 X4.622 Y1.8945 R0.025
N31900 G1 X4.7644 Y1.9679
N31910 G3 X4.7779 Y1.9904 R0.025
N31920 G3 X4.7759 Y1.9999 R0.025
N31930 G1 X4.7446 Y2.0671
N31940 G1 X4.742 Y2.0719
N31950 G1 X4.7386 Y2.0773
N31960 G1 X4.7344 Y2.0828
N31970 G1 X4.722 Y2.0966
N31980 G1 X4.7065 Y2.1302
N31990 G1 X4.7048 Y2.1453
N32000 G1 X4.7037 Y2.1515
N32010 G1 X4.702 Y2.1576
N32020 G1 X4.6997 Y2.1634
N32030 G3 X4.6547 Y2.1415 R0.025
N32040 G1 X4.6989 Y2.0468
N32050 G3 X4.7446 Y2.0671 R0.025
N32060 G1 X4.6584 Y2.252
N32070 G1 X4.6475 Y2.2772
N32080 G1 X4.6436 Y2.2889
N32090 G1 X4.6405 Y2.3024
N32100 G1 X4.6383 Y2.3192
N32110 G1 X4.6378 Y2.3276
N32120 G1 Y2.336
N32130 G1 X4.6383 Y2.3444
N32140 G1 X4.6392 Y2.3528
N32150 G1 X4.6436 Y2.3745
N32160 G1 X4.6531 Y2.3988
N32170 G1 X4.6662 Y2.42
N32180 G1 X4.6689 Y2.4238
N32190 G1 X4.6791 Y2.4354
N32200 G1 X4.6835 Y2.44
N32210 G1 X4.6895 Y2.4475
N32220 G1 X4.6956 Y2.4566
N32230 G1 X4.7017 Y2.4675
N32240 G1 X4.7075 Y2.4803
N32250 G1 X4.713 Y2.4953
N32260 G1 X4.7179 Y2.5128
N32270 G1 X4.7217 Y2.533
N32280 G1 X4.7243 Y2.5564
N32290 G1 X4.7251 Y2.5831
N32300 G1 X4.7235 Y2.6134
N32310 G1 X4.7186 Y2.6501
N32320 G1 X4.7207 Y2.6685
N32330 G1 X4.7276 Y2.6856
N32340 G1 X4.7478 Y2.7166
N32350 G1 X4.776 Y2.7406
N32360 G1 X4.8083 Y2.7586
N32370 G1 X4.8429 Y2.7719
N32380 G1 X4.8786 Y2.7816
N32390 G1 X4.9149 Y2.7887
N32400 G1 X4.9516 Y2.7937
N32410 G1 X4.9884 Y2.7974
N32420 G1 X5.0253 Y2.8
N32430 G1 X5.0622 Y2.8019
N32440 G1 X5.1362 Y2.8042
N32450 G1 X5.3212 Y2.8067
N32460 G1 X5.5802 Y2.8125
N32470 G1 X5.7282 Y2.8143
N32480 G1 X5.9131 Y2.8206
N32490 G1 X5.9501 Y2.8216
N32500 G1 X5.987 Y2.8233
N32510 G1 X6.0239 Y2.8268
N32520 G1 X6.0568 Y2.8321
N32530 G1 X6.0856 Y2.8391
N32540 G1 X6.1173 Y2.8496
N32550 G1 X6.1416 Y2.8598
N32560 G1 X6.16 Y2.8694
N32570 G1 X6.1745 Y2.8785
N32580 G1 X6.1876 Y2.8883
N32590 G1 X6.1982 Y2.8976
N32600 G1 X6.2079 Y2.9077
N32610 G1 X6.2202 Y2.9225
N32620 G1 X6.2272 Y2.9333
N32630 G1 X6.2317 Y2.9453
N32640 G1 X6.2334 Y2.958
N32650 G1 X6.2324 Y2.9708
N32660 G1 X6.2285 Y2.983
N32670 G1 X6.2221 Y2.9941
N32680 G1 X6.2134 Y3.0036
N32690 G3 X6.2048 Y3.0081 R0.025
N32700 G1 X6.2011 Y3.0092 Z-0.1997
N32710 G1 X6.1974 Y3.0103 Z-0.1988
N32720 G1 X6.1939 Y3.0114 Z-0.1973
N32730 G1 X6.1907 Y3.0123 Z-0.1952
N32740 G1 X6.1879 Y3.0132 Z-0.1927
N32750 G1 X6.1854 Y3.0139 Z-0.1897
N32760 G1 X6.1835 Y3.0145 Z-0.1863
N32770 G1 X6.182 Y3.0149 Z-0.1827
N32780 G1 X6.1811 Y3.0152 Z-0.1789
N32790 G1 X6.1809 Y3.0153 Z-0.175
N32800 G0 Z0.2
N32810 G0 X6.3285 Y0.1507
N32820 G0 Z-0.15
N32830 G1 Z-0.175 F24.
N32840 G1 X6.3287 Y0.1505 Z-0.1789
N32850 G1 X6.3295 Y0.15 Z-0.1827
N32860 G1 X6.3308 Y0.1492 Z-0.1863
N32870 G1 X6.3325 Y0.148 Z-0.1897
N32880 G1 X6.3346 Y0.1466 Z-0.1927
N32890 G1 X6.3371 Y0.145 Z-0.1952
N32900 G1 X6.3399 Y0.1431 Z-0.1973
N32910 G1 X6.3429 Y0.1411 Z-0.1988
N32920 G1 X6.3461 Y0.139 Z-0.1997
N32930 G1 X6.3493 Y0.1368 Z-0.2
N32940 G3 X6.3591 Y0.1378 R0.0078
N32950 G1 X6.4011 Y0.182
N32960 G1 X6.418 Y0.2016
N32970 G1 X6.4234 Y0.2086
N32980 G1 X6.4283 Y0.2161
N32990 G1 X6.4328 Y0.2243
N33000 G1 X6.4372 Y0.2342
N33010 G1 X6.4409 Y0.2449
N33020 G1 X6.4443 Y0.2577
N33030 G1 X6.4468 Y0.2714
N33040 G1 X6.4483 Y0.2875
N33050 G1 X6.4486 Y0.3044
N33060 G1 X6.4474 Y0.3242
N33070 G1 X6.4444 Y0.3443
N33080 G1 X6.4391 Y0.3679
N33090 G1 X6.4314 Y0.3923
N33100 G1 X6.4207 Y0.4188
N33110 G1 X6.4061 Y0.4478
N33120 G1 X6.3875 Y0.4785
N33130 G1 X6.3658 Y0.5085
N33140 G1 X6.342 Y0.5367
N33150 G1 X6.3163 Y0.5634
N33160 G1 X6.289 Y0.5884
N33170 G1 X6.2604 Y0.6118
N33180 G1 X6.2307 Y0.6339
N33190 G1 X6.1999 Y0.6545
N33200 G1 X6.1683 Y0.6737
N33210 G1 X6.136 Y0.6917
N33220 G1 X6.103 Y0.7085
N33230 G1 X6.0695 Y0.7241
N33240 G1 X6.0354 Y0.7386
N33250 G1 X6.0009 Y0.752
N33260 G1 X5.9661 Y0.7644
N33270 G1 X5.9309 Y0.7759
N33280 G1 X5.8954 Y0.7864
N33290 G1 X5.8597 Y0.796
N33300 G1 X5.8238 Y0.8049
N33310 G1 X5.7876 Y0.8129
N33320 G1 X5.7514 Y0.8202
N33330 G1 X5.715 Y0.8268
N33340 G1 X5.6784 Y0.8328
N33350 G1 X5.655 Y0.8363
N33360 G1 X5.6439 Y0.8368
N33370 G1 X5.6329 Y0.8353
N33380 G1 X5.6224 Y0.8317
N33390 G1 X5.6128 Y0.8262
N33400 G1 X5.6044 Y0.8189
N33410 G1 X5.5855 Y0.7997
N33420 G1 X5.5577 Y0.7732
N33430 G1 X5.5518 Y0.7683
N33440 G1 X5.5292 Y0.7521
N33450 G1 X5.5165 Y0.7464
N33460 G3 X5.5087 Y0.7404 R0.025
N33470 G3 X5.515 Y0.7023 R0.025
N33480 G1 X6.387 Y0.1969
N33490 G3 X6.418 Y0.2016 R0.025
N33500 G1 X6.4264 Y0.2115
N33510 G1 X6.4768 Y0.2769
N33520 G1 X6.482 Y0.2845
N33530 G1 X6.4866 Y0.2923
N33540 G1 X6.4909 Y0.3014
N33550 G1 X6.4948 Y0.3117
N33560 G1 X6.4983 Y0.3238
N33570 G1 X6.501 Y0.3368
N33580 G1 X6.5029 Y0.3523
N33590 G1 X6.5036 Y0.3685
N33600 G1 X6.5028 Y0.3877
N33610 G1 X6.5005 Y0.4078
N33620 G1 X6.4958 Y0.4309
N33630 G1 X6.4887 Y0.4557
N33640 G1 X6.4788 Y0.482
N33650 G1 X6.4651 Y0.5111
N33660 G1 X6.4472 Y0.5423
N33670 G1 X6.4263 Y0.5728
N33680 G1 X6.4032 Y0.6017
N33690 G1 X6.3783 Y0.629
N33700 G1 X6.3517 Y0.6548
N33710 G1 X6.3238 Y0.6791
N33720 G1 X6.2948 Y0.702
N33730 G1 X6.2647 Y0.7236
N33740 G1 X6.2337 Y0.7439
N33750 G1 X6.202 Y0.7629
N33760 G1 X6.1696 Y0.7808
N33770 G1 X6.1366 Y0.7976
N33780 G1 X6.1031 Y0.8132
N33790 G1 X6.0691 Y0.8279
N33800 G1 X6.0347 Y0.8415
N33810 G1 X6. Y0.8542
N33820 G1 X5.9649 Y0.866
N33830 G1 X5.9295 Y0.8768
N33840 G1 X5.8939 Y0.8869
N33850 G1 X5.8581 Y0.8961
N33860 G1 X5.8221 Y0.9046
N33870 G1 X5.7859 Y0.9123
N33880 G1 X5.7496 Y0.9194
N33890 G1 X5.7283 Y0.9224
N33900 G1 X5.7158 Y0.9228
N33910 G1 X5.7035 Y0.9205
N33920 G1 X5.692 Y0.9157
N33930 G1 X5.6817 Y0.9085
N33940 G1 X5.6733 Y0.8993
N33950 G1 X5.6604 Y0.8825
N33960 G1 X5.6061 Y0.8207
N33970 G1 X5.6044 Y0.8189
N33980 G3 X5.5994 Y0.8105 R0.025
N33990 G3 X5.61 Y0.7809 R0.025
N34000 G1 X6.4445 Y0.2715
N34010 G3 X6.4693 Y0.2708 R0.025
N34020 G3 X6.4768 Y0.2769 R0.025
N34030 G1 X6.5322 Y0.3493
N34040 G1 X6.5373 Y0.3569
N34050 G1 X6.5418 Y0.3649
N34060 G1 X6.5459 Y0.3739
N34070 G1 X6.55 Y0.3848
N34080 G1 X6.5532 Y0.3964
N34090 G1 X6.5559 Y0.4105
N34100 G1 X6.5576 Y0.4252
N34110 G1 X6.5582 Y0.443
N34120 G1 X6.5573 Y0.4613
N34130 G1 X6.5544 Y0.4833
N34140 G1 X6.5497 Y0.5056
N34150 G1 X6.5419 Y0.5314
N34160 G1 X6.5311 Y0.5594
N34170 G1 X6.517 Y0.5885
N34180 G1 X6.4983 Y0.6204
N34190 G1 X6.477 Y0.6507
N34200 G1 X6.4537 Y0.6795
N34210 G1 X6.4287 Y0.7067
N34220 G1 X6.4022 Y0.7326
N34230 G1 X6.3745 Y0.757
N34240 G1 X6.3456 Y0.7802
N34250 G1 X6.3158 Y0.8021
N34260 G1 X6.2851 Y0.8227
N34270 G1 X6.2536 Y0.8422
N34280 G1 X6.2215 Y0.8606
N34290 G1 X6.1888 Y0.8779
N34300 G1 X6.1555 Y0.8942
N34310 G1 X6.1218 Y0.9094
N34320 G1 X6.0877 Y0.9237
N34330 G1 X6.0532 Y0.9371
N34340 G1 X6.0184 Y0.9496
N34350 G1 X5.9833 Y0.9612
N34360 G1 X5.9479 Y0.972
N34370 G1 X5.9122 Y0.9821
N34380 G1 X5.8764 Y0.9913
N34390 G1 X5.8404 Y0.9998
N34400 G1 X5.8065 Y1.0064
N34410 G1 X5.7864 Y1.0086
N34420 G1 X5.7734
N34430 G1 X5.7607 Y1.0057
N34440 G1 X5.749 Y1.
N34450 G1 X5.7388 Y0.9919
N34460 G1 X5.7307 Y0.9817
N34470 G1 X5.72 Y0.9651
N34480 G1 X5.678 Y0.9056
N34490 G1 X5.6733 Y0.8993
N34500 G3 X5.6694 Y0.8903 R0.025
N34510 G3 X5.6805 Y0.864 R0.025
N34520 G1 X6.4993 Y0.3439
N34530 G3 X6.5247 Y0.3431 R0.025
N34540 G3 X6.5322 Y0.3493 R0.025
N34550 G1 X6.5468 Y0.3699
N34560 G1 X6.5609 Y0.3918
N34570 G1 X6.5887 Y0.4371
N34580 G1 X6.5945 Y0.4479
N34590 G1 X6.5985 Y0.457
N34600 G1 X6.6022 Y0.4674
N34610 G1 X6.6052 Y0.4791
N34620 G1 X6.6077 Y0.493
N34630 G1 X6.6091 Y0.5076
N34640 G1 X6.6094 Y0.5253
N34650 G1 X6.6082 Y0.5435
N34660 G1 X6.605 Y0.5654
N34670 G1 X6.5998 Y0.5877
N34680 G1 X6.5917 Y0.6133
N34690 G1 X6.5801 Y0.6418
N34700 G1 X6.565 Y0.6717
N34710 G1 X6.5458 Y0.7033
N34720 G1 X6.5241 Y0.7333
N34730 G1 X6.5005 Y0.7618
N34740 G1 X6.4753 Y0.7889
N34750 G1 X6.4487 Y0.8146
N34760 G1 X6.4209 Y0.839
N34770 G1 X6.392 Y0.8621
N34780 G1 X6.3622 Y0.8841
N34790 G1 X6.3317 Y0.9049
N34800 G1 X6.3003 Y0.9247
N34810 G1 X6.2684 Y0.9433
N34820 G1 X6.2359 Y0.9609
N34830 G1 X6.2028 Y0.9776
N34840 G1 X6.1693 Y0.9932
N34850 G1 X6.1353 Y1.008
N34860 G1 X6.101 Y1.0218
N34870 G1 X6.0664 Y1.0349
N34880 G1 X6.0314 Y1.047
N34890 G1 X5.9962 Y1.0584
N34900 G1 X5.9608 Y1.069
N34910 G1 X5.9251 Y1.0788
N34920 G1 X5.8891 Y1.0874
N34930 G1 X5.8601 Y1.0926
N34940 G1 X5.8367 Y1.0948
N34950 G1 X5.8288 Y1.095
N34960 G1 X5.8158 Y1.0937
N34970 G1 X5.8035 Y1.0897
N34980 G1 X5.7924 Y1.083
N34990 G1 X5.783 Y1.074
N35000 G1 X5.7758 Y1.0631
N35010 G1 X5.7515 Y1.0169
N35020 G1 X5.742 Y1.0001
N35030 G1 X5.7307 Y0.9817
N35040 G3 X5.7275 Y0.9725 R0.025
N35050 G3 X5.7389 Y0.948 R0.025
N35060 G1 X6.5544 Y0.4298
N35070 G3 X6.5887 Y0.4371 R0.025
N35080 G1 X6.6399 Y0.5212
N35090 G1 X6.6456 Y0.5324
N35100 G1 X6.6495 Y0.5418
N35110 G1 X6.6529 Y0.5521
N35120 G1 X6.6557 Y0.564
N35130 G1 X6.6578 Y0.578
N35140 G1 X6.6589 Y0.5929
N35150 G1 X6.6588 Y0.6107
N35160 G1 X6.6571 Y0.6291
N35170 G1 X6.6534 Y0.6512
N35180 G1 X6.6476 Y0.674
N35190 G1 X6.6388 Y0.6998
N35200 G1 X6.6262 Y0.7287
N35210 G1 X6.6095 Y0.7599
N35220 G1 X6.5896 Y0.7911
N35230 G1 X6.5673 Y0.8207
N35240 G1 X6.5433 Y0.8488
N35250 G1 X6.5177 Y0.8755
N35260 G1 X6.4908 Y0.9009
N35270 G1 X6.4628 Y0.9251
N35280 G1 X6.4338 Y0.9481
N35290 G1 X6.4039 Y0.9699
N35300 G1 X6.3733 Y0.9907
N35310 G1 X6.342 Y1.0104
N35320 G1 X6.3101 Y1.0291
N35330 G1 X6.2776 Y1.0469
N35340 G1 X6.2446 Y1.0637
N35350 G1 X6.2112 Y1.0796
N35360 G1 X6.1774 Y1.0946
N35370 G1 X6.1432 Y1.1088
N35380 G1 X6.1087 Y1.1221
N35390 G1 X6.0739 Y1.1347
N35400 G1 X6.0388 Y1.1464
N35410 G1 X6.0035 Y1.1573
N35420 G1 X5.9678 Y1.1671
N35430 G1 X5.9317 Y1.1753
N35440 G1 X5.9028 Y1.1799
N35450 G1 X5.8807 Y1.1816
N35460 G1 X5.8613 Y1.1815
N35470 G1 X5.8485 Y1.1789
N35480 G1 X5.8366 Y1.1736
N35490 G1 X5.8262 Y1.1658
N35500 G1 X5.8178 Y1.1559
N35510 G1 X5.8118 Y1.1444
N35520 G1 X5.8009 Y1.1177
N35530 G1 X5.7822 Y1.0757
N35540 G1 X5.7758 Y1.0631
N35550 G3 X5.7735 Y1.0537 R0.025
N35560 G3 X5.7852 Y1.0314 R0.025
N35570 G1 X6.6056 Y0.5138
N35580 G3 X6.6399 Y0.5212 R0.025
N35590 G1 X6.6544 Y0.5464
N35600 G1 X6.6717 Y0.58
N35610 G1 X6.6914 Y0.622
N35620 G1 X6.6956 Y0.6322
N35630 G1 X6.6987 Y0.6419
N35640 G1 X6.7014 Y0.6534
N35650 G1 X6.7034 Y0.6668
N35660 G1 X6.7044 Y0.681
N35670 G1 X6.7041 Y0.6984
N35680 G1 X6.7025 Y0.7161
N35690 G1 X6.6987 Y0.7376
N35700 G1 X6.693 Y0.7595
N35710 G1 X6.6842 Y0.7851
N35720 G1 X6.6717 Y0.8134
N35730 G1 X6.6554 Y0.8437
N35740 G1 X6.6353 Y0.8748
N35750 G1 X6.6129 Y0.9043
N35760 G1 X6.5887 Y0.9323
N35770 G1 X6.5631 Y0.9589
N35780 G1 X6.5361 Y0.9843
N35790 G1 X6.5081 Y1.0084
N35800 G1 X6.4791 Y1.0314
N35810 G1 X6.4493 Y1.0534
N35820 G1 X6.4187 Y1.0742
N35830 G1 X6.3875 Y1.0941
N35840 G1 X6.3557 Y1.113
N35850 G1 X6.3234 Y1.131
N35860 G1 X6.2906 Y1.1481
N35870 G1 X6.2573 Y1.1643
N35880 G1 X6.2236 Y1.1796
N35890 G1 X6.1896 Y1.1941
N35900 G1 X6.1552 Y1.2079
N35910 G1 X6.1205 Y1.2208
N35920 G1 X6.0856 Y1.2328
N35930 G1 X6.0503 Y1.2439
N35940 G1 X6.0146 Y1.2538
N35950 G1 X5.9785 Y1.2621
N35960 G1 X5.9473 Y1.2672
N35970 G1 X5.9231 Y1.2692
N35980 G1 X5.903
N35990 G1 X5.8906 Y1.2682
N36000 G1 X5.8791 Y1.2662
N36010 G1 X5.8682 Y1.2618
N36020 G1 X5.8584 Y1.2554
N36030 G1 X5.8501 Y1.2471
N36040 G1 X5.8436 Y1.2374
N36050 G1 X5.8392 Y1.2265
N36060 G1 X5.8315 Y1.2017
N36070 G1 X5.8176 Y1.1597
N36080 G1 X5.8118 Y1.1444
N36090 G3 X5.8104 Y1.1347 R0.025
N36100 G3 X5.8225 Y1.1148 R0.025
N36110 G1 X6.6563 Y0.612
N36120 G3 X6.6914 Y0.622 R0.025
N36130 G1 X6.7349 Y0.7144
N36140 G1 X6.7387 Y0.7239
N36150 G1 X6.7417 Y0.7331
N36160 G1 X6.7443 Y0.7444
N36170 G1 X6.7461 Y0.7569
N36180 G1 X6.7471 Y0.771
N36190 G1 X6.7468 Y0.7875
N36200 G1 X6.7452 Y0.8048
N36210 G1 X6.7416 Y0.8254
N36220 G1 X6.736 Y0.847
N36230 G1 X6.7274 Y0.8716
N36240 G1 X6.7152 Y0.8992
N36250 G1 X6.699 Y0.9292
N36260 G1 X6.6788 Y0.9602
N36270 G1 X6.6564 Y0.9897
N36280 G1 X6.6321 Y1.0176
N36290 G1 X6.6064 Y1.0442
N36300 G1 X6.5794 Y1.0695
N36310 G1 X6.5513 Y1.0936
N36320 G1 X6.5223 Y1.1166
N36330 G1 X6.4925 Y1.1385
N36340 G1 X6.462 Y1.1594
N36350 G1 X6.4308 Y1.1793
N36360 G1 X6.399 Y1.1984
N36370 G1 X6.3668 Y1.2165
N36380 G1 X6.334 Y1.2337
N36390 G1 X6.3009 Y1.2501
N36400 G1 X6.2673 Y1.2657
N36410 G1 X6.2334 Y1.2805
N36420 G1 X6.1991 Y1.2945
N36430 G1 X6.1645 Y1.3076
N36440 G1 X6.1296 Y1.3199
N36450 G1 X6.0944 Y1.331
N36460 G1 X6.0587 Y1.341
N36470 G1 X6.0226 Y1.3493
N36480 G1 X5.9862 Y1.3554
N36490 G1 X5.9584 Y1.3578
N36500 G1 X5.9366 Y1.3579
N36510 G1 X5.9186 Y1.3566
N36520 G1 X5.9072 Y1.3548
N36530 G1 X5.8959 Y1.3519
N36540 G1 X5.8853 Y1.3467
N36550 G1 X5.8761 Y1.3395
N36560 G1 X5.8684 Y1.3307
N36570 G1 X5.8627 Y1.3205
N36580 G1 X5.8591 Y1.3093
N36590 G1 X5.8508 Y1.2689
N36600 G1 X5.8418 Y1.2353
N36610 G1 X5.8392 Y1.2265
N36620 G3 X5.8508 Y1.1987 R0.025
N36630 G1 X6.7 Y0.7042
N36640 G3 X6.7349 Y0.7144 R0.025
N36650 G1 X6.746 Y0.7396
N36660 G1 X6.7528 Y0.7564
N36670 G1 X6.765 Y0.79
N36680 G1 X6.7765 Y0.8236
N36690 G1 X6.7801 Y0.8358
N36700 G1 X6.7822 Y0.8463
N36710 G1 X6.7837 Y0.8586
N36720 G1 X6.7843 Y0.873
N36730 G1 X6.7837 Y0.8881
N36740 G1 X6.7815 Y0.9064
N36750 G1 X6.7776 Y0.9252
N36760 G1 X6.7712 Y0.9476
N36770 G1 X6.7622 Y0.9713
N36780 G1 X6.7496 Y0.9981
N36790 G1 X6.7323 Y1.0282
N36800 G1 X6.7113 Y1.0587
N36810 G1 X6.6882 Y1.0875
N36820 G1 X6.6633 Y1.115
N36830 G1 X6.6371 Y1.141
N36840 G1 X6.6096 Y1.1658
N36850 G1 X6.5812 Y1.1895
N36860 G1 X6.5518 Y1.212
N36870 G1 X6.5217 Y1.2335
N36880 G1 X6.4909 Y1.2541
N36890 G1 X6.4595 Y1.2737
N36900 G1 X6.4276 Y1.2924
N36910 G1 X6.3952 Y1.3102
N36920 G1 X6.3623 Y1.3272
N36930 G1 X6.3291 Y1.3434
N36940 G1 X6.2954 Y1.3589
N36950 G1 X6.2614 Y1.3735
N36960 G1 X6.2271 Y1.3873
N36970 G1 X6.1924 Y1.4002
N36980 G1 X6.1574 Y1.4121
N36990 G1 X6.122 Y1.4229
N37000 G1 X6.0862 Y1.4323
N37010 G1 X6.05 Y1.44
N37020 G1 X6.0134 Y1.4454
N37030 G1 X5.9825 Y1.4477
N37040 G1 X5.9596 Y1.4475
N37050 G1 X5.9393 Y1.4456
N37060 G1 X5.9222 Y1.4427
N37070 G1 X5.9153 Y1.4409
N37080 G1 X5.9041 Y1.4368
N37090 G1 X5.894 Y1.4305
N37100 G1 X5.8853 Y1.4222
N37110 G1 X5.8785 Y1.4124
N37120 G1 X5.8739 Y1.4014
N37130 G1 X5.8716 Y1.3896
N37140 G1 X5.8706 Y1.3782
N37150 G1 X5.8657 Y1.3446
N37160 G1 X5.8613 Y1.3194
N37170 G1 X5.8591 Y1.3093
N37180 G3 X5.8593 Y1.2996 R0.025
N37190 G3 X5.8718 Y1.283 R0.025
N37200 G1 X6.7413 Y0.8106
N37210 G3 X6.7765 Y0.8236 R0.025
N37220 G1 X6.8111 Y0.9245
N37230 G1 X6.8148 Y0.9384
N37240 G1 X6.8166 Y0.9486
N37250 G1 X6.8178 Y0.9608
N37260 G1 X6.8181 Y0.975
N37270 G1 X6.8171 Y0.9899
N37280 G1 X6.8146 Y1.008
N37290 G1 X6.8103 Y1.0265
N37300 G1 X6.8034 Y1.0486
N37310 G1 X6.7939 Y1.0721
N37320 G1 X6.7806 Y1.0987
N37330 G1 X6.7625 Y1.1286
N37340 G1 X6.7409 Y1.1586
N37350 G1 X6.7171 Y1.187
N37360 G1 X6.6917 Y1.2139
N37370 G1 X6.665 Y1.2395
N37380 G1 X6.6371 Y1.2638
N37390 G1 X6.6082 Y1.287
N37400 G1 X6.5786 Y1.3091
N37410 G1 X6.5482 Y1.3302
N37420 G1 X6.5171 Y1.3503
N37430 G1 X6.4855 Y1.3695
N37440 G1 X6.4534 Y1.3879
N37450 G1 X6.4208 Y1.4054
N37460 G1 X6.3878 Y1.4222
N37470 G1 X6.3544 Y1.4381
N37480 G1 X6.3206 Y1.4532
N37490 G1 X6.2865 Y1.4676
N37500 G1 X6.252 Y1.481
N37510 G1 X6.2172 Y1.4936
N37520 G1 X6.1821 Y1.505
N37530 G1 X6.1465 Y1.5153
N37540 G1 X6.1106 Y1.5242
N37550 G1 X6.0743 Y1.5312
N37560 G1 X6.0376 Y1.5362
N37570 G1 X6.0032 Y1.5383
N37580 G1 X5.9764 Y1.5378
N37590 G1 X5.9557 Y1.5357
N37600 G1 X5.9368 Y1.5323
N37610 G1 X5.9207 Y1.528
N37620 G1 X5.9165 Y1.5265
N37630 G1 X5.9059 Y1.5215
N37640 G1 X5.8965 Y1.5144
N37650 G1 X5.8887 Y1.5056
N37660 G1 X5.8828 Y1.4954
N37670 G1 X5.8791 Y1.4843
N37680 G1 X5.8777 Y1.4726
N37690 G1 X5.8771 Y1.4538
N37700 G1 X5.8745 Y1.4202
N37710 G1 X5.8716 Y1.3896
N37720 G3 X5.873 Y1.38 R0.025
N37730 G3 X5.8852 Y1.366 R0.025
N37740 G1 X6.7762 Y0.9108
N37750 G3 X6.8111 Y0.9245 R0.025
N37760 G1 X6.819 Y0.9497
N37770 G1 X6.8277 Y0.9833
N37780 G1 X6.8411 Y1.0421
N37790 G1 X6.8436 Y1.0565
N37800 G1 X6.8447 Y1.0682
N37810 G1 X6.8449 Y1.0811
N37820 G1 X6.8439 Y1.0953
N37830 G1 X6.8414 Y1.1123
N37840 G1 X6.8373 Y1.1299
N37850 G1 X6.8307 Y1.1507
N37860 G1 X6.8215 Y1.173
N37870 G1 X6.8087 Y1.1983
N37880 G1 X6.7912 Y1.2268
N37890 G1 X6.7694 Y1.2567
N37900 G1 X6.7455 Y1.2849
N37910 G1 X6.7198 Y1.3116
N37920 G1 X6.6928 Y1.3369
N37930 G1 X6.6646 Y1.3609
N37940 G1 X6.6355 Y1.3837
N37950 G1 X6.6056 Y1.4054
N37960 G1 X6.5749 Y1.4262
N37970 G1 X6.5437 Y1.446
N37980 G1 X6.5119 Y1.4649
N37990 G1 X6.4796 Y1.483
N38000 G1 X6.4469 Y1.5003
N38010 G1 X6.4137 Y1.5168
N38020 G1 X6.3802 Y1.5324
N38030 G1 X6.3463 Y1.5473
N38040 G1 X6.3121 Y1.5613
N38050 G1 X6.2775 Y1.5744
N38060 G1 X6.2425 Y1.5866
N38070 G1 X6.2072 Y1.5977
N38080 G1 X6.1716 Y1.6075
N38090 G1 X6.1355 Y1.6159
N38100 G1 X6.0991 Y1.6225
