; G-Code generated by Simplify3D(R) Version 3.1.1
; Dec 13, 2016 at 11:41:53 AM
; Settings Summary
;   processName,Process1
;   applyToModels,CustomHanger
;   profileName,MakerGear M2 (24V V4 hotend) (modified)
;   profileVersion,2015-09-04 08:00:00
;   baseProfile,
;   printMaterial,PLA
;   printQuality,Fast
;   printExtruders,
;   extruderName,Primary Extruder
;   extruderToolheadNumber,0
;   extruderDiameter,0.35
;   extruderAutoWidth,0
;   extruderWidth,0.4
;   extrusionMultiplier,0.9
;   extruderUseRetract,1
;   extruderRetractionDistance,1
;   extruderExtraRestartDistance,0
;   extruderRetractionZLift,0
;   extruderRetractionSpeed,2400
;   extruderUseCoasting,0
;   extruderCoastingDistance,0.2
;   extruderUseWipe,0
;   extruderWipeDistance,5
;   primaryExtruder,0
;   layerHeight,0.3
;   topSolidLayers,3
;   bottomSolidLayers,3
;   perimeterOutlines,2
;   printPerimetersInsideOut,1
;   startPointOption,2
;   startPointOriginX,0
;   startPointOriginY,0
;   startPointOriginZ,300
;   sequentialIslands,0
;   spiralVaseMode,0
;   firstLayerHeightPercentage,90
;   firstLayerWidthPercentage,100
;   firstLayerUnderspeed,0.5
;   useRaft,1
;   raftExtruder,0
;   raftLayers,3
;   raftOffset,3
;   raftSeparationDistance,0.14
;   raftInfill,85
;   disableRaftBaseLayers,0
;   useSkirt,1
;   skirtExtruder,0
;   skirtLayers,1
;   skirtOutlines,2
;   skirtOffset,4
;   usePrimePillar,0
;   primePillarExtruder,999
;   primePillarWidth,12
;   primePillarLocation,7
;   primePillarSpeedMultiplier,1
;   useOozeShield,0
;   oozeShieldExtruder,999
;   oozeShieldOffset,2
;   oozeShieldOutlines,1
;   oozeShieldSidewallShape,1
;   oozeShieldSidewallAngle,30
;   oozeShieldSpeedMultiplier,1
;   infillExtruder,0
;   internalInfillPattern,Rectilinear
;   externalInfillPattern,Rectilinear
;   infillPercentage,4
;   outlineOverlapPercentage,15
;   infillExtrusionWidthPercentage,100
;   minInfillLength,5
;   infillLayerInterval,1
;   infillAngles,45,-45
;   overlapInfillAngles,0
;   generateSupport,1
;   supportExtruder,0
;   supportInfillPercentage,25
;   supportExtraInflation,0
;   denseSupportLayers,0
;   denseSupportInfillPercentage,70
;   supportLayerInterval,1
;   supportHorizontalPartOffset,0.3
;   supportUpperSeparationLayers,1
;   supportLowerSeparationLayers,1
;   supportType,0
;   supportGridSpacing,4
;   maxOverhangAngle,45
;   supportAngles,0
;   temperatureName,Primary Extruder,Heated Bed
;   temperatureNumber,0,2
;   temperatureSetpointCount,1,1
;   temperatureSetpointLayers,1,1
;   temperatureSetpointTemperatures,215,70
;   temperatureStabilizeAtStartup,1,1
;   temperatureHeatedBed,0,1
;   temperatureRelayBetweenLayers,0,0
;   temperatureRelayBetweenLoops,0,0
;   fanLayers,1,2
;   fanSpeeds,0,100
;   blipFanToFullPower,1
;   adjustSpeedForCooling,1
;   minSpeedLayerTime,15
;   minCoolingSpeedSlowdown,20
;   increaseFanForCooling,0
;   minFanLayerTime,45
;   maxCoolingFanSpeed,100
;   increaseFanForBridging,0
;   bridgingFanSpeed,100
;   use5D,1
;   relativeEdistances,0
;   allowEaxisZeroing,1
;   independentExtruderAxes,0
;   includeM10123,0
;   stickySupport,1
;   applyToolheadOffsets,0
;   gcodeXoffset,0
;   gcodeYoffset,0
;   gcodeZoffset,0
;   overrideMachineDefinition,1
;   machineTypeOverride,0
;   strokeXoverride,200
;   strokeYoverride,250
;   strokeZoverride,200
;   originOffsetXoverride,0
;   originOffsetYoverride,0
;   originOffsetZoverride,0
;   homeXdirOverride,-1
;   homeYdirOverride,-1
;   homeZdirOverride,-1
;   flipXoverride,1
;   flipYoverride,-1
;   flipZoverride,1
;   toolheadOffsets,0,0|0,0|0,0|0,0|0,0|0,0
;   overrideFirmwareConfiguration,1
;   firmwareTypeOverride,RepRap (Marlin/Repetier/Sprinter)
;   GPXconfigOverride,r2
;   baudRateOverride,115200
;   overridePrinterModels,1
;   printerModelsOverride,MakerGear_M2Single.stl
;   startingGcode,M108 S255 ; turn on M2 fans,G28 ; home all axes,G1 Y50 Z0.3 F9600 ; move forward to avoid binder clips,G1 X205 Z10 ; move off platform,G1 Z0.4 ; position nozzle,G92 E0 ; zero extruder,G1 E25 F225 ; purge nozzle,G92 E0 ; zero extruder,G1 X190 Z0.1 E1.0 F1200 ; slow wipe,G1 X180 Z0.25 ; lift
;   layerChangeGcode,
;   retractionGcode,
;   toolChangeGcode,
;   endingGcode,M104 S0 ; turn off extruder,M140 S0 ; turn off bed,G91 ; relative mode,G1 Z10 ; lift 10mm,G90 ; absolute mode,G28 X0 ; home X axis,M84 ; disable motors
;   exportFileFormat,gcode
;   celebration,0
;   celebrationSong,Random Song
;   postProcessing,
;   defaultSpeed,4800
;   outlineUnderspeed,0.6
;   solidInfillUnderspeed,0.8
;   supportUnderspeed,0.8
;   rapidXYspeed,18000
;   rapidZspeed,1200
;   minBridgingArea,50
;   bridgingExtraInflation,0
;   bridgingExtrusionMultiplier,1
;   bridgingSpeedMultiplier,1
;   filamentDiameter,1.75
;   filamentPricePerKg,46
;   filamentDensity,1.25
;   useMinPrintHeight,0
;   minPrintHeight,0
;   useMaxPrintHeight,0
;   maxPrintHeight,0
;   useDiaphragm,0
;   diaphragmLayerInterval,20
;   robustSlicing,1
;   mergeAllIntoSolid,0
;   onlyRetractWhenCrossingOutline,1
;   retractBetweenLayers,1
;   useRetractionMinTravel,0
;   retractionMinTravel,3
;   retractWhileWiping,0
;   onlyWipeOutlines,1
;   avoidCrossingOutline,0
;   maxMovementDetourFactor,3
;   toolChangeRetractionDistance,12
;   toolChangeExtraRestartDistance,-0.5
;   toolChangeRetractionSpeed,600
;   allowThinWallGapFill,1
;   thinWallAllowedOverlapPercentage,10
;   horizontalSizeCompensation,0
G90
M82
M106 S0
M140 S70
M190 S70
M104 S215 T0
M109 S215 T0
M108 S255 ; turn on M2 fans
G28 ; home all axes
G1 Y50 Z0.3 F9600 ; move forward to avoid binder clips
G1 X205 Z10 ; move off platform
G1 Z0.4 ; position nozzle
G92 E0 ; zero extruder
G1 E25 F225 ; purge nozzle
G92 E0 ; zero extruder
G1 X190 Z0.1 E1.0 F1200 ; slow wipe
G1 X180 Z0.25 ; lift
G92 E0
G1 E-1.0000 F2400
G1 Z0.394 F1200
; layer 1, Z = 0.39375
T0
; tool H0.437 W0.400
; skirt
G1 X38.663 Y77.226 F18000
G1 E0.0000 F720
G92 E0
G1 X40.044 Y76.549 E0.1007 F2400
G1 X40.055 Y76.544 E0.1015
G1 X40.209 Y76.475 E0.1126
G1 X40.220 Y76.471 E0.1133
G1 X40.724 Y76.271 E0.1488
G1 X40.735 Y76.267 E0.1496
G1 X40.894 Y76.210 E0.1607
G1 X40.905 Y76.207 E0.1614
G1 X42.375 Y75.753 E0.2622
G1 X42.387 Y75.750 E0.2630
G1 X42.550 Y75.707 E0.2740
G1 X42.562 Y75.704 E0.2748
G1 X43.091 Y75.585 E0.3103
G1 X43.102 Y75.583 E0.3111
G1 X43.268 Y75.552 E0.3221
G1 X43.280 Y75.551 E0.3229
G1 X44.803 Y75.333 E0.4236
G1 X44.814 Y75.331 E0.4244
G1 X44.982 Y75.314 E0.4355
G1 X44.994 Y75.313 E0.4362
G1 X45.535 Y75.278 E0.4717
G1 X45.547 Y75.278 E0.4725
G1 X45.716 Y75.274 E0.4836
G1 X45.728 Y75.274 E0.4843
G1 X47.266 Y75.297 E0.5851
G1 X47.278 Y75.297 E0.5859
G1 X47.446 Y75.306 E0.5969
G1 X47.458 Y75.307 E0.5977
G1 X47.998 Y75.358 E0.6332
G1 X48.010 Y75.359 E0.6340
G1 X48.177 Y75.382 E0.6450
G1 X48.189 Y75.383 E0.6458
G1 X49.705 Y75.647 E0.7465
G1 X49.716 Y75.649 E0.7473
G1 X49.881 Y75.684 E0.7584
G1 X49.893 Y75.687 E0.7591
G1 X50.418 Y75.822 E0.7946
G1 X50.429 Y75.825 E0.7954
G1 X50.591 Y75.873 E0.8065
G1 X50.602 Y75.877 E0.8072
G1 X52.058 Y76.374 E0.9080
G1 X52.069 Y76.378 E0.9088
G1 X52.227 Y76.439 E0.9198
G1 X52.238 Y76.443 E0.9206
G1 X52.735 Y76.658 E0.9561
G1 X52.746 Y76.663 E0.9569
G1 X52.898 Y76.736 E0.9679
G1 X52.909 Y76.741 E0.9687
G1 X54.148 Y77.396 E1.0605
G1 X54.153 Y77.399 E1.0609
G1 X54.227 Y77.440 E1.0663
G1 X54.232 Y77.442 E1.0667
G1 X54.464 Y77.577 E1.0843
G1 X54.469 Y77.580 E1.0847
G1 X54.541 Y77.623 E1.0902
G1 X54.546 Y77.626 E1.0905
G1 X58.710 Y80.261 E1.4132
G1 X76.816 Y82.144 E2.6052
G1 X79.080 Y82.239 E2.7536
G1 X81.050 Y82.079 E2.8830
G1 X82.984 Y81.678 E3.0124
G1 X84.855 Y81.042 E3.1417
G1 X86.633 Y80.181 E3.2711
G1 X88.292 Y79.107 E3.4005
G1 X89.806 Y77.838 E3.5299
G1 X91.152 Y76.391 E3.6593
G1 X92.480 Y74.557 E3.8075
G1 X124.719 Y23.674 E7.7519
G1 X124.801 Y23.588 E7.7596
G1 X126.199 Y22.604 E7.8716
G1 X126.307 Y22.556 E7.8793
G1 X131.814 Y21.321 E8.2489
G1 X131.933 Y21.318 E8.2567
G1 X133.617 Y21.611 E8.3686
G1 X133.727 Y21.653 E8.3763
G1 X140.957 Y26.234 E8.9368
G1 X151.914 Y8.940 E10.2774
G1 X151.996 Y8.855 E10.2851
G1 X153.394 Y7.870 E10.3971
G1 X153.502 Y7.823 E10.4048
G1 X159.012 Y6.588 E10.7746
G1 X159.130 Y6.585 E10.7823
G1 X160.815 Y6.879 E10.8943
G1 X160.925 Y6.921 E10.9020
G1 X163.310 Y8.433 E11.0869
G1 X180.748 Y19.482 E12.4387
G1 X180.834 Y19.564 E12.4464
G1 X181.818 Y20.962 E12.5584
G1 X181.866 Y21.070 E12.5661
G1 X183.101 Y26.578 E12.9357
G1 X183.104 Y26.696 E12.9435
G1 X182.811 Y28.380 E13.0554
G1 X182.769 Y28.490 E13.0631
G1 X171.812 Y45.783 E14.4037
G1 X179.042 Y50.364 E14.9641
G1 X179.127 Y50.446 E14.9719
G1 X180.111 Y51.844 E15.0838
G1 X180.159 Y51.952 E15.0916
G1 X181.394 Y57.460 E15.4612
G1 X181.397 Y57.578 E15.4689
G1 X181.105 Y59.262 E15.5808
G1 X181.062 Y59.372 E15.5886
G1 X169.988 Y76.850 E16.9434
G1 X169.952 Y76.896 E16.9473
G1 X169.368 Y77.510 E17.0027
G1 X169.323 Y77.548 E17.0066
G1 X167.085 Y79.123 E17.1858
G1 X167.034 Y79.152 E17.1896
G1 X166.260 Y79.495 E17.2451
G1 X166.204 Y79.514 E17.2490
G1 X149.661 Y83.224 E18.3591
G1 X148.811 Y83.486 E18.4174
G1 X148.343 Y83.716 E18.4515
G1 X147.917 Y84.016 E18.4856
G1 X147.543 Y84.379 E18.5197
G1 X147.010 Y85.090 E18.5780
G1 X83.992 Y184.552 E26.2880
G1 X83.576 Y185.338 E26.3462
G1 X83.408 Y185.831 E26.3803
G1 X83.318 Y186.345 E26.4145
G1 X83.310 Y186.866 E26.4486
G1 X83.436 Y187.746 E26.5069
G1 X87.147 Y204.289 E27.6170
G1 X87.154 Y204.347 E27.6209
G1 X87.175 Y205.194 E27.6763
G1 X87.170 Y205.253 E27.6802
G1 X86.702 Y207.949 E27.8594
G1 X86.686 Y208.006 E27.8632
G1 X86.381 Y208.796 E27.9187
G1 X86.355 Y208.849 E27.9225
G1 X75.281 Y226.326 E29.2774
G1 X75.199 Y226.412 E29.2851
G1 X73.801 Y227.396 E29.3970
G1 X73.693 Y227.444 E29.4048
G1 X68.186 Y228.679 E29.7744
G1 X68.067 Y228.682 E29.7821
G1 X66.383 Y228.389 E29.8941
G1 X66.273 Y228.347 E29.9018
G1 X59.046 Y223.767 E30.4621
G1 X48.089 Y241.061 E31.8026
G1 X48.007 Y241.146 E31.8103
G1 X46.609 Y242.130 E31.9223
G1 X46.501 Y242.178 E31.9300
G1 X40.994 Y243.414 E32.2996
G1 X40.875 Y243.416 E32.3074
G1 X39.191 Y243.124 E32.4193
G1 X39.081 Y243.081 E32.4270
G1 X19.249 Y230.516 E33.9644
G1 X19.164 Y230.434 E33.9721
G1 X18.180 Y229.036 E34.0840
G1 X18.132 Y228.928 E34.0918
G1 X16.896 Y223.421 E34.4614
G1 X16.893 Y223.303 E34.4691
G1 X17.186 Y221.618 E34.5811
G1 X17.229 Y221.508 E34.5888
G1 X28.186 Y204.215 E35.9293
G1 X20.958 Y199.636 E36.4896
G1 X20.873 Y199.554 E36.4973
G1 X19.889 Y198.156 E36.6093
G1 X19.841 Y198.048 E36.6170
G1 X18.606 Y192.540 E36.9866
G1 X18.603 Y192.422 E36.9943
G1 X18.895 Y190.738 E37.1063
G1 X18.938 Y190.628 E37.1140
G1 X51.177 Y139.745 E41.0584
G1 X52.269 Y137.761 E41.2067
G1 X53.002 Y135.926 E41.3360
G1 X53.503 Y134.014 E41.4654
G1 X53.765 Y132.056 E41.5948
G1 X53.784 Y130.080 E41.7242
G1 X53.561 Y128.117 E41.8536
G1 X53.097 Y126.196 E41.9829
G1 X52.401 Y124.347 E42.1123
G1 X51.347 Y122.340 E42.2608
G1 X41.917 Y106.775 E43.4524
G1 X37.732 Y104.127 E43.7767
G1 X37.726 Y104.124 E43.7772
G1 X37.639 Y104.066 E43.7840
G1 X37.633 Y104.062 E43.7845
G1 X37.360 Y103.870 E43.8063
G1 X37.354 Y103.866 E43.8068
G1 X37.271 Y103.804 E43.8136
G1 X37.265 Y103.799 E43.8141
G1 X36.156 Y102.938 E43.9061
G1 X36.148 Y102.931 E43.9067
G1 X36.034 Y102.835 E43.9165
G1 X36.026 Y102.829 E43.9172
G1 X35.669 Y102.509 E43.9486
G1 X35.661 Y102.502 E43.9492
G1 X35.554 Y102.399 E43.9590
G1 X35.546 Y102.391 E43.9597
G1 X34.496 Y101.311 E44.0583
G1 X34.488 Y101.303 E44.0591
G1 X34.376 Y101.178 E44.0701
G1 X34.368 Y101.169 E44.0709
G1 X34.023 Y100.753 E44.1063
G1 X34.016 Y100.744 E44.1070
G1 X33.913 Y100.610 E44.1181
G1 X33.906 Y100.601 E44.1188
G1 X33.020 Y99.345 E44.2195
G1 X33.014 Y99.335 E44.2202
G1 X32.922 Y99.194 E44.2313
G1 X32.916 Y99.184 E44.2320
G1 X32.639 Y98.719 E44.2674
G1 X32.633 Y98.709 E44.2682
G1 X32.553 Y98.561 E44.2793
G1 X32.548 Y98.550 E44.2800
G1 X31.868 Y97.172 E44.3807
G1 X31.863 Y97.161 E44.3814
G1 X31.795 Y97.007 E44.3925
G1 X31.790 Y96.996 E44.3932
G1 X31.590 Y96.493 E44.4287
G1 X31.585 Y96.482 E44.4295
G1 X31.529 Y96.323 E44.4405
G1 X31.525 Y96.312 E44.4413
G1 X31.070 Y94.844 E44.5419
G1 X31.067 Y94.833 E44.5427
G1 X31.023 Y94.670 E44.5537
G1 X31.020 Y94.658 E44.5545
G1 X30.901 Y94.129 E44.5900
G1 X30.898 Y94.118 E44.5908
G1 X30.867 Y93.952 E44.6019
G1 X30.866 Y93.940 E44.6026
G1 X30.645 Y92.419 E44.7033
G1 X30.644 Y92.408 E44.7040
G1 X30.626 Y92.239 E44.7151
G1 X30.625 Y92.228 E44.7159
G1 X30.590 Y91.686 E44.7514
G1 X30.589 Y91.674 E44.7522
G1 X30.585 Y91.505 E44.7632
G1 X30.585 Y91.494 E44.7640
G1 X30.605 Y89.957 E44.8646
G1 X30.606 Y89.945 E44.8654
G1 X30.614 Y89.776 E44.8765
G1 X30.615 Y89.764 E44.8773
G1 X30.665 Y89.223 E44.9129
G1 X30.667 Y89.212 E44.9136
G1 X30.689 Y89.044 E44.9247
G1 X30.691 Y89.032 E44.9255
G1 X30.952 Y87.515 E45.0263
G1 X30.954 Y87.504 E45.0271
G1 X30.990 Y87.336 E45.0382
G1 X30.993 Y87.325 E45.0390
G1 X31.129 Y86.793 E45.0750
G1 X31.132 Y86.782 E45.0757
G1 X31.181 Y86.618 E45.0869
G1 X31.184 Y86.607 E45.0877
G1 X31.691 Y85.126 E45.1902
G1 X31.696 Y85.114 E45.1910
G1 X31.762 Y84.944 E45.2030
G1 X31.767 Y84.933 E45.2038
G1 X32.002 Y84.398 E45.2420
G1 X32.007 Y84.386 E45.2429
G1 X32.087 Y84.223 E45.2548
G1 X32.093 Y84.212 E45.2556
G1 X32.842 Y82.838 E45.3581
G1 X32.847 Y82.829 E45.3588
G1 X32.923 Y82.701 E45.3685
G1 X32.928 Y82.692 E45.3692
G1 X33.185 Y82.289 E45.4005
G1 X33.191 Y82.280 E45.4011
G1 X33.275 Y82.158 E45.4109
G1 X33.281 Y82.149 E45.4116
G1 X34.149 Y80.978 E45.5070
G1 X34.156 Y80.968 E45.5078
G1 X34.266 Y80.832 E45.5193
G1 X34.274 Y80.823 E45.5201
G1 X34.645 Y80.399 E45.5569
G1 X34.653 Y80.390 E45.5577
G1 X34.774 Y80.263 E45.5692
G1 X34.782 Y80.254 E45.5700
G1 X35.894 Y79.176 E45.6714
G1 X35.902 Y79.168 E45.6722
G1 X36.028 Y79.055 E45.6833
G1 X36.037 Y79.047 E45.6840
G1 X36.454 Y78.701 E45.7195
G1 X36.464 Y78.694 E45.7203
G1 X36.598 Y78.591 E45.7313
G1 X36.607 Y78.584 E45.7321
G1 X37.865 Y77.699 E45.8329
G1 X37.875 Y77.692 E45.8336
G1 X38.017 Y77.600 E45.8447
G1 X38.027 Y77.594 E45.8455
G1 X38.493 Y77.318 E45.8810
G1 X38.504 Y77.312 E45.8817
G1 X38.652 Y77.232 E45.8928
G1 X38.663 Y77.226 E45.8936
G1 X38.839 Y77.586 F18000
G92 E0
G1 X38.842 Y77.584 E0.0003 F2400
G1 X40.217 Y76.909 E0.1005
G1 X40.220 Y76.908 E0.1007
G1 X40.367 Y76.843 E0.1113
G1 X40.371 Y76.841 E0.1115
G1 X40.868 Y76.644 E0.1465
G1 X40.871 Y76.643 E0.1468
G1 X41.023 Y76.589 E0.1573
G1 X41.027 Y76.588 E0.1576
G1 X42.490 Y76.137 E0.2578
G1 X42.493 Y76.136 E0.2581
G1 X42.649 Y76.094 E0.2686
G1 X42.653 Y76.093 E0.2689
G1 X43.174 Y75.976 E0.3039
G1 X43.178 Y75.976 E0.3041
G1 X43.336 Y75.947 E0.3147
G1 X43.340 Y75.946 E0.3149
G1 X44.856 Y75.729 E0.4152
G1 X44.859 Y75.729 E0.4154
G1 X45.020 Y75.712 E0.4260
G1 X45.023 Y75.712 E0.4262
G1 X45.557 Y75.678 E0.4612
G1 X45.561 Y75.678 E0.4615
G1 X45.722 Y75.674 E0.4720
G1 X45.726 Y75.674 E0.4723
G1 X47.256 Y75.697 E0.5725
G1 X47.260 Y75.697 E0.5727
G1 X47.421 Y75.706 E0.5833
G1 X47.425 Y75.706 E0.5835
G1 X47.957 Y75.756 E0.6185
G1 X47.961 Y75.756 E0.6188
G1 X48.120 Y75.777 E0.6293
G1 X48.124 Y75.778 E0.6296
G1 X49.632 Y76.040 E0.7298
G1 X49.636 Y76.041 E0.7301
G1 X49.794 Y76.075 E0.7406
G1 X49.797 Y76.076 E0.7409
G1 X50.315 Y76.208 E0.7759
G1 X50.319 Y76.209 E0.7761
G1 X50.473 Y76.255 E0.7867
G1 X50.477 Y76.256 E0.7869
G1 X51.925 Y76.751 E0.8872
G1 X51.929 Y76.752 E0.8874
G1 X52.079 Y76.810 E0.8980
G1 X52.083 Y76.812 E0.8982
G1 X52.573 Y77.024 E0.9332
G1 X52.577 Y77.025 E0.9335
G1 X52.722 Y77.095 E0.9440
G1 X52.726 Y77.097 E0.9443
G1 X53.960 Y77.749 E1.0357
G1 X53.961 Y77.750 E1.0358
G1 X54.031 Y77.789 E1.0410
G1 X54.033 Y77.790 E1.0411
G1 X54.262 Y77.922 E1.0585
G1 X54.263 Y77.923 E1.0586
G1 X54.332 Y77.964 E1.0638
G1 X54.333 Y77.966 E1.0639
G1 X58.576 Y80.649 E1.3926
G1 X76.787 Y82.543 E2.5916
G1 X79.088 Y82.640 E2.7424
G1 X81.107 Y82.476 E2.8750
G1 X83.090 Y82.065 E3.0076
G1 X85.007 Y81.413 E3.1402
G1 X86.830 Y80.530 E3.2728
G1 X88.530 Y79.429 E3.4055
G1 X90.082 Y78.128 E3.5381
G1 X91.462 Y76.646 E3.6707
G1 X92.811 Y74.781 E3.8214
G1 X125.036 Y23.921 E7.7640
G1 X125.063 Y23.893 E7.7666
G1 X126.397 Y22.954 E7.8733
G1 X126.433 Y22.938 E7.8759
G1 X131.863 Y21.720 E8.2404
