%
(CUSTOMHANGERV2)
(T2  D=0.25 CR=0. - ZMIN=-0.5253 - FLAT END MILL)
(T3  D=0.1875 CR=0. - ZMIN=-0.496 - FORM MILL)
(T5  D=0.1875 CR=0. TAPER=118DEG - ZMIN=-1.1523 - DRILL)
N10 G90 G54 G64 G50 G17 G40 G80 G94 G91.1 G49
N20 G20
N30 G28 G91 Z0.
N40 G90

(ADAPTIVE1)
N50 M9
N60 M998
N70 T2 G43 H2 M6
N80 S5140 M3
N90 G4 P2.
N100 G54
N110 G0 X4.7621 Y0.2069
N120 M8
N130 G4 P2.
N140 G0 Z0.6
N150 G0 Z0.2
N160 G0 Z-0.15
N170 G1 Z-0.175 F20.
N180 G1 X4.7618 Y0.2068 Z-0.1789
N190 G1 X4.761 Y0.2064 Z-0.1827
N200 G1 X4.7596 Y0.2057 Z-0.1863
N210 G1 X4.7577 Y0.2049 Z-0.1897
N220 G1 X4.7554 Y0.2038 Z-0.1927
N230 G1 X4.7527 Y0.2025 Z-0.1952
N240 G1 X4.7497 Y0.2011 Z-0.1973
N250 G1 X4.7464 Y0.1996 Z-0.1988
N260 G1 X4.743 Y0.1979 Z-0.1997
N270 G1 X4.7394 Y0.1963 Z-0.2
N280 G3 X4.6219 Y0.1249 R0.6382
N290 G1 X4.6067 Y0.1121
N300 G1 X4.5942 Y0.1
N310 G1 X4.5936 Y0.0993
N320 G1 X4.6007 Y0.0929
N330 G1 X4.61 Y0.086
N340 G1 X4.6219 Y0.0784
N350 G1 X4.6372 Y0.0704
N360 G1 X4.657 Y0.0619
N370 G1 X4.6836 Y0.053
N380 G1 X4.7183 Y0.0445
N390 G1 X4.7534 Y0.0385
N400 G1 X4.7889 Y0.0343
N410 G1 X4.8245 Y0.0314
N420 G1 X4.8601 Y0.0293
N430 G1 X4.8958 Y0.0279
N440 G1 X4.9671 Y0.0261
N450 G1 X5.0742 Y0.025
N460 G1 X5.3598 Y0.0244
N470 G1 X5.3912
N480 G1 X5.4015 Y0.0259
N490 G1 X5.4109 Y0.0303
N500 G1 X5.4187 Y0.0372
N510 G1 X5.4242 Y0.046
N520 G1 X5.427 Y0.0561
N530 G1 X5.4267 Y0.0665
N540 G1 X5.4235 Y0.0764
N550 G1 X5.4176 Y0.085
N560 G3 X5.4004 Y0.0923 R0.025
N570 G1 X4.6119 Y0.1069
N580 G3 X4.5942 Y0.1 R0.025
N590 G1 X4.5905 Y0.0962
N600 G1 X4.577 Y0.0802
N610 G1 X4.5762 Y0.0791
N620 G1 X4.5783 Y0.0725
N630 G1 X4.5814 Y0.0649
N640 G1 X4.5853 Y0.0573
N650 G1 X4.5906 Y0.0486
N660 G1 X4.5971 Y0.0397
N670 G1 X4.6051 Y0.0304
N680 G1 X4.6157 Y0.02
N690 G1 X4.6274 Y0.0101
N700 G1 X4.6427 Y-0.0008
N710 G1 X4.6604 Y-0.0114
N720 G1 X4.683 Y-0.0225
N730 G1 X4.7113 Y-0.0338
N740 G1 X4.7454 Y-0.0442
N750 G1 X4.7802 Y-0.0521
N760 G1 X4.8154 Y-0.0581
N770 G1 X4.8508 Y-0.0626
N780 G1 X4.8864 Y-0.0659
N790 G1 X4.922 Y-0.0684
N800 G1 X4.9576 Y-0.0703
N810 G1 X5.029 Y-0.0727
N820 G1 X5.136 Y-0.0745
N830 G1 X5.2788 Y-0.0753
N840 G1 X5.3145
N850 G1 X5.3407 Y-0.0739
N860 G1 X5.3614 Y-0.0711
N870 G1 X5.3779 Y-0.0675
N880 G1 X5.393 Y-0.0629
N890 G1 X5.4053 Y-0.058
N900 G1 X5.4174 Y-0.0521
N910 G1 X5.4366 Y-0.0407
N920 G1 X5.4464 Y-0.0334
N930 G1 X5.4544 Y-0.0243
N940 G1 X5.4604 Y-0.0137
N950 G1 X5.464 Y-0.0021
N960 G1 X5.4652 Y0.01
N970 G1 X5.4638 Y0.0221
N980 G1 X5.46 Y0.0336
N990 G1 X5.4538 Y0.0441
N1000 G3 X5.4352 Y0.0535 R0.025
N1010 G1 X4.5967 Y0.0885
N1020 G3 X4.577 Y0.0802 R0.025
N1030 G1 X4.5573 Y0.0558
N1040 G1 X4.5557 Y0.0536
N1050 G1 X4.5555 Y0.0468
N1060 G1 X4.5558 Y0.0392
N1070 G1 X4.5569 Y0.0311
N1080 G1 X4.5588 Y0.0221
N1090 G1 X4.5616 Y0.0127
N1100 G1 X4.5656 Y0.0023
N1110 G1 X4.5708 Y-0.0082
N1120 G1 X4.5776 Y-0.0199
N1130 G1 X4.5858 Y-0.0315
N1140 G1 X4.5963 Y-0.0442
N1150 G1 X4.6085 Y-0.0568
N1160 G1 X4.624 Y-0.0703
N1170 G1 X4.6417 Y-0.0834
N1180 G1 X4.6638 Y-0.0972
N1190 G1 X4.6898 Y-0.1107
N1200 G1 X4.7217 Y-0.1241
N1210 G1 X4.7557 Y-0.1352
N1220 G1 X4.7903 Y-0.144
N1230 G1 X4.8253 Y-0.151
N1240 G1 X4.8605 Y-0.1565
N1250 G1 X4.896 Y-0.1609
N1260 G1 X4.9315 Y-0.1643
N1270 G1 X4.9671 Y-0.1669
N1280 G1 X5.0027 Y-0.1689
N1290 G1 X5.0741 Y-0.1717
N1300 G1 X5.1454 Y-0.1734
N1310 G1 X5.2168 Y-0.1743
N1320 G1 X5.2525
N1330 G1 X5.2882 Y-0.1731
N1340 G1 X5.3238 Y-0.1701
N1350 G1 X5.3553 Y-0.165
N1360 G1 X5.3841 Y-0.1579
N1370 G1 X5.4089 Y-0.1497
N1380 G1 X5.4278 Y-0.1417
N1390 G1 X5.4443 Y-0.1331
N1400 G1 X5.4584 Y-0.1243
N1410 G1 X5.4706 Y-0.1151
N1420 G1 X5.4816 Y-0.1055
N1430 G1 X5.491 Y-0.0957
N1440 G1 X5.493 Y-0.0933
N1450 G1 X5.4996 Y-0.0834
N1460 G1 X5.504 Y-0.0724
N1470 G1 X5.5061 Y-0.0607
N1480 G1 X5.5058 Y-0.0488
N1490 G1 X5.5031 Y-0.0372
N1500 G1 X5.4981 Y-0.0265
N1510 G3 X5.4914 Y-0.0194 R0.025
N1520 G3 X5.4793 Y-0.0151 R0.025
N1530 G1 X4.5783 Y0.0643
N1540 G3 X4.5573 Y0.0558 R0.025
N1550 G1 X4.5311 Y0.0234
N1560 G1 X4.5284 Y0.0187
N1570 G1 X4.5269 Y0.0114
N1580 G1 X4.5258 Y0.0038
N1590 G1 X4.5254 Y-0.0052
N1600 G1 X4.5256 Y-0.0144
N1610 G1 X4.5268 Y-0.0249
N1620 G1 X4.5288 Y-0.0358
N1630 G1 X4.5321 Y-0.0478
N1640 G1 X4.5367 Y-0.0604
N1650 G1 X4.5428 Y-0.0736
N1660 G1 X4.5508 Y-0.0879
N1670 G1 X4.5603 Y-0.1022
N1680 G1 X4.5727 Y-0.1178
N1690 G1 X4.5867 Y-0.1329
N1700 G1 X4.6046 Y-0.1491
N1710 G1 X4.6253 Y-0.1652
N1720 G1 X4.6494 Y-0.181
N1730 G1 X4.6788 Y-0.197
N1740 G1 X4.7114 Y-0.2115
N1750 G1 X4.745 Y-0.2236
N1760 G1 X4.7793 Y-0.2336
N1770 G1 X4.814 Y-0.2418
N1780 G1 X4.8491 Y-0.2485
N1790 G1 X4.8844 Y-0.254
N1800 G1 X4.9198 Y-0.2585
N1810 G1 X4.9553 Y-0.262
N1820 G1 X4.9909 Y-0.2649
N1830 G1 X5.0265 Y-0.2672
N1840 G1 X5.0978 Y-0.2705
N1850 G1 X5.1692 Y-0.2724
N1860 G1 X5.2049 Y-0.2726
N1870 G1 X5.2406 Y-0.2719
N1880 G1 X5.2762 Y-0.2699
N1890 G1 X5.3117 Y-0.2664
N1900 G1 X5.347 Y-0.2609
N1910 G1 X5.3818 Y-0.2532
N1920 G1 X5.4128 Y-0.2438
N1930 G1 X5.4404 Y-0.233
N1940 G1 X5.4652 Y-0.2209
N1950 G1 X5.485 Y-0.2091
N1960 G1 X5.502 Y-0.1971
N1970 G1 X5.5154 Y-0.1859
N1980 G1 X5.5235 Y-0.178
N1990 G1 X5.5317 Y-0.1679
N2000 G1 X5.5375 Y-0.1563
N2010 G1 X5.5406 Y-0.1437
N2020 G1 X5.5407 Y-0.1307
N2030 G1 X5.538 Y-0.118
N2040 G1 X5.5259 Y-0.082
N2050 G1 X5.523 Y-0.0739
N2060 G1 X5.5157 Y-0.0577
N2070 G3 X5.5092 Y-0.0505 R0.025
N2080 G3 X5.4964 Y-0.0457 R0.025
N2090 G1 X4.5526 Y0.0325
N2100 G3 X4.5311 Y0.0234 R0.025
N2110 G1 X4.5154 Y-0.0009
N2120 G1 X4.5094 Y-0.0115
N2130 G1 X4.5024 Y-0.0253
N2140 G1 X4.4988 Y-0.0342
N2150 G1 X4.4965 Y-0.0413
N2160 G1 X4.4948 Y-0.049
N2170 G1 X4.4936 Y-0.058
N2180 G1 X4.493 Y-0.0675
N2190 G1 X4.4933 Y-0.0784
N2200 G1 X4.4945 Y-0.0898
N2210 G1 X4.4968 Y-0.1023
N2220 G1 X4.5004 Y-0.1158
N2230 G1 X4.5055 Y-0.13
N2240 G1 X4.5126 Y-0.1456
N2250 G1 X4.5211 Y-0.1611
N2260 G1 X4.5325 Y-0.1783
N2270 G1 X4.5457 Y-0.1951
N2280 G1 X4.5623 Y-0.2131
N2290 G1 X4.5825 Y-0.2317
N2300 G1 X4.6052 Y-0.2495
N2310 G1 X4.633 Y-0.2678
N2320 G1 X4.6642 Y-0.2851
N2330 G1 X4.6967 Y-0.2999
N2340 G1 X4.73 Y-0.3126
N2350 G1 X4.7641 Y-0.3234
N2360 G1 X4.7986 Y-0.3325
N2370 G1 X4.8334 Y-0.3402
N2380 G1 X4.8685 Y-0.3467
N2390 G1 X4.9038 Y-0.3521
N2400 G1 X4.9392 Y-0.3565
N2410 G1 X4.9747 Y-0.3602
N2420 G1 X5.0103 Y-0.3632
N2430 G1 X5.0459 Y-0.3657
N2440 G1 X5.0816 Y-0.3676
N2450 G1 X5.1172 Y-0.3691
N2460 G1 X5.1529 Y-0.3699
N2470 G1 X5.1886 Y-0.37
N2480 G1 X5.2243 Y-0.3691
N2490 G1 X5.2599 Y-0.3671
N2500 G1 X5.2955 Y-0.3638
N2510 G1 X5.3309 Y-0.359
N2520 G1 X5.3659 Y-0.3525
N2530 G1 X5.4006 Y-0.3439
N2540 G1 X5.4346 Y-0.3331
N2550 G1 X5.4674 Y-0.32
N2560 G1 X5.4963 Y-0.3057
N2570 G1 X5.5189 Y-0.2921
N2580 G1 X5.5357 Y-0.2801
N2590 G1 X5.5427 Y-0.2742
N2600 G1 X5.5506 Y-0.266
N2610 G1 X5.5568 Y-0.2565
N2620 G1 X5.561 Y-0.2459
N2630 G1 X5.5631 Y-0.2348
N2640 G1 X5.563 Y-0.2234
N2650 G1 X5.5609 Y-0.2037
N2660 G1 X5.5555 Y-0.1725
N2670 G1 X5.5503 Y-0.155
N2680 G1 X5.538 Y-0.118
N2690 G3 X5.5329 Y-0.1097 R0.025
N2700 G3 X5.5169 Y-0.1018 R0.025
N2710 G1 X4.5266 Y-0.0124
N2720 G3 X4.5024 Y-0.0253 R0.025
N2730 G1 X4.4739 Y-0.082
N2740 G1 X4.4702 Y-0.0901
N2750 G1 X4.4658 Y-0.1027
N2760 G1 X4.4635 Y-0.1104
N2770 G1 X4.4618 Y-0.1186
N2780 G1 X4.4605 Y-0.1283
N2790 G1 X4.4601 Y-0.1385
N2800 G1 X4.4604 Y-0.1503
N2810 G1 X4.4618 Y-0.1625
N2820 G1 X4.4646 Y-0.1765
N2830 G1 X4.4686 Y-0.1907
N2840 G1 X4.4746 Y-0.2069
N2850 G1 X4.4821 Y-0.2231
N2860 G1 X4.4921 Y-0.2409
N2870 G1 X4.5047 Y-0.2594
N2880 G1 X4.5197 Y-0.2782
N2890 G1 X4.5388 Y-0.2985
N2900 G1 X4.5609 Y-0.3184
N2910 G1 X4.587 Y-0.3384
N2920 G1 X4.617 Y-0.3578
N2930 G1 X4.6484 Y-0.3748
N2940 G1 X4.6808 Y-0.3898
N2950 G1 X4.7141 Y-0.4028
N2960 G1 X4.7479 Y-0.4141
N2970 G1 X4.7822 Y-0.4239
N2980 G1 X4.8169 Y-0.4323
N2990 G1 X4.8519 Y-0.4395
N3000 G1 X4.8871 Y-0.4456
N3010 G1 X4.9224 Y-0.4508
N3020 G1 X4.9578 Y-0.4551
N3030 G1 X4.9933 Y-0.4588
N3040 G1 X5.0289 Y-0.4618
N3050 G1 X5.0645 Y-0.4642
N3060 G1 X5.1002 Y-0.4659
N3070 G1 X5.1358 Y-0.4668
N3080 G1 X5.1715 Y-0.467
N3090 G1 X5.2072 Y-0.4663
N3100 G1 X5.2429 Y-0.4645
N3110 G1 X5.2785 Y-0.4616
N3120 G1 X5.3139 Y-0.4574
N3130 G1 X5.3492 Y-0.4518
N3140 G1 X5.3841 Y-0.4446
N3150 G1 X5.4187 Y-0.4357
N3160 G1 X5.4527 Y-0.4248
N3170 G1 X5.4859 Y-0.4118
N3180 G1 X5.5162 Y-0.3976
N3190 G1 X5.5387 Y-0.3848
N3200 G1 X5.5446 Y-0.3808
N3210 G1 X5.5533 Y-0.3735
N3220 G1 X5.5604 Y-0.3647
N3230 G1 X5.5657 Y-0.3547
N3240 G1 X5.5689 Y-0.3439
N3250 G1 X5.57 Y-0.3326
N3260 G1 X5.5695 Y-0.2848
N3270 G1 X5.563 Y-0.2234
N3280 G3 X5.5598 Y-0.2142 R0.025
N3290 G3 X5.541 Y-0.2021 R0.025
N3300 G1 X4.4918 Y-0.087
N3310 G3 X4.4711 Y-0.0945 R0.025
N3320 G3 X4.4658 Y-0.1027 R0.025
N3330 G1 X4.4608 Y-0.1171
N3340 G1 X4.4404 Y-0.1956
N3350 G1 X4.4378 Y-0.2107
N3360 G1 X4.437 Y-0.2198
N3370 G1 X4.4369 Y-0.2303
N3380 G1 X4.4377 Y-0.2418
N3390 G1 X4.4396 Y-0.2543
N3400 G1 X4.4428 Y-0.2683
N3410 G1 X4.4476 Y-0.2831
N3420 G1 X4.4543 Y-0.2993
N3430 G1 X4.463 Y-0.3164
N3440 G1 X4.4742 Y-0.3345
N3450 G1 X4.4886 Y-0.3541
N3460 G1 X4.5053 Y-0.3735
N3470 G1 X4.5265 Y-0.3943
N3480 G1 X4.5521 Y-0.4158
N3490 G1 X4.5812 Y-0.4365
N3500 G1 X4.6118 Y-0.4548
N3510 G1 X4.6436 Y-0.4711
N3520 G1 X4.6762 Y-0.4855
N3530 G1 X4.7096 Y-0.4982
N3540 G1 X4.7435 Y-0.5093
N3550 G1 X4.7779 Y-0.5191
N3560 G1 X4.8125 Y-0.5276
N3570 G1 X4.8475 Y-0.5349
N3580 G1 X4.8826 Y-0.5413
N3590 G1 X4.9179 Y-0.5468
N3600 G1 X4.9533 Y-0.5514
N3610 G1 X4.9887 Y-0.5553
N3620 G1 X5.0243 Y-0.5585
N3630 G1 X5.0599 Y-0.561
N3640 G1 X5.0956 Y-0.5627
N3650 G1 X5.1312 Y-0.5636
N3660 G1 X5.1669 Y-0.5637
N3670 G1 X5.2026 Y-0.563
N3680 G1 X5.2383 Y-0.5612
N3690 G1 X5.2739 Y-0.5583
N3700 G1 X5.3093 Y-0.5543
N3710 G1 X5.3446 Y-0.549
N3720 G1 X5.3797 Y-0.5423
N3730 G1 X5.4144 Y-0.5341
N3740 G1 X5.4488 Y-0.5245
N3750 G1 X5.4826 Y-0.5131
N3760 G1 X5.5148 Y-0.5001
N3770 G1 X5.5369 Y-0.489
N3780 G1 X5.5419 Y-0.486
N3790 G1 X5.5514 Y-0.4788
N3800 G1 X5.5593 Y-0.4698
N3810 G1 X5.5652 Y-0.4594
N3820 G1 X5.5688 Y-0.448
N3830 G1 X5.57 Y-0.4361
N3840 G1 Y-0.3326
N3850 G3 X5.5678 Y-0.3231 R0.025
N3860 G3 X5.548 Y-0.3087 R0.025
N3870 G1 X4.4674 Y-0.1778
N3880 G3 X4.4404 Y-0.1956 R0.025
N3890 G1 X4.4386 Y-0.2037
N3900 G1 X4.4349 Y-0.228
N3910 G1 X4.4305 Y-0.2848
N3920 G1 X4.43 Y-0.3334
N3930 G1 X4.4304 Y-0.3418
N3940 G1 X4.4319 Y-0.3528
N3950 G1 X4.4345 Y-0.3653
N3960 G1 X4.4384 Y-0.3781
N3970 G1 X4.4443 Y-0.3933
N3980 G1 X4.4516 Y-0.4083
N3990 G1 X4.4619 Y-0.4259
N4000 G1 X4.474 Y-0.4431
N4010 G1 X4.4901 Y-0.4625
N4020 G1 X4.5096 Y-0.4825
N4030 G1 X4.533 Y-0.5029
N4040 G1 X4.5617 Y-0.5242
N4050 G1 X4.592 Y-0.543
N4060 G1 X4.6235 Y-0.5599
N4070 G1 X4.6559 Y-0.5748
N4080 G1 X4.6891 Y-0.588
N4090 G1 X4.7228 Y-0.5998
N4100 G1 X4.757 Y-0.6102
N4110 G1 X4.7915 Y-0.6193
N4120 G1 X4.8262 Y-0.6273
N4130 G1 X4.8612 Y-0.6343
N4140 G1 X4.8964 Y-0.6404
N4150 G1 X4.9317 Y-0.6456
N4160 G1 X4.9671 Y-0.6501
N4170 G1 X5.0027 Y-0.6537
N4180 G1 X5.0382 Y-0.6566
N4190 G1 X5.0739 Y-0.6587
N4200 G1 X5.1095 Y-0.66
N4210 G1 X5.1452 Y-0.6605
N4220 G1 X5.1809 Y-0.6601
N4230 G1 X5.2166 Y-0.6588
N4240 G1 X5.2522 Y-0.6566
N4250 G1 X5.2878 Y-0.6533
N4260 G1 X5.3232 Y-0.6489
N4270 G1 X5.3585 Y-0.6433
N4280 G1 X5.3935 Y-0.6365
N4290 G1 X5.4283 Y-0.6284
N4300 G1 X5.4626 Y-0.6188
N4310 G1 X5.4965 Y-0.6075
N4320 G1 X5.5227 Y-0.5968
N4330 G1 X5.5423 Y-0.5868
N4340 G1 X5.5511 Y-0.5814
N4350 G1 X5.5609 Y-0.5739
N4360 G1 X5.5689 Y-0.5645
N4370 G1 X5.5747 Y-0.5536
N4380 G1 X5.5781 Y-0.5418
N4390 G1 X5.5789 Y-0.5295
N4400 G1 X5.5772 Y-0.5173
N4410 G1 X5.5729 Y-0.5057
N4420 G1 X5.57 Y-0.4995
N4430 G1 Y-0.4361
N4440 G3 X5.5678 Y-0.4266 R0.025
N4450 G3 X5.5474 Y-0.4121 R0.025
N4460 G1 X4.4573 Y-0.3094
N4470 G3 X4.43 Y-0.3334 R0.025
N4480 G1 Y-0.4389
N4490 G1 X4.4304 Y-0.4465
N4500 G1 X4.4317 Y-0.4564
N4510 G1 X4.4341 Y-0.4678
N4520 G1 X4.4379 Y-0.4805
N4530 G1 X4.443 Y-0.4936
N4540 G1 X4.4505 Y-0.5091
N4550 G1 X4.4595 Y-0.5243
N4560 G1 X4.4718 Y-0.5418
N4570 G1 X4.4863 Y-0.5593
N4580 G1 X4.5051 Y-0.5785
N4590 G1 X4.5285 Y-0.5989
N4600 G1 X4.5571 Y-0.6201
N4610 G1 X4.5874 Y-0.639
N4620 G1 X4.619 Y-0.6558
N4630 G1 X4.6514 Y-0.6706
N4640 G1 X4.6846 Y-0.6838
N4650 G1 X4.7183 Y-0.6956
N4660 G1 X4.7524 Y-0.706
N4670 G1 X4.7869 Y-0.7152
N4680 G1 X4.8217 Y-0.7233
N4690 G1 X4.8567 Y-0.7304
N4700 G1 X4.8918 Y-0.7366
N4710 G1 X4.9271 Y-0.7419
N4720 G1 X4.9625 Y-0.7464
N4730 G1 X4.998 Y-0.7502
N4740 G1 X5.0336 Y-0.7531
N4750 G1 X5.0692 Y-0.7552
N4760 G1 X5.1049 Y-0.7566
N4770 G1 X5.1406 Y-0.7571
N4780 G1 X5.1763 Y-0.7568
N4790 G1 X5.212 Y-0.7556
N4800 G1 X5.2476 Y-0.7535
N4810 G1 X5.2831 Y-0.7504
N4820 G1 X5.3186 Y-0.7463
N4830 G1 X5.3539 Y-0.7411
N4840 G1 X5.3891 Y-0.7348
N4850 G1 X5.4239 Y-0.7273
N4860 G1 X5.4585 Y-0.7184
N4870 G1 X5.4927 Y-0.7079
N4880 G1 X5.5228 Y-0.6966
N4890 G1 X5.5436 Y-0.6868
N4900 G1 X5.5614 Y-0.6766
N4910 G1 X5.5759 Y-0.6667
N4920 G1 X5.5883 Y-0.6566
N4930 G1 X5.6008 Y-0.6444
N4940 G1 X5.6076 Y-0.6351
N4950 G1 X5.6125 Y-0.6246
N4960 G1 X5.6151 Y-0.6133
N4970 G1 X5.6155 Y-0.6018
N4980 G1 X5.6137 Y-0.5904
N4990 G1 X5.6096 Y-0.5796
N5000 G1 X5.5729 Y-0.5057
N5010 G3 X5.5527 Y-0.4927 R0.025
N5020 G1 X4.4568 Y-0.4148
N5030 G3 X4.43 Y-0.4389 R0.025
N5040 G1 Y-0.5
N5050 G1 X4.4297 Y-0.5004
N5060 G1 X4.4276 Y-0.5054
N5070 G1 X4.4262 Y-0.5108
N5080 G1 X4.425 Y-0.5175
N5090 G1 X4.4243 Y-0.525
N5100 G1 X4.4241 Y-0.5333
N5110 G1 X4.4248 Y-0.5431
N5120 G1 X4.4262 Y-0.5533
N5130 G1 X4.4289 Y-0.565
N5140 G1 X4.433 Y-0.5779
N5150 G1 X4.4385 Y-0.5915
N5160 G1 X4.4464 Y-0.6072
N5170 G1 X4.4558 Y-0.6226
N5180 G1 X4.4686 Y-0.6403
N5190 G1 X4.484 Y-0.6582
N5200 G1 X4.5033 Y-0.6775
N5210 G1 X4.5275 Y-0.698
N5220 G1 X4.5566 Y-0.7188
N5230 G1 X4.5871 Y-0.7373
N5240 G1 X4.6188 Y-0.7537
N5250 G1 X4.6513 Y-0.7684
N5260 G1 X4.6846 Y-0.7814
N5270 G1 X4.7183 Y-0.793
N5280 G1 X4.7525 Y-0.8033
N5290 G1 X4.787 Y-0.8124
N5300 G1 X4.8218 Y-0.8204
N5310 G1 X4.8568 Y-0.8275
N5320 G1 X4.8919 Y-0.8337
N5330 G1 X4.9272 Y-0.8389
N5340 G1 X4.9627 Y-0.8434
N5350 G1 X4.9982 Y-0.847
N5360 G1 X5.0338 Y-0.8499
N5370 G1 X5.0694 Y-0.852
N5380 G1 X5.1051 Y-0.8533
N5390 G1 X5.1408 Y-0.8538
N5400 G1 X5.1764 Y-0.8534
N5410 G1 X5.2121 Y-0.8522
N5420 G1 X5.2478 Y-0.8502
N5430 G1 X5.2833 Y-0.8472
N5440 G1 X5.3188 Y-0.8432
N5450 G1 X5.3541 Y-0.8382
N5460 G1 X5.3893 Y-0.8322
N5470 G1 X5.4243 Y-0.825
N5480 G1 X5.459 Y-0.8165
N5490 G1 X5.4932 Y-0.8065
N5500 G1 X5.5268 Y-0.7945
N5510 G1 X5.5571 Y-0.7812
N5520 G1 X5.5827 Y-0.7674
N5530 G1 X5.6022 Y-0.7547
N5540 G1 X5.6173 Y-0.7431
N5550 G1 X5.6305 Y-0.7311
N5560 G1 X5.6414 Y-0.7195
N5570 G1 X5.6484 Y-0.7083
N5580 G1 X5.6528 Y-0.6959
N5590 G1 X5.6542 Y-0.6827
N5600 G1 X5.6526 Y-0.6696
N5610 G1 X5.6481 Y-0.6572
N5620 G1 X5.6096 Y-0.5796
N5630 G3 X5.5893 Y-0.5666 R0.025
N5640 G1 X4.4535 Y-0.4874
N5650 G3 X4.436 Y-0.4929 R0.025
N5660 G3 X4.4297 Y-0.5004 R0.025
N5670 G1 X4.404 Y-0.5523
N5680 G1 X4.4006 Y-0.5602
N5690 G1 X4.3984 Y-0.5665
N5700 G1 X4.3964 Y-0.5743
N5710 G1 X4.395 Y-0.5825
N5720 G1 X4.3941 Y-0.5922
N5730 G1 X4.394 Y-0.6024
N5740 G1 X4.3949 Y-0.6142
N5750 G1 X4.3968 Y-0.6266
N5760 G1 X4.4001 Y-0.6406
N5770 G1 X4.4048 Y-0.6552
N5780 G1 X4.4115 Y-0.6715
N5790 G1 X4.4201 Y-0.6883
N5800 G1 X4.4318 Y-0.7072
N5810 G1 X4.4455 Y-0.7258
N5820 G1 X4.4634 Y-0.7465
N5830 G1 X4.4852 Y-0.7679
N5840 G1 X4.5113 Y-0.7898
N5850 G1 X4.5405 Y-0.8104
N5860 G1 X4.571 Y-0.8289
N5870 G1 X4.6026 Y-0.8454
N5880 G1 X4.6351 Y-0.8603
N5890 G1 X4.6682 Y-0.8736
N5900 G1 X4.7019 Y-0.8855
N5910 G1 X4.7359 Y-0.8961
N5920 G1 X4.7703 Y-0.9056
N5930 G1 X4.805 Y-0.914
N5940 G1 X4.8399 Y-0.9215
N5950 G1 X4.875 Y-0.928
N5960 G1 X4.9103 Y-0.9336
N5970 G1 X4.9457 Y-0.9384
N5980 G1 X4.9811 Y-0.9424
N5990 G1 X5.0167 Y-0.9456
N6000 G1 X5.0523 Y-0.9479
N6010 G1 X5.088 Y-0.9496
N6020 G1 X5.1237 Y-0.9504
N6030 G1 X5.1593
N6040 G1 X5.195 Y-0.9496
N6050 G1 X5.2307 Y-0.948
N6060 G1 X5.2663 Y-0.9455
N6070 G1 X5.3018 Y-0.9421
N6080 G1 X5.3373 Y-0.9378
N6090 G1 X5.3726 Y-0.9326
N6100 G1 X5.4077 Y-0.9262
N6110 G1 X5.4426 Y-0.9188
N6120 G1 X5.4772 Y-0.91
N6130 G1 X5.5113 Y-0.8995
N6140 G1 X5.5449 Y-0.8873
N6150 G1 X5.5776 Y-0.8731
N6160 G1 X5.6075 Y-0.8576
N6170 G1 X5.6324 Y-0.842
N6180 G1 X5.6508 Y-0.8282
N6190 G1 X5.6648 Y-0.8159
N6200 G1 X5.6774 Y-0.8029
N6210 G1 X5.6802 Y-0.7994
N6220 G1 X5.6865 Y-0.7902
N6230 G1 X5.6908 Y-0.7799
N6240 G1 X5.6932 Y-0.769
N6250 G1 X5.6934 Y-0.7578
N6260 G1 X5.6914 Y-0.7468
N6270 G1 X5.6874 Y-0.7364
N6280 G1 X5.6481 Y-0.6572
N6290 G3 X5.6283 Y-0.6442 R0.025
N6300 G1 X4.4282 Y-0.5393
N6310 G3 X4.404 Y-0.5523 R0.025
N6320 G1 X4.3716 Y-0.6176
N6330 G1 X4.3672 Y-0.6276
N6340 G1 X4.3646 Y-0.6351
N6350 G1 X4.3626 Y-0.6431
N6360 G1 X4.3609 Y-0.6526
N6370 G1 X4.36 Y-0.6629
N6380 G1 X4.3599 Y-0.6745
N6390 G1 X4.3608 Y-0.687
N6400 G1 X4.3629 Y-0.7009
N6410 G1 X4.3665 Y-0.7159
N6420 G1 X4.3718 Y-0.7324
N6430 G1 X4.3789 Y-0.7496
N6440 G1 X4.3888 Y-0.769
N6450 G1 X4.4007 Y-0.7882
N6460 G1 X4.4164 Y-0.8096
N6470 G1 X4.4354 Y-0.8315
N6480 G1 X4.4584 Y-0.8541
N6490 G1 X4.4858 Y-0.877
N6500 G1 X4.5149 Y-0.8977
N6510 G1 X4.5452 Y-0.9164
N6520 G1 X4.5766 Y-0.9334
N6530 G1 X4.6089 Y-0.9487
N6540 G1 X4.6418 Y-0.9625
N6550 G1 X4.6752 Y-0.975
N6560 G1 X4.7091 Y-0.9862
N6570 G1 X4.7434 Y-0.9963
N6580 G1 X4.7779 Y-1.0053
N6590 G1 X4.8127 Y-1.0133
N6600 G1 X4.8477 Y-1.0204
N6610 G1 X4.8828 Y-1.0266
N6620 G1 X4.9181 Y-1.0319
N6630 G1 X4.9535 Y-1.0364
N6640 G1 X4.989 Y-1.0401
N6650 G1 X5.0246 Y-1.043
N6660 G1 X5.0603 Y-1.0452
N6670 G1 X5.0959 Y-1.0466
N6680 G1 X5.1316 Y-1.0472
N6690 G1 X5.1673 Y-1.047
N6700 G1 X5.203 Y-1.0461
N6710 G1 X5.2386 Y-1.0443
N6720 G1 X5.2742 Y-1.0418
N6730 G1 X5.3098 Y-1.0383
N6740 G1 X5.3452 Y-1.034
N6750 G1 X5.3805 Y-1.0288
N6760 G1 X5.4157 Y-1.0225
N6770 G1 X5.4506 Y-1.015
N6780 G1 X5.4852 Y-1.0063
N6790 G1 X5.5194 Y-0.9961
N6800 G1 X5.5531 Y-0.9845
N6810 G1 X5.5863 Y-0.9712
N6820 G1 X5.6186 Y-0.956
N6830 G1 X5.6498 Y-0.9386
N6840 G1 X5.6745 Y-0.9221
N6850 G1 X5.6933 Y-0.9073
N6860 G1 X5.7079 Y-0.8938
N6870 G1 X5.7194 Y-0.8813
N6880 G1 X5.7213 Y-0.8788
N6890 G1 X5.7281 Y-0.8677
N6900 G1 X5.7323 Y-0.8553
N6910 G1 X5.7336 Y-0.8423
N6920 G1 X5.732 Y-0.8293
N6930 G1 X5.7275 Y-0.8171
N6940 G1 X5.6874 Y-0.7364
N6950 G3 X5.6812 Y-0.7289 R0.025
N6960 G1 X5.6782 Y-0.7264 Z-0.1997
N6970 G1 X5.6752 Y-0.724 Z-0.1988
N6980 G1 X5.6724 Y-0.7218 Z-0.1973
N6990 G1 X5.6698 Y-0.7196 Z-0.1952
N7000 G1 X5.6675 Y-0.7178 Z-0.1927
N7010 G1 X5.6655 Y-0.7162 Z-0.1897
N7020 G1 X5.6639 Y-0.7149 Z-0.1863
N7030 G1 X5.6628 Y-0.7139 Z-0.1827
N7040 G1 X5.6621 Y-0.7133 Z-0.1789
N7050 G1 X5.6618 Y-0.7131 Z-0.175
N7060 G0 Z0.2
N7070 G0 X4.4046 Y-0.6208
N7080 G0 Z-0.15
N7090 G1 Z-0.175 F20.
N7100 G1 X4.4043 Y-0.6207 Z-0.1789
N7110 G1 X4.4034 Y-0.6205 Z-0.1827
N7120 G1 X4.402 Y-0.6201 Z-0.1863
N7130 G1 X4.4 Y-0.6195 Z-0.1897
N7140 G1 X4.3976 Y-0.6188 Z-0.1927
N7150 G1 X4.3947 Y-0.6179 Z-0.1952
N7160 G1 X4.3915 Y-0.617 Z-0.1973
N7170 G1 X4.388 Y-0.616 Z-0.1988
N7180 G1 X4.3844 Y-0.6149 Z-0.1997
N7190 G1 X4.3806 Y-0.6138 Z-0.2
N7200 G3 X4.3716 Y-0.6176 R0.0078
N7210 G1 X4.3355 Y-0.6903
N7220 G1 X4.3314 Y-0.6996
N7230 G1 X4.3288 Y-0.7071
N7240 G1 X4.3266 Y-0.7161
N7250 G1 X4.3249 Y-0.7256
N7260 G1 X4.3239 Y-0.7369
N7270 G1 X4.3238 Y-0.7486
N7280 G1 X4.3248 Y-0.7625
N7290 G1 X4.3269 Y-0.7767
N7300 G1 X4.3309 Y-0.7933
N7310 G1 X4.3362 Y-0.8099
N7320 G1 X4.3442 Y-0.8292
N7330 G1 X4.3541 Y-0.8485
N7340 G1 X4.3673 Y-0.8698
N7350 G1 X4.384 Y-0.8926
N7360 G1 X4.4038 Y-0.9155
N7370 G1 X4.4287 Y-0.9399
N7380 G1 X4.4561 Y-0.9628
N7390 G1 X4.485 Y-0.9837
N7400 G1 X4.5152 Y-1.0027
N7410 G1 X4.5464 Y-1.0201
N7420 G1 X4.5784 Y-1.0359
N7430 G1 X4.6111 Y-1.0503
N7440 G1 X4.6443 Y-1.0633
N7450 G1 X4.678 Y-1.0752
N7460 G1 X4.712 Y-1.0859
N7470 G1 X4.7464 Y-1.0955
N7480 G1 X4.781 Y-1.1041
N7490 G1 X4.8159 Y-1.1118
N7500 G1 X4.8509 Y-1.1186
N7510 G1 X4.8861 Y-1.1245
N7520 G1 X4.9215 Y-1.1296
N7530 G1 X4.9569 Y-1.1339
N7540 G1 X4.9924 Y-1.1375
N7550 G1 X5.028 Y-1.1402
N7560 G1 X5.0637 Y-1.1422
N7570 G1 X5.0993 Y-1.1435
N7580 G1 X5.135 Y-1.1441
N7590 G1 X5.1707 Y-1.1438
N7600 G1 X5.2064 Y-1.1428
N7610 G1 X5.2421 Y-1.1411
N7620 G1 X5.2777 Y-1.1386
N7630 G1 X5.3132 Y-1.1352
N7640 G1 X5.3486 Y-1.131
N7650 G1 X5.384 Y-1.1258
N7660 G1 X5.4191 Y-1.1196
N7670 G1 X5.4541 Y-1.1123
N7680 G1 X5.4888 Y-1.1039
N7690 G1 X5.5231 Y-1.0943
N7700 G1 X5.5571 Y-1.0834
N7710 G1 X5.5906 Y-1.071
N7720 G1 X5.6235 Y-1.0571
N7730 G1 X5.6555 Y-1.0414
N7740 G1 X5.6866 Y-1.0238
N7750 G1 X5.7136 Y-1.0055
N7760 G1 X5.7331 Y-0.99
N7770 G1 X5.7475 Y-0.9765
N7780 G1 X5.7601 Y-0.9625
N7790 G1 X5.762 Y-0.9601
N7800 G1 X5.7687 Y-0.949
N7810 G1 X5.7728 Y-0.9367
N7820 G1 X5.7741 Y-0.9237
N7830 G1 X5.7724 Y-0.9108
N7840 G1 X5.768 Y-0.8986
N7850 G1 X5.7275 Y-0.8171
N7860 G3 X5.7213 Y-0.8095 R0.025
N7870 G1 X5.7182 Y-0.8071 Z-0.1997
N7880 G1 X5.7153 Y-0.8047 Z-0.1988
N7890 G1 X5.7125 Y-0.8024 Z-0.1973
N7900 G1 X5.7099 Y-0.8003 Z-0.1952
N7910 G1 X5.7075 Y-0.7984 Z-0.1927
N7920 G1 X5.7056 Y-0.7968 Z-0.1897
N7930 G1 X5.704 Y-0.7955 Z-0.1863
N7940 G1 X5.7028 Y-0.7946 Z-0.1827
N7950 G1 X5.7021 Y-0.794 Z-0.1789
N7960 G1 X5.7019 Y-0.7938 Z-0.175
N7970 G0 Z0.2
N7980 G0 X4.3685 Y-0.6935
N7990 G0 Z-0.15
N8000 G1 Z-0.175 F20.
N8010 G1 X4.3682 Y-0.6934 Z-0.1789
N8020 G1 X4.3674 Y-0.6931 Z-0.1827
N8030 G1 X4.3659 Y-0.6927 Z-0.1863
N8040 G1 X4.3639 Y-0.6921 Z-0.1897
N8050 G1 X4.3615 Y-0.6914 Z-0.1927
N8060 G1 X4.3586 Y-0.6906 Z-0.1952
N8070 G1 X4.3554 Y-0.6897 Z-0.1973
N8080 G1 X4.3519 Y-0.6886 Z-0.1988
N8090 G1 X4.3483 Y-0.6876 Z-0.1997
N8100 G1 X4.3445 Y-0.6865 Z-0.2
N8110 G3 X4.3355 Y-0.6903 R0.0078
N8120 G1 X4.2992 Y-0.7633
N8130 G1 X4.2944 Y-0.7744
N8140 G1 X4.2918 Y-0.782
N8150 G1 X4.2894 Y-0.7913
N8160 G1 X4.2877 Y-0.8011
N8170 G1 X4.2867 Y-0.8127
N8180 G1 X4.2866 Y-0.8251
N8190 G1 X4.2876 Y-0.8391
N8200 G1 X4.2899 Y-0.8543
N8210 G1 X4.2939 Y-0.8712
N8220 G1 X4.2996 Y-0.8889
N8230 G1 X4.3079 Y-0.909
N8240 G1 X4.3182 Y-0.9292
N8250 G1 X4.3322 Y-0.9519
N8260 G1 X4.3495 Y-0.9753
N8270 G1 X4.3706 Y-0.9997
N8280 G1 X4.396 Y-1.0247
N8290 G1 X4.4233 Y-1.0477
N8300 G1 X4.4521 Y-1.0688
N8310 G1 X4.4821 Y-1.0881
N8320 G1 X4.5131 Y-1.1059
N8330 G1 X4.5448 Y-1.1222
N8340 G1 X4.5773 Y-1.1371
N8350 G1 X4.6103 Y-1.1507
N8360 G1 X4.6437 Y-1.1632
N8370 G1 X4.6776 Y-1.1745
N8380 G1 X4.7118 Y-1.1847
N8390 G1 X4.7462 Y-1.194
N8400 G1 X4.781 Y-1.2023
N8410 G1 X4.8159 Y-1.2097
N8420 G1 X4.851 Y-1.2162
N8430 G1 X4.8862 Y-1.222
N8440 G1 X4.9215 Y-1.2269
N8450 G1 X4.957 Y-1.2311
N8460 G1 X4.9925 Y-1.2346
N8470 G1 X5.0281 Y-1.2373
N8480 G1 X5.0638 Y-1.2392
N8490 G1 X5.0994 Y-1.2405
N8500 G1 X5.1351 Y-1.241
N8510 G1 X5.1708 Y-1.2408
N8520 G1 X5.2065 Y-1.2399
N8530 G1 X5.2422 Y-1.2382
N8540 G1 X5.2778 Y-1.2357
N8550 G1 X5.3133 Y-1.2325
N8560 G1 X5.3488 Y-1.2284
N8570 G1 X5.3841 Y-1.2234
N8580 G1 X5.4193 Y-1.2174
N8590 G1 X5.4543 Y-1.2105
N8600 G1 X5.4891 Y-1.2025
N8610 G1 X5.5237 Y-1.1935
N8620 G1 X5.5579 Y-1.1833
N8630 G1 X5.5917 Y-1.1718
N8640 G1 X5.625 Y-1.1591
N8650 G1 X5.6577 Y-1.1448
N8660 G1 X5.6897 Y-1.1289
N8670 G1 X5.7207 Y-1.1112
N8680 G1 X5.7499 Y-1.0918
N8690 G1 X5.7707 Y-1.0754
N8700 G1 X5.7863 Y-1.0609
N8710 G1 X5.7993 Y-1.0467
N8720 G1 X5.8025 Y-1.0426
N8730 G1 X5.8094 Y-1.0315
N8740 G1 X5.8136 Y-1.0191
N8750 G1 X5.8149 Y-1.0061
N8760 G1 X5.8133 Y-0.9931
N8770 G1 X5.8088 Y-0.9808
N8780 G1 X5.768 Y-0.8986
N8790 G3 X5.7618 Y-0.8911 R0.025
N8800 G1 X5.7587 Y-0.8886 Z-0.1997
N8810 G1 X5.7558 Y-0.8862 Z-0.1988
N8820 G1 X5.753 Y-0.8839 Z-0.1973
N8830 G1 X5.7504 Y-0.8818 Z-0.1952
N8840 G1 X5.748 Y-0.88 Z-0.1927
N8850 G1 X5.7461 Y-0.8783 Z-0.1897
N8860 G1 X5.7445 Y-0.8771 Z-0.1863
N8870 G1 X5.7433 Y-0.8761 Z-0.1827
N8880 G1 X5.7426 Y-0.8755 Z-0.1789
N8890 G1 X5.7424 Y-0.8753 Z-0.175
N8900 G0 Z0.2
N8910 G0 X4.3323 Y-0.7665
N8920 G0 Z-0.15
N8930 G1 Z-0.175 F20.
N8940 G1 X4.332 Y-0.7664 Z-0.1789
N8950 G1 X4.3311 Y-0.7661 Z-0.1827
N8960 G1 X4.3297 Y-0.7657 Z-0.1863
N8970 G1 X4.3277 Y-0.7651 Z-0.1897
N8980 G1 X4.3253 Y-0.7644 Z-0.1927
N8990 G1 X4.3224 Y-0.7636 Z-0.1952
N9000 G1 X4.3192 Y-0.7627 Z-0.1973
N9010 G1 X4.3157 Y-0.7616 Z-0.1988
N9020 G1 X4.312 Y-0.7606 Z-0.1997
N9030 G1 X4.3083 Y-0.7595 Z-0.2
N9040 G3 X4.2992 Y-0.7633 R0.0078
N9050 G1 X4.259 Y-0.8444
N9060 G1 X4.2563 Y-0.8504
N9070 G1 X4.2536 Y-0.8583
N9080 G1 X4.2512 Y-0.8676
N9090 G1 X4.2495 Y-0.8779
N9100 G1 X4.2484 Y-0.8895
N9110 G1 X4.2483 Y-0.9027
N9120 G1 X4.2493 Y-0.9168
N9130 G1 X4.2518 Y-0.9329
N9140 G1 X4.2558 Y-0.9498
N9150 G1 X4.2619 Y-0.9687
N9160 G1 X4.2702 Y-0.9888
N9170 G1 X4.2812 Y-1.0103
N9180 G1 X4.2958 Y-1.0341
N9190 G1 X4.3135 Y-1.0582
N9200 G1 X4.3359 Y-1.0839
N9210 G1 X4.3613 Y-1.1089
N9220 G1 X4.3885 Y-1.132
N9230 G1 X4.4172 Y-1.1533
N9240 G1 X4.4469 Y-1.173
N9250 G1 X4.4777 Y-1.1912
N9260 G1 X4.5092 Y-1.2079
N9270 G1 X4.5414 Y-1.2233
N9280 G1 X4.5742 Y-1.2375
N9290 G1 X4.6074 Y-1.2505
N9300 G1 X4.6411 Y-1.2624
N9310 G1 X4.6751 Y-1.2732
N9320 G1 X4.7094 Y-1.2831
N9330 G1 X4.7439 Y-1.292
N9340 G1 X4.7787 Y-1.3001
N9350 G1 X4.8137 Y-1.3073
N9360 G1 X4.8488 Y-1.3137
N9370 G1 X4.8841 Y-1.3193
N9380 G1 X4.9194 Y-1.3241
N9390 G1 X4.9549 Y-1.3282
N9400 G1 X4.9904 Y-1.3316
N9410 G1 X5.026 Y-1.3342
N9420 G1 X5.0617 Y-1.3362
N9430 G1 X5.0973 Y-1.3375
N9440 G1 X5.133 Y-1.338
N9450 G1 X5.1687 Y-1.3379
N9460 G1 X5.2044 Y-1.337
N9470 G1 X5.2401 Y-1.3355
N9480 G1 X5.2757 Y-1.3332
N9490 G1 X5.3112 Y-1.33
N9500 G1 X5.3467 Y-1.3261
N9510 G1 X5.3821 Y-1.3214
N9520 G1 X5.4173 Y-1.3157
N9530 G1 X5.4524 Y-1.3092
N9540 G1 X5.4873 Y-1.3017
N9550 G1 X5.522 Y-1.2932
N9560 G1 X5.5564 Y-1.2837
N9570 G1 X5.5905 Y-1.2731
N9580 G1 X5.6242 Y-1.2613
N9590 G1 X5.6574 Y-1.2482
N9600 G1 X5.6901 Y-1.2338
N9610 G1 X5.722 Y-1.2178
N9620 G1 X5.753 Y-1.2002
N9630 G1 X5.783 Y-1.1808
N9640 G1 X5.8061 Y-1.1632
N9650 G1 X5.8238 Y-1.1473
N9660 G1 X5.8373 Y-1.133
N9670 G1 X5.843 Y-1.1261
N9680 G1 X5.8491 Y-1.1168
N9690 G1 X5.8533 Y-1.1066
N9700 G1 X5.8556 Y-1.0958
N9710 G1 X5.8557 Y-1.0847
N9720 G1 X5.8538 Y-1.0738
N9730 G1 X5.8499 Y-1.0635
N9740 G1 X5.8088 Y-0.9808
N9750 G3 X5.8026 Y-0.9733 R0.025
N9760 G1 X5.7995 Y-0.9708 Z-0.1997
N9770 G1 X5.7966 Y-0.9684 Z-0.1988
N9780 G1 X5.7938 Y-0.9661 Z-0.1973
N9790 G1 X5.7912 Y-0.964 Z-0.1952
N9800 G1 X5.7889 Y-0.9621 Z-0.1927
N9810 G1 X5.7869 Y-0.9605 Z-0.1897
N9820 G1 X5.7853 Y-0.9592 Z-0.1863
N9830 G1 X5.7841 Y-0.9583 Z-0.1827
N9840 G1 X5.7834 Y-0.9577 Z-0.1789
N9850 G1 X5.7832 Y-0.9575 Z-0.175
N9860 G0 Z0.2
N9870 G0 X4.292 Y-0.8476
N9880 G0 Z-0.15
N9890 G1 Z-0.175 F20.
N9900 G1 X4.2917 Y-0.8475 Z-0.1789
N9910 G1 X4.2908 Y-0.8472 Z-0.1827
N9920 G1 X4.2894 Y-0.8468 Z-0.1863
N9930 G1 X4.2874 Y-0.8462 Z-0.1897
N9940 G1 X4.285 Y-0.8455 Z-0.1927
N9950 G1 X4.2821 Y-0.8447 Z-0.1952
N9960 G1 X4.2789 Y-0.8437 Z-0.1973
N9970 G1 X4.2754 Y-0.8427 Z-0.1988
N9980 G1 X4.2718 Y-0.8417 Z-0.1997
N9990 G1 X4.268 Y-0.8406 Z-0.2
N10000 G3 X4.259 Y-0.8444 R0.0078
N10010 G1 X4.2227 Y-0.9173
N10020 G1 X4.2179 Y-0.9284
N10030 G1 X4.2151 Y-0.9365
N10040 G1 X4.2127 Y-0.9458
N10050 G1 X4.2109 Y-0.9566
N10060 G1 X4.2098 Y-0.9681
N10070 G1 X4.2097 Y-0.9819
N10080 G1 X4.2107 Y-0.996
N10090 G1 X4.2133 Y-1.0127
N10100 G1 X4.2173 Y-1.0297
N10110 G1 X4.2237 Y-1.0496
N10120 G1 X4.232 Y-1.0696
N10130 G1 X4.2435 Y-1.0921
N10140 G1 X4.2586 Y-1.1165
N10150 G1 X4.2769 Y-1.1414
N10160 G1 X4.3002 Y-1.1684
N10170 G1 X4.3257 Y-1.1934
N10180 G1 X4.3528 Y-1.2166
N10190 G1 X4.3813 Y-1.2381
N10200 G1 X4.4109 Y-1.258
N10210 G1 X4.4415 Y-1.2765
N10220 G1 X4.4728 Y-1.2936
N10230 G1 X4.5048 Y-1.3094
N10240 G1 X4.5373 Y-1.3241
N10250 G1 X4.5704 Y-1.3376
N10260 G1 X4.6038 Y-1.35
N10270 G1 X4.6376 Y-1.3614
N10280 G1 X4.6718 Y-1.3719
N10290 G1 X4.7062 Y-1.3814
N10300 G1 X4.7408 Y-1.39
N10310 G1 X4.7757 Y-1.3978
N10320 G1 X4.8107 Y-1.4048
N10330 G1 X4.8458 Y-1.411
N10340 G1 X4.8811 Y-1.4165
N10350 G1 X4.9165 Y-1.4213
N10360 G1 X4.9519 Y-1.4253
N10370 G1 X4.9875 Y-1.4286
N10380 G1 X5.0231 Y-1.4313
N10390 G1 X5.0587 Y-1.4332
N10400 G1 X5.0944 Y-1.4345
N10410 G1 X5.1301 Y-1.4351
N10420 G1 X5.1658
N10430 G1 X5.2014 Y-1.4343
N10440 G1 X5.2371 Y-1.4329
N10450 G1 X5.2727 Y-1.4307
N10460 G1 X5.3083 Y-1.4277
N10470 G1 X5.3438 Y-1.424
N10480 G1 X5.3792 Y-1.4195
N10490 G1 X5.4145 Y-1.4142
N10500 G1 X5.4497 Y-1.408
N10510 G1 X5.4847 Y-1.4009
N10520 G1 X5.5195 Y-1.393
N10530 G1 X5.554 Y-1.3841
N10540 G1 X5.5883 Y-1.3742
N10550 G1 X5.6223 Y-1.3633
N10560 G1 X5.6559 Y-1.3512
N10570 G1 X5.6891 Y-1.338
N10580 G1 X5.7217 Y-1.3235
N10590 G1 X5.7536 Y-1.3076
N10600 G1 X5.7848 Y-1.2901
N10610 G1 X5.8149 Y-1.271
N10620 G1 X5.8415 Y-1.2515
N10630 G1 X5.8608 Y-1.2348
N10640 G1 X5.8755 Y-1.2198
N10650 G1 X5.8869 Y-1.2061
N10660 G1 X5.8965 Y-1.1926
N10670 G1 X5.8999 Y-1.1847
N10680 G1 X5.9013 Y-1.1762
N10690 G1 X5.9005 Y-1.1677
N10700 G1 X5.8977 Y-1.1596
N10710 G1 X5.8499 Y-1.0635
N10720 G3 X5.8436 Y-1.0559 R0.025
N10730 G1 X5.8406 Y-1.0535 Z-0.1997
N10740 G1 X5.8376 Y-1.0511 Z-0.1988
N10750 G1 X5.8348 Y-1.0488 Z-0.1973
N10760 G1 X5.8322 Y-1.0467 Z-0.1952
N10770 G1 X5.8299 Y-1.0448 Z-0.1927
N10780 G1 X5.8279 Y-1.0432 Z-0.1897
N10790 G1 X5.8263 Y-1.0419 Z-0.1863
N10800 G1 X5.8252 Y-1.041 Z-0.1827
N10810 G1 X5.8245 Y-1.0404 Z-0.1789
N10820 G1 X5.8242 Y-1.0402 Z-0.175
N10830 G0 Z0.2
N10840 G0 X4.2558 Y-0.9206
N10850 G0 Z-0.15
N10860 G1 Z-0.175 F20.
N10870 G1 X4.2555 Y-0.9205 Z-0.1789
N10880 G1 X4.2546 Y-0.9202 Z-0.1827
N10890 G1 X4.2532 Y-0.9198 Z-0.1863
N10900 G1 X4.2512 Y-0.9192 Z-0.1897
N10910 G1 X4.2487 Y-0.9185 Z-0.1927
N10920 G1 X4.2459 Y-0.9177 Z-0.1952
N10930 G1 X4.2427 Y-0.9167 Z-0.1973
N10940 G1 X4.2392 Y-0.9157 Z-0.1988
N10950 G1 X4.2355 Y-0.9147 Z-0.1997
N10960 G1 X4.2318 Y-0.9136 Z-0.2
N10970 G3 X4.2227 Y-0.9173 R0.0078
N10980 G1 X4.1824 Y-0.9984
N10990 G1 X4.1787 Y-1.0069
N11000 G1 X4.1759 Y-1.0153
N11010 G1 X4.1735 Y-1.0246
N11020 G1 X4.1716 Y-1.0357
N11030 G1 X4.1705 Y-1.0473
N11040 G1 X4.1704 Y-1.0613
N11050 G1 X4.1714 Y-1.0757
N11060 G1 X4.174 Y-1.0928
N11070 G1 X4.1781 Y-1.1101
N11080 G1 X4.1847 Y-1.1306
N11090 G1 X4.1932 Y-1.151
N11100 G1 X4.2051 Y-1.1742
N11110 G1 X4.2205 Y-1.1991
N11120 G1 X4.2394 Y-1.2249
N11130 G1 X4.2628 Y-1.2519
N11140 G1 X4.2882 Y-1.277
N11150 G1 X4.3152 Y-1.3003
N11160 G1 X4.3435 Y-1.322
N11170 G1 X4.3729 Y-1.3423
N11180 G1 X4.4032 Y-1.3611
N11190 G1 X4.4344 Y-1.3786
N11200 G1 X4.4661 Y-1.3949
N11210 G1 X4.4985 Y-1.41
N11220 G1 X4.5313 Y-1.424
N11230 G1 X4.5646 Y-1.4369
N11240 G1 X4.5982 Y-1.4489
N11250 G1 X4.6321 Y-1.4599
N11260 G1 X4.6664 Y-1.47
N11270 G1 X4.7009 Y-1.4792
N11280 G1 X4.7356 Y-1.4876
N11290 G1 X4.7704 Y-1.4952
N11300 G1 X4.8055 Y-1.5021
N11310 G1 X4.8406 Y-1.5082
N11320 G1 X4.8759 Y-1.5136
N11330 G1 X4.9113 Y-1.5183
N11340 G1 X4.9468 Y-1.5223
N11350 G1 X4.9823 Y-1.5256
N11360 G1 X5.0179 Y-1.5283
N11370 G1 X5.0536 Y-1.5303
N11380 G1 X5.0892 Y-1.5316
N11390 G1 X5.1249 Y-1.5323
N11400 G1 X5.1606 Y-1.5324
N11410 G1 X5.1963 Y-1.5317
N11420 G1 X5.232 Y-1.5304
N11430 G1 X5.2676 Y-1.5284
N11440 G1 X5.3032 Y-1.5257
N11450 G1 X5.3387 Y-1.5222
N11460 G1 X5.3742 Y-1.518
N11470 G1 X5.4095 Y-1.513
N11480 G1 X5.4447 Y-1.5072
N11490 G1 X5.4798 Y-1.5006
N11500 G1 X5.5147 Y-1.4932
N11510 G1 X5.5494 Y-1.4849
N11520 G1 X5.5839 Y-1.4757
N11530 G1 X5.6182 Y-1.4655
N11540 G1 X5.6521 Y-1.4544
N11550 G1 X5.6856 Y-1.4423
N11560 G1 X5.7188 Y-1.429
N11570 G1 X5.7514 Y-1.4144
N11580 G1 X5.7834 Y-1.3986
N11590 G1 X5.8147 Y-1.3814
N11600 G1 X5.845 Y-1.3627
N11610 G1 X5.8742 Y-1.3421
N11620 G1 X5.8996 Y-1.3213
N11630 G1 X5.9167 Y-1.3048
N11640 G1 X5.9293 Y-1.2906
N11650 G1 X5.9317 Y-1.2874
N11660 G1 X5.9378 Y-1.2773
N11670 G1 X5.9417 Y-1.2662
N11680 G1 X5.9433 Y-1.2546
N11690 G1 X5.9426 Y-1.2428
N11700 G1 X5.9395 Y-1.2314
N11710 G1 X5.9341 Y-1.2209
N11720 G1 X5.9163 Y-1.1931
N11730 G1 X5.8982 Y-1.1606
N11740 G1 X5.8977 Y-1.1596
N11750 G3 X5.8914 Y-1.1521 R0.025
N11760 G1 X5.8884 Y-1.1496 Z-0.1997
N11770 G1 X5.8854 Y-1.1472 Z-0.1988
N11780 G1 X5.8826 Y-1.1449 Z-0.1973
N11790 G1 X5.88 Y-1.1428 Z-0.1952
N11800 G1 X5.8777 Y-1.141 Z-0.1927
N11810 G1 X5.8757 Y-1.1394 Z-0.1897
N11820 G1 X5.8741 Y-1.1381 Z-0.1863
N11830 G1 X5.8729 Y-1.1371 Z-0.1827
N11840 G1 X5.8722 Y-1.1366 Z-0.1789
N11850 G1 X5.872 Y-1.1364 Z-0.175
N11860 G0 Z0.2
N11870 G0 X4.2155 Y-1.0017
N11880 G0 Z-0.15
N11890 G1 Z-0.175 F20.
N11900 G1 X4.2152 Y-1.0016 Z-0.1789
N11910 G1 X4.2143 Y-1.0013 Z-0.1827
N11920 G1 X4.2129 Y-1.0009 Z-0.1863
N11930 G1 X4.2109 Y-1.0003 Z-0.1897
N11940 G1 X4.2085 Y-0.9996 Z-0.1927
N11950 G1 X4.2056 Y-0.9988 Z-0.1952
N11960 G1 X4.2024 Y-0.9978 Z-0.1973
N11970 G1 X4.1989 Y-0.9968 Z-0.1988
N11980 G1 X4.1952 Y-0.9958 Z-0.1997
N11990 G1 X4.1915 Y-0.9947 Z-0.2
N12000 G3 X4.1824 Y-0.9984 R0.0078
N12010 G1 X4.1422 Y-1.0795
N12020 G1 X4.1392 Y-1.0864
N12030 G1 X4.1362 Y-1.095
N12040 G1 X4.1338 Y-1.1043
N12050 G1 X4.1319 Y-1.1156
N12060 G1 X4.1309 Y-1.1274
N12070 G1 X4.1307 Y-1.1415
N12080 G1 X4.1318 Y-1.1562
N12090 G1 X4.1344 Y-1.1733
N12100 G1 X4.1386 Y-1.1912
N12110 G1 X4.1453 Y-1.2118
N12120 G1 X4.1539 Y-1.2328
N12130 G1 X4.1661 Y-1.2566
N12140 G1 X4.1818 Y-1.282
N12150 G1 X4.2014 Y-1.3087
N12160 G1 X4.2248 Y-1.3357
N12170 G1 X4.2501 Y-1.3608
N12180 G1 X4.277 Y-1.3843
N12190 G1 X4.3052 Y-1.4062
N12200 G1 X4.3344 Y-1.4267
N12210 G1 X4.3645 Y-1.4458
N12220 G1 X4.3955 Y-1.4636
N12230 G1 X4.427 Y-1.4803
N12240 G1 X4.4592 Y-1.4958
N12250 G1 X4.4918 Y-1.5103
N12260 G1 X4.5249 Y-1.5237
N12270 G1 X4.5583 Y-1.5361
N12280 G1 X4.5921 Y-1.5477
N12290 G1 X4.6262 Y-1.5583
N12300 G1 X4.6605 Y-1.5681
N12310 G1 X4.6951 Y-1.5771
N12320 G1 X4.7298 Y-1.5852
N12330 G1 X4.7647 Y-1.5927
N12340 G1 X4.7998 Y-1.5994
N12350 G1 X4.835 Y-1.6054
N12360 G1 X4.8703 Y-1.6107
N12370 G1 X4.9057 Y-1.6154
N12380 G1 X4.9412 Y-1.6193
N12390 G1 X4.9767 Y-1.6227
N12400 G1 X5.0123 Y-1.6254
N12410 G1 X5.0479 Y-1.6274
N12420 G1 X5.0836 Y-1.6288
N12430 G1 X5.1193 Y-1.6296
N12440 G1 X5.155 Y-1.6297
N12450 G1 X5.1907 Y-1.6292
N12460 G1 X5.2263 Y-1.6281
N12470 G1 X5.262 Y-1.6262
N12480 G1 X5.2976 Y-1.6237
N12490 G1 X5.3331 Y-1.6204
N12500 G1 X5.3686 Y-1.6165
N12510 G1 X5.404 Y-1.6118
N12520 G1 X5.4393 Y-1.6064
N12530 G1 X5.4744 Y-1.6002
N12540 G1 X5.5095 Y-1.5933
N12550 G1 X5.5443 Y-1.5855
N12560 G1 X5.579 Y-1.5769
N12570 G1 X5.6134 Y-1.5675
N12580 G1 X5.6475 Y-1.5572
N12590 G1 X5.6814 Y-1.5459
N12600 G1 X5.7149 Y-1.5337
N12610 G1 X5.7481 Y-1.5203
N12620 G1 X5.7807 Y-1.5059
N12630 G1 X5.8128 Y-1.4902
N12640 G1 X5.8442 Y-1.4733
N12650 G1 X5.8748 Y-1.4549
N12660 G1 X5.9044 Y-1.435
N12670 G1 X5.9321 Y-1.4138
N12680 G1 X5.9514 Y-1.3964
N12690 G1 X5.9656 Y-1.3814
N12700 G1 X5.9766 Y-1.3676
N12710 G1 X5.9867 Y-1.3524
N12720 G1 X5.9915 Y-1.3416
N12730 G1 X5.994 Y-1.33
N12740 G1 X5.9941 Y-1.3182
N12750 G1 X5.9917 Y-1.3066
N12760 G1 X5.9871 Y-1.2957
N12770 G1 X5.9804 Y-1.2859
N12780 G1 X5.969 Y-1.2725
N12790 G1 X5.9584 Y-1.258
N12800 G1 X5.9475 Y-1.2417
N12810 G1 X5.9341 Y-1.2209
N12820 G3 X5.9271 Y-1.2141 R0.025
N12830 G1 X5.9238 Y-1.212 Z-0.1997
N12840 G1 X5.9206 Y-1.21 Z-0.1988
N12850 G1 X5.9176 Y-1.208 Z-0.1973
N12860 G1 X5.9148 Y-1.2062 Z-0.1952
N12870 G1 X5.9123 Y-1.2046 Z-0.1927
N12880 G1 X5.9101 Y-1.2032 Z-0.1897
N12890 G1 X5.9084 Y-1.2021 Z-0.1863
N12900 G1 X5.9071 Y-1.2013 Z-0.1827
N12910 G1 X5.9064 Y-1.2008 Z-0.1789
N12920 G1 X5.9061 Y-1.2006 Z-0.175
N12930 G0 Z0.2
N12940 G0 X4.1752 Y-1.0828
N12950 G0 Z-0.15
N12960 G1 Z-0.175 F20.
N12970 G1 X4.1749 Y-1.0827 Z-0.1789
N12980 G1 X4.174 Y-1.0824 Z-0.1827
N12990 G1 X4.1726 Y-1.082 Z-0.1863
N13000 G1 X4.1706 Y-1.0814 Z-0.1897
N13010 G1 X4.1682 Y-1.0807 Z-0.1927
N13020 G1 X4.1653 Y-1.0799 Z-0.1952
N13030 G1 X4.1621 Y-1.0789 Z-0.1973
N13040 G1 X4.1586 Y-1.0779 Z-0.1988
N13050 G1 X4.155 Y-1.0769 Z-0.1997
N13060 G1 X4.1512 Y-1.0758 Z-0.2
N13070 G3 X4.1422 Y-1.0795 R0.0078
N13080 G1 X4.1098 Y-1.1444
N13090 G1 X4.104 Y-1.1556
N13100 G1 X4.0999 Y-1.1644
N13110 G1 X4.0968 Y-1.1729
N13120 G1 X4.0943 Y-1.182
N13130 G1 X4.0922 Y-1.1929
N13140 G1 X4.0909 Y-1.2048
N13150 G1 X4.0905 Y-1.2182
N13160 G1 X4.0913 Y-1.2334
N13170 G1 X4.0935 Y-1.2497
N13180 G1 X4.0974 Y-1.2682
N13190 G1 X4.1033 Y-1.2878
N13200 G1 X4.1118 Y-1.3095
N13210 G1 X4.1235 Y-1.3335
N13220 G1 X4.1381 Y-1.3582
N13230 G1 X4.1572 Y-1.3854
N13240 G1 X4.1801 Y-1.4128
N13250 G1 X4.2049 Y-1.4385
N13260 G1 X4.2313 Y-1.4625
N13270 G1 X4.259 Y-1.485
N13280 G1 X4.2878 Y-1.506
N13290 G1 X4.3176 Y-1.5257
N13300 G1 X4.3481 Y-1.5442
N13310 G1 X4.3794 Y-1.5615
N13320 G1 X4.4112 Y-1.5777
N13330 G1 X4.4435 Y-1.5928
N13340 G1 X4.4763 Y-1.6068
N13350 G1 X4.5095 Y-1.62
N13360 G1 X4.5431 Y-1.6322
N13370 G1 X4.5769 Y-1.6435
N13380 G1 X4.611 Y-1.654
N13390 G1 X4.6454 Y-1.6637
N13400 G1 X4.6799 Y-1.6727
N13410 G1 X4.7147 Y-1.6809
N13420 G1 X4.7496 Y-1.6883
N13430 G1 X4.7846 Y-1.6951
N13440 G1 X4.8198 Y-1.7012
N13450 G1 X4.8551 Y-1.7066
N13460 G1 X4.8905 Y-1.7114
N13470 G1 X4.9259 Y-1.7155
N13480 G1 X4.9614 Y-1.719
N13490 G1 X4.997 Y-1.7219
N13500 G1 X5.0326 Y-1.7241
N13510 G1 X5.0683 Y-1.7258
N13520 G1 X5.104 Y-1.7268
N13530 G1 X5.1397 Y-1.7272
N13540 G1 X5.1754 Y-1.727
N13550 G1 X5.2111 Y-1.7261
N13560 G1 X5.2467 Y-1.7246
N13570 G1 X5.2824 Y-1.7224
N13580 G1 X5.3179 Y-1.7196
N13590 G1 X5.3535 Y-1.7161
N13600 G1 X5.3889 Y-1.7119
N13610 G1 X5.4243 Y-1.707
N13620 G1 X5.4595 Y-1.7014
N13630 G1 X5.4947 Y-1.6951
N13640 G1 X5.5297 Y-1.688
N13650 G1 X5.5645 Y-1.6802
N13660 G1 X5.5991 Y-1.6716
N13670 G1 X5.6336 Y-1.6622
N13680 G1 X5.6678 Y-1.652
N13690 G1 X5.7017 Y-1.6408
N13700 G1 X5.7352 Y-1.6287
N13710 G1 X5.7685 Y-1.6156
N13720 G1 X5.8012 Y-1.6015
N13730 G1 X5.8335 Y-1.5863
N13740 G1 X5.8653 Y-1.5699
N13750 G1 X5.8963 Y-1.5524
N13760 G1 X5.9266 Y-1.5335
N13770 G1 X5.9558 Y-1.5129
N13780 G1 X5.9835 Y-1.4904
N13790 G1 X6.0038 Y-1.4711
N13800 G1 X6.019 Y-1.454
N13810 G1 X6.0306 Y-1.4387
N13820 G1 X6.0395 Y-1.4247
N13830 G1 X6.045 Y-1.4144
N13840 G1 X6.0496 Y-1.4027
N13850 G1 X6.0517 Y-1.3903
N13860 G1 X6.051 Y-1.3777
N13870 G1 X6.0476 Y-1.3656
N13880 G1 X6.0417 Y-1.3544
N13890 G1 X6.0336 Y-1.3448
N13900 G1 X6.0258 Y-1.3372
N13910 G1 X6.0096 Y-1.3202
N13920 G1 X5.9804 Y-1.2859
N13930 G3 X5.9726 Y-1.2801 R0.025
N13940 G1 X5.9691 Y-1.2785 Z-0.1997
N13950 G1 X5.9656 Y-1.2769 Z-0.1988
N13960 G1 X5.9623 Y-1.2753 Z-0.1973
N13970 G1 X5.9593 Y-1.2739 Z-0.1952
N13980 G1 X5.9566 Y-1.2726 Z-0.1927
N13990 G1 X5.9543 Y-1.2715 Z-0.1897
N14000 G1 X5.9524 Y-1.2707 Z-0.1863
N14010 G1 X5.9511 Y-1.27 Z-0.1827
N14020 G1 X5.9502 Y-1.2696 Z-0.1789
N14030 G1 X5.95 Y-1.2695 Z-0.175
N14040 G0 Z0.2
N14050 G0 X4.137 Y-1.1595
N14060 G0 Z-0.15
N14070 G1 Z-0.175 F20.
N14080 G1 X4.1367 Y-1.1594 Z-0.1789
N14090 G1 X4.1358 Y-1.1591 Z-0.1827
N14100 G1 X4.1344 Y-1.1587 Z-0.1863
N14110 G1 X4.1324 Y-1.1581 Z-0.1897
N14120 G1 X4.13 Y-1.1573 Z-0.1927
N14130 G1 X4.1271 Y-1.1564 Z-0.1952
N14140 G1 X4.1239 Y-1.1554 Z-0.1973
N14150 G1 X4.1205 Y-1.1543 Z-0.1988
N14160 G1 X4.1168 Y-1.1532 Z-0.1997
N14170 G1 X4.1131 Y-1.152 Z-0.2
N14180 G3 X4.104 Y-1.1556 R0.0078
N14190 G1 X4.092 Y-1.1769
N14200 G1 X4.0634 Y-1.2255
N14210 G1 X4.0598 Y-1.2321
N14220 G1 X4.0565 Y-1.2395
N14230 G1 X4.0533 Y-1.2486
N14240 G1 X4.0507 Y-1.2582
N14250 G1 X4.0486 Y-1.27
N14260 G1 X4.0474 Y-1.2824
N14270 G1 X4.0471 Y-1.2968
N14280 G1 X4.0481 Y-1.3123
N14290 G1 X4.0506 Y-1.3299
N14300 G1 X4.0549 Y-1.3487
N14310 G1 X4.0616 Y-1.3701
N14320 G1 X4.0704 Y-1.3921
N14330 G1 X4.0829 Y-1.417
N14340 G1 X4.0992 Y-1.4439
N14350 G1 X4.1197 Y-1.4723
N14360 G1 X4.1428 Y-1.4995
N14370 G1 X4.1678 Y-1.525
N14380 G1 X4.1943 Y-1.5489
N14390 G1 X4.2221 Y-1.5713
N14400 G1 X4.2509 Y-1.5924
N14410 G1 X4.2806 Y-1.6122
N14420 G1 X4.311 Y-1.6308
N14430 G1 X4.3422 Y-1.6483
N14440 G1 X4.3739 Y-1.6646
N14450 G1 X4.4061 Y-1.68
N14460 G1 X4.4388 Y-1.6944
N14470 G1 X4.4718 Y-1.7079
N14480 G1 X4.5052 Y-1.7205
N14490 G1 X4.5389 Y-1.7322
N14500 G1 X4.5729 Y-1.7432
N14510 G1 X4.6071 Y-1.7533
N14520 G1 X4.6416 Y-1.7627
N14530 G1 X4.6762 Y-1.7713
N14540 G1 X4.711 Y-1.7792
N14550 G1 X4.746 Y-1.7865
N14560 G1 X4.781 Y-1.7931
N14570 G1 X4.8162 Y-1.799
N14580 G1 X4.8516 Y-1.8043
N14590 G1 X4.8869 Y-1.809
N14600 G1 X4.9224 Y-1.813
N14610 G1 X4.9579 Y-1.8165
N14620 G1 X4.9935 Y-1.8193
N14630 G1 X5.0291 Y-1.8215
N14640 G1 X5.0648 Y-1.8232
N14650 G1 X5.1005 Y-1.8242
N14660 G1 X5.1362 Y-1.8246
N14670 G1 X5.1719 Y-1.8245
N14680 G1 X5.2076 Y-1.8237
N14690 G1 X5.2432 Y-1.8223
N14700 G1 X5.2789 Y-1.8203
N14710 G1 X5.3145 Y-1.8176
N14720 G1 X5.35 Y-1.8143
N14730 G1 X5.3855 Y-1.8104
N14740 G1 X5.4209 Y-1.8057
N14750 G1 X5.4562 Y-1.8005
N14760 G1 X5.4914 Y-1.7945
N14770 G1 X5.5264 Y-1.7878
N14780 G1 X5.5614 Y-1.7804
N14790 G1 X5.5961 Y-1.7723
N14800 G1 X5.6307 Y-1.7634
N14810 G1 X5.6651 Y-1.7538
N14820 G1 X5.6992 Y-1.7433
N14830 G1 X5.733 Y-1.7319
N14840 G1 X5.7666 Y-1.7197
N14850 G1 X5.7998 Y-1.7066
N14860 G1 X5.8326 Y-1.6925
N14870 G1 X5.8649 Y-1.6774
N14880 G1 X5.8967 Y-1.6612
N14890 G1 X5.9279 Y-1.6438
N14900 G1 X5.9583 Y-1.6252
N14910 G1 X5.9879 Y-1.6052
N14920 G1 X6.0162 Y-1.5835
N14930 G1 X6.043 Y-1.5599
N14940 G1 X6.064 Y-1.5383
N14950 G1 X6.0802 Y-1.5188
N14960 G1 X6.0916 Y-1.5025
N14970 G1 X6.1008 Y-1.4868
N14980 G1 X6.1079 Y-1.4721
N14990 G1 X6.1112 Y-1.4636
N15000 G1 X6.1145 Y-1.4514
N15010 G1 X6.1151 Y-1.4388
N15020 G1 X6.1129 Y-1.4264
N15030 G1 X6.1081 Y-1.4147
N15040 G1 X6.1009 Y-1.4044
N15050 G1 X6.0916 Y-1.3958
N15060 G1 X6.0812 Y-1.3877
N15070 G1 X6.0336 Y-1.3448
N15080 G3 X6.0252 Y-1.3399 R0.025
N15090 G1 X6.0215 Y-1.3386 Z-0.1997
N15100 G1 X6.0179 Y-1.3374 Z-0.1988
N15110 G1 X6.0144 Y-1.3362 Z-0.1973
N15120 G1 X6.0113 Y-1.3351 Z-0.1952
N15130 G1 X6.0085 Y-1.3341 Z-0.1927
N15140 G1 X6.0061 Y-1.3333 Z-0.1897
N15150 G1 X6.0041 Y-1.3326 Z-0.1863
N15160 G1 X6.0027 Y-1.3322 Z-0.1827
N15170 G1 X6.0018 Y-1.3319 Z-0.1789
N15180 G1 X6.0015 Y-1.3318 Z-0.175
N15190 G0 Z0.2
N15200 G0 X4.0961 Y-1.2317
N15210 G0 Z-0.15
N15220 G1 Z-0.175 F20.
N15230 G1 X4.0958 Y-1.2316 Z-0.1789
N15240 G1 X4.0949 Y-1.2312 Z-0.1827
N15250 G1 X4.0935 Y-1.2307 Z-0.1863
N15260 G1 X4.0916 Y-1.2299 Z-0.1897
N15270 G1 X4.0892 Y-1.229 Z-0.1927
N15280 G1 X4.0865 Y-1.2279 Z-0.1952
N15290 G1 X4.0834 Y-1.2267 Z-0.1973
N15300 G1 X4.08 Y-1.2254 Z-0.1988
N15310 G1 X4.0764 Y-1.224 Z-0.1997
N15320 G1 X4.0728 Y-1.2226 Z-0.2
N15330 G3 X4.0634 Y-1.2255 R0.0078
N15340 G1 X4.0535 Y-1.2417
N15350 G1 X4.0349 Y-1.2661
N15360 G1 X4.0229 Y-1.2816
N15370 G1 X4.0179 Y-1.2887
N15380 G1 X4.0141 Y-1.2952
N15390 G1 X4.0102 Y-1.3032
N15400 G1 X4.0068 Y-1.312
N15410 G1 X4.0037 Y-1.3224
N15420 G1 X4.0012 Y-1.3339
N15430 G1 X3.9996 Y-1.3469
N15440 G1 X3.9988 Y-1.3615
N15450 G1 X3.9994 Y-1.3775
N15460 G1 X4.0014 Y-1.3955
N15470 G1 X4.0052 Y-1.415
N15480 G1 X4.0112 Y-1.4364
N15490 G1 X4.0199 Y-1.4601
N15500 G1 X4.0312 Y-1.4845
N15510 G1 X4.0465 Y-1.5116
N15520 G1 X4.0664 Y-1.541
N15530 G1 X4.0887 Y-1.5689
N15540 G1 X4.1129 Y-1.5951
N15550 G1 X4.1386 Y-1.6199
N15560 G1 X4.1657 Y-1.6432
N15570 G1 X4.1938 Y-1.6651
N15580 G1 X4.223 Y-1.6857
N15590 G1 X4.2529 Y-1.7052
N15600 G1 X4.2835 Y-1.7235
N15610 G1 X4.3148 Y-1.7407
N15620 G1 X4.3466 Y-1.757
N15630 G1 X4.3788 Y-1.7722
N15640 G1 X4.4115 Y-1.7866
N15650 G1 X4.4446 Y-1.8001
N15660 G1 X4.478 Y-1.8127
N15670 G1 X4.5116 Y-1.8245
N15680 G1 X4.5456 Y-1.8356
N15690 G1 X4.5798 Y-1.8459
N15700 G1 X4.6142 Y-1.8554
N15710 G1 X4.6487 Y-1.8643
N15720 G1 X4.6835 Y-1.8725
N15730 G1 X4.7184 Y-1.88
N15740 G1 X4.7534 Y-1.8868
N15750 G1 X4.7886 Y-1.893
N15760 G1 X4.8238 Y-1.8986
N15770 G1 X4.8592 Y-1.9036
N15780 G1 X4.8946 Y-1.908
N15790 G1 X4.9301 Y-1.9118
N15800 G1 X4.9656 Y-1.9149
N15810 G1 X5.0012 Y-1.9176
N15820 G1 X5.0369 Y-1.9196
N15830 G1 X5.0725 Y-1.921
N15840 G1 X5.1082 Y-1.9219
N15850 G1 X5.1439 Y-1.9222
N15860 G1 X5.1796 Y-1.9219
N15870 G1 X5.2153 Y-1.921
N15880 G1 X5.251 Y-1.9195
N15890 G1 X5.2866 Y-1.9174
N15900 G1 X5.3222 Y-1.9148
N15910 G1 X5.3577 Y-1.9114
N15920 G1 X5.3932 Y-1.9075
N15930 G1 X5.4286 Y-1.903
N15940 G1 X5.4639 Y-1.8978
N15950 G1 X5.4991 Y-1.8919
N15960 G1 X5.5342 Y-1.8854
N15970 G1 X5.5692 Y-1.8782
N15980 G1 X5.604 Y-1.8703
N15990 G1 X5.6386 Y-1.8616
N16000 G1 X5.6731 Y-1.8523
N16010 G1 X5.7073 Y-1.8421
N16020 G1 X5.7413 Y-1.8312
N16030 G1 X5.775 Y-1.8195
N16040 G1 X5.8084 Y-1.8069
N16050 G1 X5.8415 Y-1.7934
N16060 G1 X5.8742 Y-1.7791
N16070 G1 X5.9064 Y-1.7637
N16080 G1 X5.9381 Y-1.7474
N16090 G1 X5.9692 Y-1.7299
N16100 G1 X5.9996 Y-1.7112
N16110 G1 X6.0292 Y-1.6911
N16120 G1 X6.0577 Y-1.6697
N16130 G1 X6.0849 Y-1.6466
N16140 G1 X6.1106 Y-1.6218
N16150 G1 X6.1317 Y-1.5979
N16160 G1 X6.1479 Y-1.5765
N16170 G1 X6.16 Y-1.5573
N16180 G1 X6.1689 Y-1.5404
N16190 G1 X6.1755 Y-1.5251
N16200 G1 X6.1806 Y-1.5098
N16210 G1 X6.182 Y-1.504
N16220 G1 X6.1837 Y-1.492
N16230 G1 X6.1829 Y-1.4799
N16240 G1 X6.1796 Y-1.4682
N16250 G1 X6.1739 Y-1.4575
N16260 G1 X6.1661 Y-1.4482
N16270 G1 X6.1566 Y-1.4407
N16280 G1 X6.0943 Y-1.3978
N16290 G1 X6.0916 Y-1.3958
N16300 G3 X6.0826 Y-1.392 R0.025
N16310 G1 X6.0788 Y-1.3912 Z-0.1997
N16320 G1 X6.0751 Y-1.3904 Z-0.1988
N16330 G1 X6.0715 Y-1.3896 Z-0.1973
N16340 G1 X6.0683 Y-1.3889 Z-0.1952
N16350 G1 X6.0654 Y-1.3883 Z-0.1927
N16360 G1 X6.0629 Y-1.3878 Z-0.1897
N16370 G1 X6.0609 Y-1.3873 Z-0.1863
N16380 G1 X6.0594 Y-1.387 Z-0.1827
N16390 G1 X6.0585 Y-1.3868 Z-0.1789
N16400 G1 X6.0582 Z-0.175
N16410 G0 Z0.2
N16420 G0 X4.0546 Y-1.2913
N16430 G0 Z-0.15
N16440 G1 Z-0.175 F20.
N16450 G1 X4.0544 Y-1.2911 Z-0.1789
N16460 G1 X4.0536 Y-1.2907 Z-0.1827
N16470 G1 X4.0522 Y-1.29 Z-0.1863
N16480 G1 X4.0504 Y-1.2891 Z-0.1897
N16490 G1 X4.0482 Y-1.2879 Z-0.1927
N16500 G1 X4.0455 Y-1.2865 Z-0.1952
N16510 G1 X4.0426 Y-1.2849 Z-0.1973
N16520 G1 X4.0393 Y-1.2832 Z-0.1988
N16530 G1 X4.036 Y-1.2815 Z-0.1997
N16540 G1 X4.0325 Y-1.2797 Z-0.2
N16550 G3 X4.0229 Y-1.2816 R0.0078
N16560 G1 X4.0029 Y-1.3066
N16570 G1 X3.9962 Y-1.3147
N16580 G1 X3.9798 Y-1.3309
N16590 G1 X3.9737 Y-1.3375
N16600 G1 X3.9694 Y-1.343
N16610 G1 X3.9649 Y-1.3499
N16620 G1 X3.9607 Y-1.3574
N16630 G1 X3.9566 Y-1.3667
N16640 G1 X3.953 Y-1.3765
N16650 G1 X3.9498 Y-1.3885
N16660 G1 X3.9475 Y-1.4013
N16670 G1 X3.9459 Y-1.4163
N16680 G1 X3.9456 Y-1.432
N16690 G1 X3.9467 Y-1.4505
N16700 G1 X3.9494 Y-1.4695
N16710 G1 X3.9544 Y-1.492
N16720 G1 X3.9614 Y-1.5147
N16730 G1 X3.9716 Y-1.5403
N16740 G1 X3.9855 Y-1.5683
N16750 G1 X4.0034 Y-1.5981
N16760 G1 X4.0242 Y-1.6271
N16770 G1 X4.0471 Y-1.6546
N16780 G1 X4.0716 Y-1.6805
N16790 G1 X4.0976 Y-1.705
N16800 G1 X4.1248 Y-1.7281
N16810 G1 X4.153 Y-1.75
N16820 G1 X4.1821 Y-1.7707
N16830 G1 X4.2119 Y-1.7902
N16840 G1 X4.2425 Y-1.8087
N16850 G1 X4.2736 Y-1.8262
N16860 G1 X4.3053 Y-1.8426
N16870 G1 X4.3374 Y-1.8582
N16880 G1 X4.3699 Y-1.8729
N16890 G1 X4.4028 Y-1.8868
N16900 G1 X4.4361 Y-1.8998
N16910 G1 X4.4696 Y-1.912
N16920 G1 X4.5034 Y-1.9235
N16930 G1 X4.5374 Y-1.9342
N16940 G1 X4.5717 Y-1.9442
N16950 G1 X4.6062 Y-1.9535
N16960 G1 X4.6408 Y-1.9622
N16970 G1 X4.6756 Y-1.9702
N16980 G1 X4.7105 Y-1.9775
N16990 G1 X4.7456 Y-1.9842
N17000 G1 X4.7807 Y-1.9904
N17010 G1 X4.816 Y-1.9959
N17020 G1 X4.8514 Y-2.0008
N17030 G1 X4.8868 Y-2.0052
N17040 G1 X4.9223 Y-2.009
N17050 G1 X4.9578 Y-2.0122
N17060 G1 X4.9934 Y-2.0148
N17070 G1 X5.0291 Y-2.0169
N17080 G1 X5.0647 Y-2.0185
N17090 G1 X5.1004 Y-2.0194
N17100 G1 X5.1361 Y-2.0198
N17110 G1 X5.1718 Y-2.0197
N17120 G1 X5.2075 Y-2.0189
N17130 G1 X5.2432 Y-2.0176
N17140 G1 X5.2788 Y-2.0158
N17150 G1 X5.3144 Y-2.0133
N17160 G1 X5.35 Y-2.0102
N17170 G1 X5.3855 Y-2.0066
N17180 G1 X5.4209 Y-2.0023
N17190 G1 X5.4563 Y-1.9975
N17200 G1 X5.4916 Y-1.992
N17210 G1 X5.5267 Y-1.9859
N17220 G1 X5.5618 Y-1.9791
N17230 G1 X5.5967 Y-1.9717
N17240 G1 X5.6315 Y-1.9636
N17250 G1 X5.6661 Y-1.9548
N17260 G1 X5.7005 Y-1.9453
N17270 G1 X5.7347 Y-1.9351
N17280 G1 X5.7686 Y-1.9241
N17290 G1 X5.8024 Y-1.9124
N17300 G1 X5.8358 Y-1.8999
N17310 G1 X5.8689 Y-1.8865
N17320 G1 X5.9016 Y-1.8723
N17330 G1 X5.934 Y-1.8572
N17340 G1 X5.9658 Y-1.8411
N17350 G1 X5.9971 Y-1.8239
N17360 G1 X6.0278 Y-1.8057
N17370 G1 X6.0578 Y-1.7863
N17380 G1 X6.0869 Y-1.7657
N17390 G1 X6.1151 Y-1.7438
N17400 G1 X6.142 Y-1.7204
N17410 G1 X6.1676 Y-1.6954
N17420 G1 X6.1913 Y-1.6688
N17430 G1 X6.2109 Y-1.643
N17440 G1 X6.2261 Y-1.6191
N17450 G1 X6.2371 Y-1.5984
N17460 G1 X6.2446 Y-1.581
N17470 G1 X6.2504 Y-1.564
N17480 G1 X6.2543 Y-1.5487
N17490 G1 X6.2568 Y-1.5333
N17500 G1 X6.2567 Y-1.5217
N17510 G1 X6.2542 Y-1.5104
N17520 G1 X6.2496 Y-1.4998
N17530 G1 X6.243 Y-1.4903
N17540 G1 X6.2347 Y-1.4823
N17550 G1 X6.2249 Y-1.4761
N17560 G1 X6.1627 Y-1.4445
N17570 G1 X6.1566 Y-1.4407
N17580 G3 X6.1474 Y-1.4375 R0.025
N17590 G1 X6.1435 Y-1.4369 Z-0.1997
N17600 G1 X6.1398 Y-1.4364 Z-0.1988
N17610 G1 X6.1362 Y-1.4359 Z-0.1973
N17620 G1 X6.1329 Y-1.4355 Z-0.1952
N17630 G1 X6.1299 Y-1.4351 Z-0.1927
N17640 G1 X6.1274 Y-1.4347 Z-0.1897
N17650 G1 X6.1253 Y-1.4344 Z-0.1863
N17660 G1 X6.1239 Y-1.4342 Z-0.1827
N17670 G1 X6.123 Y-1.4341 Z-0.1789
N17680 G1 X6.1226 Z-0.175
N17690 G0 Z0.2
N17700 G0 X4.01 Y-1.3448
N17710 G0 Z-0.15
N17720 G1 Z-0.175 F20.
N17730 G1 X4.0097 Y-1.3446 Z-0.1789
N17740 G1 X4.009 Y-1.3441 Z-0.1827
N17750 G1 X4.0077 Y-1.3432 Z-0.1863
N17760 G1 X4.0061 Y-1.342 Z-0.1897
N17770 G1 X4.004 Y-1.3406 Z-0.1927
N17780 G1 X4.0015 Y-1.3388 Z-0.1952
N17790 G1 X3.9988 Y-1.3369 Z-0.1973
N17800 G1 X3.9959 Y-1.3348 Z-0.1988
N17810 G1 X3.9928 Y-1.3326 Z-0.1997
N17820 G1 X3.9896 Y-1.3303 Z-0.2
N17830 G3 X3.9798 Y-1.3309 R0.0078
N17840 G1 X3.9385 Y-1.3715
N17850 G1 X3.9309 Y-1.3779
N17860 G1 X3.9261 Y-1.3819
N17870 G1 X3.9212 Y-1.3867
N17880 G1 X3.9165 Y-1.3922
N17890 G1 X3.9115 Y-1.3991
N17900 G1 X3.9068 Y-1.4066
N17910 G1 X3.9021 Y-1.4159
N17920 G1 X3.898 Y-1.4261
N17930 G1 X3.8941 Y-1.4381
N17940 G1 X3.8911 Y-1.451
N17950 G1 X3.8888 Y-1.4662
N17960 G1 X3.8877 Y-1.4823
N17970 G1 X3.888 Y-1.5013
N17980 G1 X3.8898 Y-1.5208
N17990 G1 X3.8938 Y-1.5439
N18000 G1 X3.8999 Y-1.5673
N18010 G1 X3.909 Y-1.5936
N18020 G1 X3.9216 Y-1.6223
N18030 G1 X3.9381 Y-1.653
N18040 G1 X3.9575 Y-1.6829
N18050 G1 X3.9791 Y-1.7114
N18060 G1 X4.0024 Y-1.7384
N18070 G1 X4.0273 Y-1.764
N18080 G1 X4.0535 Y-1.7883
N18090 G1 X4.0807 Y-1.8114
N18100 G1 X4.1089 Y-1.8332
N18110 G1 X4.1379 Y-1.854
N18120 G1 X4.1677 Y-1.8737
N18130 G1 X4.1981 Y-1.8924
N18140 G1 X4.2291 Y-1.9101
N18150 G1 X4.2606 Y-1.9269
N18160 G1 X4.2926 Y-1.9428
N18170 G1 X4.3249 Y-1.9579
N18180 G1 X4.3577 Y-1.9721
N18190 G1 X4.3907 Y-1.9855
N18200 G1 X4.4241 Y-1.9982
N18210 G1 X4.4578 Y-2.0101
N18220 G1 X4.4917 Y-2.0213
N18230 G1 X4.5258 Y-2.0318
N18240 G1 X4.5601 Y-2.0416
N18250 G1 X4.5946 Y-2.0507
N18260 G1 X4.6293 Y-2.0593
N18270 G1 X4.6641 Y-2.0671
N18280 G1 X4.699 Y-2.0744
N18290 G1 X4.7341 Y-2.0811
N18300 G1 X4.7693 Y-2.0872
N18310 G1 X4.8045 Y-2.0927
N18320 G1 X4.8399 Y-2.0977
N18330 G1 X4.8753 Y-2.1021
N18340 G1 X4.9108 Y-2.1059
N18350 G1 X4.9463 Y-2.1092
N18360 G1 X4.9819 Y-2.112
N18370 G1 X5.0176 Y-2.1142
N18380 G1 X5.0532 Y-2.1158
N18390 G1 X5.0889 Y-2.1169
N18400 G1 X5.1246 Y-2.1175
N18410 G1 X5.1603
N18420 G1 X5.196 Y-2.117
N18430 G1 X5.2317 Y-2.1159
N18440 G1 X5.2673 Y-2.1143
N18450 G1 X5.3029 Y-2.1121
N18460 G1 X5.3385 Y-2.1093
N18470 G1 X5.3741 Y-2.106
N18480 G1 X5.4095 Y-2.1021
N18490 G1 X5.445 Y-2.0976
N18500 G1 X5.4803 Y-2.0925
N18510 G1 X5.5155 Y-2.0868
N18520 G1 X5.5507 Y-2.0805
N18530 G1 X5.5857 Y-2.0736
N18540 G1 X5.6206 Y-2.0661
N18550 G1 X5.6553 Y-2.0579
N18560 G1 X5.6899 Y-2.049
N18570 G1 X5.7243 Y-2.0395
N18580 G1 X5.7585 Y-2.0293
N18590 G1 X5.7925 Y-2.0184
N18600 G1 X5.8263 Y-2.0068
N18610 G1 X5.8597 Y-1.9944
N18620 G1 X5.8929 Y-1.9812
N18630 G1 X5.9257 Y-1.9672
N18640 G1 X5.9582 Y-1.9523
N18650 G1 X5.9902 Y-1.9365
N18660 G1 X6.0217 Y-1.9198
N18670 G1 X6.0527 Y-1.9021
N18680 G1 X6.0832 Y-1.8834
N18690 G1 X6.1129 Y-1.8637
N18700 G1 X6.1418 Y-1.8428
N18710 G1 X6.1698 Y-1.8206
N18720 G1 X6.1967 Y-1.7971
N18730 G1 X6.2223 Y-1.7723
N18740 G1 X6.2464 Y-1.746
N18750 G1 X6.2688 Y-1.7181
N18760 G1 X6.2882 Y-1.6901
N18770 G1 X6.3033 Y-1.6639
N18780 G1 X6.3149 Y-1.6395
N18790 G1 X6.3227 Y-1.6189
N18800 G1 X6.3278 Y-1.6014
N18810 G1 X6.3313 Y-1.5845
N18820 G1 X6.3332 Y-1.5691
N18830 G1 X6.3335 Y-1.5606
N18840 G1 X6.3327 Y-1.5482
N18850 G1 X6.3293 Y-1.5363
N18860 G1 X6.3235 Y-1.5253
N18870 G1 X6.3154 Y-1.5159
N18880 G1 X6.3056 Y-1.5083
N18890 G1 X6.2943 Y-1.503
N18900 G1 X6.2609 Y-1.4914
N18910 G1 X6.2366 Y-1.482
N18920 G1 X6.2249 Y-1.4761
N18930 G3 X6.2154 Y-1.4739 R0.025
N18940 G1 X6.2115 Y-1.4737 Z-0.1997
N18950 G1 X6.2077 Y-1.4736 Z-0.1988
N18960 G1 X6.2041 Y-1.4734 Z-0.1973
N18970 G1 X6.2008 Y-1.4733 Z-0.1952
N18980 G1 X6.1978 Y-1.4732 Z-0.1927
N18990 G1 X6.1952 Y-1.4731 Z-0.1897
N19000 G1 X6.1932 Y-1.473 Z-0.1863
N19010 G1 X6.1917 Y-1.4729 Z-0.1827
N19020 G1 X6.1908 Z-0.1789
N19030 G1 X6.1905 Z-0.175
N19040 G0 Z0.2
N19050 G0 X3.9591 Y-1.3954
N19060 G0 Z-0.15
N19070 G1 Z-0.175 F20.
N19080 G1 X3.9588 Y-1.3952 Z-0.1789
N19090 G1 X3.9582 Y-1.3946 Z-0.1827
N19100 G1 X3.9571 Y-1.3936 Z-0.1863
N19110 G1 X3.9555 Y-1.3922 Z-0.1897
N19120 G1 X3.9537 Y-1.3905 Z-0.1927
N19130 G1 X3.9515 Y-1.3885 Z-0.1952
N19140 G1 X3.949 Y-1.3862 Z-0.1973
N19150 G1 X3.9464 Y-1.3837 Z-0.1988
N19160 G1 X3.9435 Y-1.3811 Z-0.1997
N19170 G1 X3.9407 Y-1.3785 Z-0.2
N19180 G3 X3.9309 Y-1.3779 R0.0078
N19190 G1 X3.8746 Y-1.4202
N19200 G1 X3.8679 Y-1.4257
N19210 G1 X3.8624 Y-1.4311
N19220 G1 X3.8571 Y-1.4371
N19230 G1 X3.8515 Y-1.4447
N19240 G1 X3.8464 Y-1.453
N19250 G1 X3.8411 Y-1.4632
N19260 G1 X3.8365 Y-1.4742
N19270 G1 X3.8322 Y-1.4874
N19280 G1 X3.8289 Y-1.5014
N19290 G1 X3.8263 Y-1.5181
N19300 G1 X3.825 Y-1.5354
N19310 G1 X3.8251 Y-1.556
N19320 G1 X3.827 Y-1.5773
N19330 G1 X3.8311 Y-1.6016
N19340 G1 X3.8378 Y-1.6283
N19350 G1 X3.8471 Y-1.6557
N19360 G1 X3.8603 Y-1.6861
N19370 G1 X3.877 Y-1.7176
N19380 G1 X3.8961 Y-1.7478
N19390 G1 X3.9172 Y-1.7766
N19400 G1 X3.9401 Y-1.804
N19410 G1 X3.9643 Y-1.8302
N19420 G1 X3.9899 Y-1.8551
N19430 G1 X4.0165 Y-1.8789
N19440 G1 X4.0441 Y-1.9015
N19450 G1 X4.0726 Y-1.923
N19460 G1 X4.1018 Y-1.9435
N19470 G1 X4.1317 Y-1.963
N19480 G1 X4.1622 Y-1.9815
N19490 G1 X4.1933 Y-1.9992
N19500 G1 X4.2248 Y-2.016
N19510 G1 X4.2567 Y-2.0319
N19520 G1 X4.289 Y-2.047
N19530 G1 X4.3217 Y-2.0614
N19540 G1 X4.3548 Y-2.0749
N19550 G1 X4.3881 Y-2.0878
N19560 G1 X4.4216 Y-2.0999
N19570 G1 X4.4554 Y-2.1113
N19580 G1 X4.4895 Y-2.1221
N19590 G1 X4.5237 Y-2.1322
N19600 G1 X4.5581 Y-2.1417
N19610 G1 X4.5927 Y-2.1505
N19620 G1 X4.6275 Y-2.1587
N19630 G1 X4.6623 Y-2.1663
N19640 G1 X4.6973 Y-2.1734
N19650 G1 X4.7324 Y-2.1799
N19660 G1 X4.7676 Y-2.1858
N19670 G1 X4.8029 Y-2.1911
N19680 G1 X4.8383 Y-2.1959
N19690 G1 X4.8737 Y-2.2002
N19700 G1 X4.9092 Y-2.2039
N19710 G1 X4.9448 Y-2.2071
N19720 G1 X4.9804 Y-2.2098
N19730 G1 X5.016 Y-2.212
N19740 G1 X5.0517 Y-2.2136
N19750 G1 X5.0874 Y-2.2147
N19760 G1 X5.123 Y-2.2153
N19770 G1 X5.1587
N19780 G1 X5.1944 Y-2.2148
N19790 G1 X5.2301 Y-2.2138
N19800 G1 X5.2658 Y-2.2122
N19810 G1 X5.3014 Y-2.2101
N19820 G1 X5.337 Y-2.2075
N19830 G1 X5.3726 Y-2.2043
N19840 G1 X5.4081 Y-2.2006
N19850 G1 X5.4435 Y-2.1963
N19860 G1 X5.4789 Y-2.1914
N19870 G1 X5.5141 Y-2.186
N19880 G1 X5.5493 Y-2.18
N19890 G1 X5.5844 Y-2.1733
N19900 G1 X5.6194 Y-2.1661
N19910 G1 X5.6542 Y-2.1583
N19920 G1 X5.6889 Y-2.1499
N19930 G1 X5.7234 Y-2.1408
N19940 G1 X5.7577 Y-2.1311
N19950 G1 X5.7919 Y-2.1207
N19960 G1 X5.8258 Y-2.1096
N19970 G1 X5.8595 Y-2.0979
N19980 G1 X5.893 Y-2.0854
N19990 G1 X5.9261 Y-2.0721
N20000 G1 X5.959 Y-2.0581
N20010 G1 X5.9914 Y-2.0433
N20020 G1 X6.0235 Y-2.0276
N20030 G1 X6.0551 Y-2.0111
N20040 G1 X6.0863 Y-1.9936
N20050 G1 X6.1169 Y-1.9753
N20060 G1 X6.1468 Y-1.9559
N20070 G1 X6.1761 Y-1.9355
N20080 G1 X6.2046 Y-1.914
N20090 G1 X6.2323 Y-1.8914
N20100 G1 X6.2589 Y-1.8676
N20110 G1 X6.2843 Y-1.8426
N20120 G1 X6.3084 Y-1.8163
N20130 G1 X6.331 Y-1.7886
N20140 G1 X6.3519 Y-1.7596
N20150 G1 X6.3706 Y-1.7293
N20160 G1 X6.3853 Y-1.7009
N20170 G1 X6.3966 Y-1.6737
N20180 G1 X6.4043 Y-1.6502
N20190 G1 X6.4091 Y-1.6304
N20200 G1 X6.412 Y-1.6119
N20210 G1 X6.4132 Y-1.5961
N20220 G1 X6.4131 Y-1.5802
N20230 G1 X6.4126 Y-1.5747
N20240 G1 X6.4102 Y-1.5625
N20250 G1 X6.4053 Y-1.551
N20260 G1 X6.398 Y-1.5409
N20270 G1 X6.3888 Y-1.5325
N20280 G1 X6.378 Y-1.5263
N20290 G1 X6.3661 Y-1.5225
N20300 G1 X6.3414 Y-1.5175
N20310 G1 X6.3177 Y-1.5111
N20320 G1 X6.2943 Y-1.503
N20330 G3 X6.2846 Y-1.502 R0.025
N20340 G1 X6.2808 Y-1.5024 Z-0.1997
N20350 G1 X6.277 Y-1.5028 Z-0.1988
N20360 G1 X6.2733 Y-1.5031 Z-0.1973
N20370 G1 X6.27 Y-1.5034 Z-0.1952
N20380 G1 X6.267 Y-1.5037 Z-0.1927
N20390 G1 X6.2645 Y-1.504 Z-0.1897
N20400 G1 X6.2625 Y-1.5041 Z-0.1863
N20410 G1 X6.261 Y-1.5043 Z-0.1827
N20420 G1 X6.2601 Y-1.5044 Z-0.1789
N20430 G1 X6.2598 Z-0.175
N20440 G0 Z0.2
N20450 G0 X3.9027 Y-1.4379
N20460 G0 Z-0.15
N20470 G1 Z-0.175 F20.
N20480 G1 X3.9025 Y-1.4377 Z-0.1789
N20490 G1 X3.9018 Y-1.4371 Z-0.1827
N20500 G1 X3.9007 Y-1.436 Z-0.1863
N20510 G1 X3.8992 Y-1.4346 Z-0.1897
N20520 G1 X3.8973 Y-1.4329 Z-0.1927
N20530 G1 X3.8952 Y-1.4309 Z-0.1952
N20540 G1 X3.8927 Y-1.4286 Z-0.1973
N20550 G1 X3.8901 Y-1.4261 Z-0.1988
N20560 G1 X3.8873 Y-1.4235 Z-0.1997
N20570 G1 X3.8844 Y-1.4208 Z-0.2
N20580 G3 X3.8746 Y-1.4202 R0.0078
N20590 G1 X3.8633 Y-1.4283
N20600 G1 X3.8207 Y-1.4526
N20610 G1 X3.8148 Y-1.4563
N20620 G1 X3.8092 Y-1.4605
N20630 G1 X3.8032 Y-1.4657
N20640 G1 X3.7973 Y-1.4718
N20650 G1 X3.7911 Y-1.4793
N20660 G1 X3.7852 Y-1.4877
N20670 G1 X3.7793 Y-1.4979
N20680 G1 X3.7739 Y-1.5091
N20690 G1 X3.7688 Y-1.5224
N20700 G1 X3.7645 Y-1.5368
N20710 G1 X3.7609 Y-1.5536
N20720 G1 X3.7586 Y-1.5721
N20730 G1 X3.7576 Y-1.5921
N20740 G1 X3.7584 Y-1.6155
N20750 G1 X3.7611 Y-1.6392
N20760 G1 X3.7665 Y-1.6665
N20770 G1 X3.7749 Y-1.6963
N20780 G1 X3.7864 Y-1.7274
N20790 G1 X3.8014 Y-1.7598
N20800 G1 X3.8189 Y-1.7909
N20810 G1 X3.8385 Y-1.8207
N20820 G1 X3.8598 Y-1.8494
N20830 G1 X3.8827 Y-1.8768
N20840 G1 X3.9069 Y-1.903
N20850 G1 X3.9323 Y-1.9281
N20860 G1 X3.9587 Y-1.9521
N20870 G1 X3.986 Y-1.9751
N20880 G1 X4.0142 Y-1.997
N20890 G1 X4.0431 Y-2.018
N20900 G1 X4.0726 Y-2.038
N20910 G1 X4.1028 Y-2.0571
N20920 G1 X4.1335 Y-2.0753
N20930 G1 X4.1647 Y-2.0926
N20940 G1 X4.1963 Y-2.1092
N20950 G1 X4.2284 Y-2.1249
N20960 G1 X4.2608 Y-2.1399
N20970 G1 X4.2935 Y-2.1541
N20980 G1 X4.3265 Y-2.1676
N20990 G1 X4.3599 Y-2.1805
N21000 G1 X4.3934 Y-2.1926
N21010 G1 X4.4272 Y-2.2041
N21020 G1 X4.4612 Y-2.2149
N21030 G1 X4.4954 Y-2.2251
N21040 G1 X4.5298 Y-2.2347
N21050 G1 X4.5644 Y-2.2437
N21060 G1 X4.5991 Y-2.2521
N21070 G1 X4.6339 Y-2.2599
N21080 G1 X4.6688 Y-2.2672
N21090 G1 X4.7039 Y-2.2739
N21100 G1 X4.7391 Y-2.2801
N21110 G1 X4.7743 Y-2.2857
N21120 G1 X4.8096 Y-2.2907
N21130 G1 X4.845 Y-2.2953
N21140 G1 X4.8805 Y-2.2993
N21150 G1 X4.916 Y-2.3028
N21160 G1 X4.9516 Y-2.3058
N21170 G1 X4.9872 Y-2.3083
N21180 G1 X5.0229 Y-2.3103
N21190 G1 X5.0585 Y-2.3117
N21200 G1 X5.0942 Y-2.3127
N21210 G1 X5.1299 Y-2.3131
N21220 G1 X5.1656
N21230 G1 X5.2013 Y-2.3125
N21240 G1 X5.237 Y-2.3114
N21250 G1 X5.2726 Y-2.3098
N21260 G1 X5.3083 Y-2.3077
N21270 G1 X5.3439 Y-2.3051
N21280 G1 X5.3794 Y-2.3019
N21290 G1 X5.4149 Y-2.2982
N21300 G1 X5.4504 Y-2.2939
N21310 G1 X5.4857 Y-2.2892
N21320 G1 X5.521 Y-2.2838
N21330 G1 X5.5562 Y-2.2779
N21340 G1 X5.5913 Y-2.2715
N21350 G1 X5.6263 Y-2.2644
N21360 G1 X5.6612 Y-2.2568
N21370 G1 X5.6959 Y-2.2486
N21380 G1 X5.7305 Y-2.2398
N21390 G1 X5.765 Y-2.2303
N21400 G1 X5.7992 Y-2.2203
N21410 G1 X5.8333 Y-2.2096
N21420 G1 X5.8671 Y-2.1982
N21430 G1 X5.9007 Y-2.1862
N21440 G1 X5.934 Y-2.1734
N21450 G1 X5.9671 Y-2.16
N21460 G1 X5.9999 Y-2.1458
N21470 G1 X6.0323 Y-2.1308
N21480 G1 X6.0643 Y-2.1151
N21490 G1 X6.0959 Y-2.0985
N21500 G1 X6.1271 Y-2.0811
N21510 G1 X6.1577 Y-2.0628
N21520 G1 X6.1878 Y-2.0436
N21530 G1 X6.2173 Y-2.0234
N21540 G1 X6.246 Y-2.0023
N21550 G1 X6.274 Y-1.9801
N21560 G1 X6.3012 Y-1.9569
N21570 G1 X6.3273 Y-1.9327
N21580 G1 X6.3525 Y-1.9073
N21590 G1 X6.3764 Y-1.8808
N21600 G1 X6.3988 Y-1.8531
N21610 G1 X6.4198 Y-1.8242
N21620 G1 X6.439 Y-1.7941
N21630 G1 X6.4562 Y-1.7628
N21640 G1 X6.4708 Y-1.731
N21650 G1 X6.4814 Y-1.7021
N21660 G1 X6.489 Y-1.6746
N21670 G1 X6.4934 Y-1.6517
N21680 G1 X6.4955 Y-1.6324
N21690 G1 X6.496 Y-1.6142
N21700 G1 X6.4952 Y-1.5988
N21710 G1 X6.4932 Y-1.5833
N21720 G1 X6.4926 Y-1.5803
N21730 G1 X6.4886 Y-1.5684
N21740 G1 X6.4822 Y-1.5576
N21750 G1 X6.4737 Y-1.5485
N21760 G1 X6.4634 Y-1.5413
N21770 G1 X6.4518 Y-1.5366
N21780 G1 X6.4394 Y-1.5344
N21790 G1 X6.4231 Y-1.5333
N21800 G1 X6.4069 Y-1.5307
N21810 G1 X6.3661 Y-1.5225
N21820 G3 X6.3563 Y-1.5228 R0.025
N21830 G1 X6.3525 Y-1.5237 Z-0.1997
N21840 G1 X6.3488 Y-1.5246 Z-0.1988
N21850 G1 X6.3453 Y-1.5254 Z-0.1973
N21860 G1 X6.342 Y-1.5261 Z-0.1952
N21870 G1 X6.3391 Y-1.5268 Z-0.1927
N21880 G1 X6.3366 Y-1.5274 Z-0.1897
N21890 G1 X6.3346 Y-1.5278 Z-0.1863
N21900 G1 X6.3332 Y-1.5282 Z-0.1827
N21910 G1 X6.3323 Y-1.5284 Z-0.1789
N21920 G1 X6.332 Y-1.5285 Z-0.175
N21930 G0 Z0.2
N21940 G0 X3.8462 Y-1.4739
N21950 G0 Z-0.15
N21960 G1 Z-0.175 F20.
N21970 G1 X3.846 Y-1.4737 Z-0.1789
N21980 G1 X3.8454 Y-1.473 Z-0.1827
N21990 G1 X3.8444 Y-1.4718 Z-0.1863
N22000 G1 X3.8431 Y-1.4702 Z-0.1897
N22010 G1 X3.8415 Y-1.4683 Z-0.1927
N22020 G1 X3.8396 Y-1.4659 Z-0.1952
N22030 G1 X3.8375 Y-1.4634 Z-0.1973
N22040 G1 X3.8352 Y-1.4606 Z-0.1988
N22050 G1 X3.8328 Y-1.4576 Z-0.1997
N22060 G1 X3.8303 Y-1.4546 Z-0.2
N22070 G3 X3.8207 Y-1.4526 R0.0078
N22080 G1 X3.7877 Y-1.471
N22090 G1 X3.7715 Y-1.4781
N22100 G1 X3.7634 Y-1.4813
N22110 G1 X3.7585 Y-1.4835
N22120 G1 X3.7525 Y-1.487
N22130 G1 X3.7465 Y-1.491
N22140 G1 X3.7399 Y-1.4964
N22150 G1 X3.7335 Y-1.5025
N22160 G1 X3.7267 Y-1.5101
N22170 G1 X3.7202 Y-1.5186
N22180 G1 X3.7134 Y-1.5292
N22190 G1 X3.7074 Y-1.5406
N22200 G1 X3.7014 Y-1.5543
N22210 G1 X3.6964 Y-1.5691
N22220 G1 X3.692 Y-1.5864
N22230 G1 X3.6888 Y-1.6054
N22240 G1 X3.6869 Y-1.6266
N22250 G1 X3.6868 Y-1.6509
N22260 G1 X3.6886 Y-1.6758
N22270 G1 X3.693 Y-1.7042
N22280 G1 X3.7004 Y-1.7353
N22290 G1 X3.7111 Y-1.7683
N22300 G1 X3.7248 Y-1.8013
N22310 G1 X3.741 Y-1.8331
N22320 G1 X3.7592 Y-1.8638
N22330 G1 X3.7792 Y-1.8934
N22340 G1 X3.8008 Y-1.9218
N22350 G1 X3.8237 Y-1.9492
N22360 G1 X3.8479 Y-1.9755
N22370 G1 X3.8732 Y-2.0007
N22380 G1 X3.8994 Y-2.0249
N22390 G1 X3.9265 Y-2.0481
N22400 G1 X3.9544 Y-2.0704
N22410 G1 X3.983 Y-2.0918
N22420 G1 X4.0122 Y-2.1122
N22430 G1 X4.0421 Y-2.1318
N22440 G1 X4.0725 Y-2.1505
N22450 G1 X4.1034 Y-2.1684
N22460 G1 X4.1347 Y-2.1855
N22470 G1 X4.1665 Y-2.2018
N22480 G1 X4.1986 Y-2.2174
N22490 G1 X4.231 Y-2.2323
N22500 G1 X4.2638 Y-2.2465
N22510 G1 X4.2968 Y-2.2599
N22520 G1 X4.3301 Y-2.2728
N22530 G1 X4.3637 Y-2.285
N22540 G1 X4.3975 Y-2.2965
N22550 G1 X4.4314 Y-2.3074
N22560 G1 X4.4495 Y-2.3129
N22570 G1 X4.455 Y-2.3143
N22580 G1 X4.4607 Y-2.3151
N22590 G1 X4.4664 Y-2.3154
N22600 G1 X4.5013
N22610 G1 X4.5256 Y-2.3164
N22620 G1 X4.5457 Y-2.3203
N22630 G1 X4.55 Y-2.3214
N22640 G1 X4.5581 Y-2.3242
N22650 G1 X4.5662 Y-2.3276
N22660 G1 X4.5995 Y-2.3403
N22670 G1 X4.6335 Y-2.3513
N22680 G1 X4.6679 Y-2.3606
N22690 G1 X4.7027 Y-2.3688
N22700 G1 X4.7377 Y-2.3759
N22710 G1 X4.7728 Y-2.3822
N22720 G1 X4.8081 Y-2.3877
N22730 G1 X4.8434 Y-2.3926
N22740 G1 X4.8789 Y-2.3968
N22750 G1 X4.9144 Y-2.4004
N22760 G1 X4.95 Y-2.4035
N22770 G1 X4.9856 Y-2.406
N22780 G1 X5.0212 Y-2.408
N22790 G1 X5.0569 Y-2.4095
N22800 G1 X5.0926 Y-2.4105
N22810 G1 X5.1283 Y-2.411
N22820 G1 X5.1639
N22830 G1 X5.1996 Y-2.4105
N22840 G1 X5.2353 Y-2.4094
N22850 G1 X5.271 Y-2.4079
N22860 G1 X5.3066 Y-2.4059
N22870 G1 X5.3302 Y-2.4043
N22880 G1 X5.3426 Y-2.402
N22890 G1 X5.3542 Y-2.3972
N22900 G1 X5.3645 Y-2.39
N22910 G1 X5.373 Y-2.3808
N22920 G1 X5.3852 Y-2.3647
N22930 G1 X5.3933 Y-2.3556
N22940 G1 X5.4056 Y-2.3447
N22950 G1 X5.4257 Y-2.3313
N22960 G1 X5.4338 Y-2.3274
N22970 G1 X5.4419 Y-2.3239
N22980 G1 X5.4532 Y-2.3203
N22990 G1 X5.4744 Y-2.3162
N23000 G1 X5.4987 Y-2.3152
N23010 G1 X5.7176
N23020 G1 X5.7533 Y-2.3134
N23030 G1 X5.7888 Y-2.31
N23040 G1 X5.824 Y-2.304
N23050 G1 X5.8588 Y-2.2962
N23060 G1 X5.8933 Y-2.2868
N23070 G1 X5.9274 Y-2.2762
N23080 G1 X5.9611 Y-2.2645
N23090 G1 X5.9945 Y-2.2519
N23100 G1 X6.0275 Y-2.2383
N23110 G1 X6.0601 Y-2.2238
N23120 G1 X6.0924 Y-2.2085
N23130 G1 X6.1242 Y-2.1924
N23140 G1 X6.1556 Y-2.1754
N23150 G1 X6.1865 Y-2.1576
N23160 G1 X6.217 Y-2.1389
N23170 G1 X6.2468 Y-2.1194
N23180 G1 X6.2761 Y-2.0989
N23190 G1 X6.3047 Y-2.0776
N23200 G1 X6.3326 Y-2.0553
N23210 G1 X6.3597 Y-2.0321
N23220 G1 X6.3859 Y-2.0079
N23230 G1 X6.4112 Y-1.9826
N23240 G1 X6.4353 Y-1.9563
N23250 G1 X6.4583 Y-1.929
N23260 G1 X6.48 Y-1.9007
N23270 G1 X6.5003 Y-1.8713
N23280 G1 X6.519 Y-1.8409
N23290 G1 X6.5359 Y-1.8095
N23300 G1 X6.5507 Y-1.777
N23310 G1 X6.563 Y-1.7438
N23320 G1 X6.5719 Y-1.7126
N23330 G1 X6.5777 Y-1.6832
N23340 G1 X6.5806 Y-1.6588
N23350 G1 X6.5814 Y-1.637
N23360 G1 X6.5806 Y-1.6192
N23370 G1 X6.5785 Y-1.6023
N23380 G1 X6.5754 Y-1.5876
N23390 G1 X6.5735 Y-1.5811
N23400 G1 X6.5689 Y-1.5699
N23410 G1 X6.5621 Y-1.5599
N23420 G1 X6.5534 Y-1.5515
N23430 G1 X6.5431 Y-1.5451
N23440 G1 X6.5318 Y-1.5409
N23450 G1 X6.5198 Y-1.5392
N23460 G1 X6.488 Y-1.5376
N23470 G1 X6.4394 Y-1.5344
N23480 G3 X6.4208 Y-1.5418 R0.025
N23490 G1 X5.7007 Y-2.2727
N23500 G3 X5.7176 Y-2.3152 R0.025
N23510 G1 X5.9852
N23520 G1 X6.0194 Y-2.3135
N23530 G1 X6.046 Y-2.31
N23540 G1 X6.0787 Y-2.303
N23550 G1 X6.1128 Y-2.2928
N23560 G1 X6.1463 Y-2.2802
N23570 G1 X6.179 Y-2.2659
N23580 G1 X6.211 Y-2.2501
N23590 G1 X6.2423 Y-2.233
N23600 G1 X6.273 Y-2.2148
N23610 G1 X6.3031 Y-2.1955
N23620 G1 X6.3325 Y-2.1753
N23630 G1 X6.3612 Y-2.1541
N23640 G1 X6.3892 Y-2.132
N23650 G1 X6.4164 Y-2.1089
N23660 G1 X6.4428 Y-2.0848
N23670 G1 X6.4683 Y-2.0598
N23680 G1 X6.4928 Y-2.0339
N23690 G1 X6.5163 Y-2.007
N23700 G1 X6.5387 Y-1.9792
N23710 G1 X6.5599 Y-1.9505
N23720 G1 X6.5798 Y-1.9209
N23730 G1 X6.5982 Y-1.8903
N23740 G1 X6.615 Y-1.8588
N23750 G1 X6.6299 Y-1.8264
N23760 G1 X6.6428 Y-1.7931
N23770 G1 X6.6536 Y-1.759
N23780 G1 X6.6617 Y-1.7246
N23790 G1 X6.6664 Y-1.694
N23800 G1 X6.6685 Y-1.6654
N23810 G1 X6.6683 Y-1.6416
N23820 G1 X6.6666 Y-1.6221
N23830 G1 X6.6635 Y-1.6039
N23840 G1 X6.6596 Y-1.5888
N23850 G1 X6.6562 Y-1.5789
N23860 G1 X6.6512 Y-1.568
N23870 G1 X6.644 Y-1.5583
N23880 G1 X6.635 Y-1.5503
N23890 G1 X6.6245 Y-1.5444
N23900 G1 X6.613 Y-1.5407
N23910 G1 X6.601 Y-1.5394
N23920 G1 X6.5204 Y-1.5392
N23930 G1 X6.5198
N23940 G3 X6.4996 Y-1.5494 R0.025
N23950 G1 X5.966 Y-2.2754
N23960 G3 X5.9852 Y-2.3152 R0.025
N23970 G1 X6.188
N23980 G1 X6.2111 Y-2.314
N23990 G1 X6.2307 Y-2.3115
N24000 G1 X6.2542 Y-2.3064
N24010 G1 X6.282 Y-2.2981
N24020 G1 X6.3147 Y-2.2854
N24030 G1 X6.3468 Y-2.2698
N24040 G1 X6.3778 Y-2.2521
N24050 G1 X6.4078 Y-2.2328
N24060 G1 X6.4368 Y-2.212
N24070 G1 X6.4649 Y-2.19
N24080 G1 X6.4921 Y-2.1668
N24090 G1 X6.5184 Y-2.1426
N24100 G1 X6.5437 Y-2.1175
N24110 G1 X6.568 Y-2.0914
N24120 G1 X6.5914 Y-2.0644
N24130 G1 X6.6137 Y-2.0365
N24140 G1 X6.6349 Y-2.0078
N24150 G1 X6.6548 Y-1.9781
N24160 G1 X6.6733 Y-1.9477
N24170 G1 X6.6905 Y-1.9163
N24180 G1 X6.706 Y-1.8842
N24190 G1 X6.7199 Y-1.8513
N24200 G1 X6.7321 Y-1.8178
N24210 G1 X6.7422 Y-1.7835
N24220 G1 X6.75 Y-1.7487
N24230 G1 X6.7552 Y-1.714
N24240 G1 X6.7574 Y-1.6815
N24250 G1 X6.7571 Y-1.6529
N24260 G1 X6.7548 Y-1.6287
N24270 G1 X6.7515 Y-1.6096
N24280 G1 X6.747 Y-1.592
N24290 G1 X6.7406 Y-1.5743
N24300 G1 X6.7351 Y-1.5645
N24310 G1 X6.7279 Y-1.556
N24320 G1 X6.7191 Y-1.5489
N24330 G1 X6.7091 Y-1.5437
N24340 G1 X6.6984 Y-1.5405
N24350 G1 X6.6872 Y-1.5394
N24360 G1 X6.601
N24370 G3 X6.5802 Y-1.5521 R0.025
N24380 G1 X6.1671 Y-2.2778
N24390 G3 X6.188 Y-2.3152 R0.025
N24400 G1 X6.3501
N24410 G1 X6.3719 Y-2.3141
N24420 G1 X6.3885 Y-2.3119
N24430 G1 X6.4067 Y-2.308
N24440 G1 X6.4283 Y-2.3015
N24450 G1 X6.4534 Y-2.2918
N24460 G1 X6.4816 Y-2.2781
N24470 G1 X6.5124 Y-2.26
N24480 G1 X6.5417 Y-2.2396
N24490 G1 X6.5697 Y-2.2175
N24500 G1 X6.5965 Y-2.1939
N24510 G1 X6.6221 Y-2.169
N24520 G1 X6.6466 Y-2.143
N24530 G1 X6.67 Y-2.1161
N24540 G1 X6.6922 Y-2.0882
N24550 G1 X6.7134 Y-2.0594
N24560 G1 X6.7333 Y-2.0298
N24570 G1 X6.752 Y-1.9994
N24580 G1 X6.7693 Y-1.9681
N24590 G1 X6.7852 Y-1.9362
N24600 G1 X6.7996 Y-1.9035
N24610 G1 X6.8125 Y-1.8702
N24620 G1 X6.8236 Y-1.8363
N24630 G1 X6.8329 Y-1.8019
N24640 G1 X6.8402 Y-1.7669
N24650 G1 X6.8452 Y-1.7316
N24660 G1 X6.8476 Y-1.6962
N24670 G1 X6.8473 Y-1.6636
N24680 G1 X6.8448 Y-1.636
N24690 G1 X6.8409 Y-1.6136
N24700 G1 X6.8361 Y-1.5952
N24710 G1 X6.8307 Y-1.5794
N24720 G1 X6.8285 Y-1.5744
N24730 G1 X6.823 Y-1.5646
N24740 G1 X6.8157 Y-1.556
N24750 G1 X6.807 Y-1.549
N24760 G1 X6.797 Y-1.5437
N24770 G1 X6.7862 Y-1.5405
N24780 G1 X6.775 Y-1.5394
N24790 G1 X6.6872
N24800 G3 X6.6654 Y-1.5539 R0.025
N24810 G1 X6.3283 Y-2.2797
N24820 G3 X6.3501 Y-2.3152 R0.025
N24830 G1 X6.4961
N24840 G1 X6.5128 Y-2.3144
N24850 G1 X6.5273 Y-2.3125
N24860 G1 X6.543 Y-2.3091
N24870 G1 X6.5615 Y-2.3035
N24880 G1 X6.5819 Y-2.2956
N24890 G1 X6.6052 Y-2.2843
N24900 G1 X6.6319 Y-2.2686
N24910 G1 X6.6611 Y-2.2481
N24920 G1 X6.6886 Y-2.2254
N24930 G1 X6.7146 Y-2.2009
N24940 G1 X6.7392 Y-2.175
N24950 G1 X6.7624 Y-2.1479
N24960 G1 X6.7843 Y-2.1197
N24970 G1 X6.805 Y-2.0906
N24980 G1 X6.8243 Y-2.0606
N24990 G1 X6.8424 Y-2.0298
N25000 G1 X6.8592 Y-1.9983
N25010 G1 X6.8746 Y-1.9661
N25020 G1 X6.8887 Y-1.9333
N25030 G1 X6.9013 Y-1.8999
N25040 G1 X6.9123 Y-1.866
N25050 G1 X6.9215 Y-1.8315
N25060 G1 X6.929 Y-1.7966
N25070 G1 X6.9344 Y-1.7613
N25080 G1 X6.9378 Y-1.7258
N25090 G1 X6.9387 Y-1.6901
N25100 G1 X6.9371 Y-1.6564
N25110 G1 X6.9337 Y-1.6297
N25120 G1 X6.9291 Y-1.608
N25130 G1 X6.9235 Y-1.5894
N25140 G1 X6.9168 Y-1.5724
N25150 G1 X6.9099 Y-1.5614
N25160 G1 X6.9006 Y-1.5522
N25170 G1 X6.8896 Y-1.5452
N25180 G1 X6.8773 Y-1.5409
N25190 G1 X6.8643 Y-1.5394
N25200 G1 X6.775
N25210 G3 X6.7526 Y-1.5555 R0.025
N25220 G1 X6.4736 Y-2.2812
N25230 G3 X6.4961 Y-2.3152 R0.025
N25240 G1 X6.6258
N25250 G1 X6.6417 Y-2.3144
N25260 G1 X6.6544 Y-2.3127
N25270 G1 X6.6688 Y-2.3096
N25280 G1 X6.6852 Y-2.3047
N25290 G1 X6.7033 Y-2.2977
N25300 G1 X6.7236 Y-2.2878
N25310 G1 X6.7468 Y-2.2742
N25320 G1 X6.7719 Y-2.2565
N25330 G1 X6.7994 Y-2.2337
N25340 G1 X6.825 Y-2.2088
N25350 G1 X6.8488 Y-2.1823
N25360 G1 X6.8711 Y-2.1544
N25370 G1 X6.892 Y-2.1254
N25380 G1 X6.9114 Y-2.0955
N25390 G1 X6.9295 Y-2.0647
N25400 G1 X6.9462 Y-2.0332
N25410 G1 X6.9617 Y-2.001
N25420 G1 X6.9758 Y-1.9682
N25430 G1 X6.9884 Y-1.9348
N25440 G1 X6.9996 Y-1.9009
N25450 G1 X7.0092 Y-1.8665
N25460 G1 X7.0171 Y-1.8317
N25470 G1 X7.0233 Y-1.7966
N25480 G1 X7.0278 Y-1.7612
N25490 G1 X7.0302 Y-1.7255
N25500 G1 X7.0304 Y-1.6898
N25510 G1 X7.028 Y-1.6548
N25520 G1 X7.0239 Y-1.6273
N25530 G1 X7.0186 Y-1.6047
N25540 G1 X7.013 Y-1.5871
N25550 G1 X7.0083 Y-1.5756
N25560 G1 X7.0029 Y-1.5655
N25570 G1 X6.9956 Y-1.5566
N25580 G1 X6.9868 Y-1.5493
N25590 G1 X6.9767 Y-1.5439
N25600 G1 X6.9657 Y-1.5406
N25610 G1 X6.9543 Y-1.5394
N25620 G1 X6.8643
N25630 G3 X6.8414 Y-1.5566 R0.025
N25640 G1 X6.603 Y-2.2824
N25650 G3 X6.6163 Y-2.313 R0.025
N25660 G3 X6.6258 Y-2.3152 R0.025
N25670 G1 X6.7475
N25680 G1 X6.7619 Y-2.3145
N25690 G1 X6.7734 Y-2.313
N25700 G1 X6.7873 Y-2.31
N25710 G1 X6.8019 Y-2.3056
N25720 G1 X6.8187 Y-2.2991
N25730 G1 X6.8367 Y-2.2903
N25740 G1 X6.8575 Y-2.2781
N25750 G1 X6.8794 Y-2.2627
N25760 G1 X6.9038 Y-2.2424
N25770 G1 X6.9293 Y-2.2175
N25780 G1 X6.9529 Y-2.1907
N25790 G1 X6.9747 Y-2.1624
N25800 G1 X6.9949 Y-2.133
N25810 G1 X7.0136 Y-2.1026
N25820 G1 X7.0308 Y-2.0713
N25830 G1 X7.0466 Y-2.0393
N25840 G1 X7.0611 Y-2.0067
N25850 G1 X7.0741 Y-1.9735
N25860 G1 X7.0857 Y-1.9397
N25870 G1 X7.0959 Y-1.9055
N25880 G1 X7.1045 Y-1.8708
N25890 G1 X7.1116 Y-1.8359
N25900 G1 X7.1171 Y-1.8006
N25910 G1 X7.121 Y-1.7651
N25920 G1 X7.1229 Y-1.7295
N25930 G1 X7.1227 Y-1.6938
N25940 G1 X7.1201 Y-1.6582
N25950 G1 X7.1154 Y-1.6283
N25960 G1 X7.1102 Y-1.6062
N25970 G1 X7.1039 Y-1.5869
N25980 G1 X7.0991 Y-1.5753
N25990 G1 X7.0937 Y-1.5653
N26000 G1 X7.0864 Y-1.5565
N26010 G1 X7.0776 Y-1.5492
N26020 G1 X7.0675 Y-1.5439
N26030 G1 X7.0566 Y-1.5406
N26040 G1 X7.0452 Y-1.5394
N26050 G1 X6.9543
N26060 G3 X6.9311 Y-1.5576 R0.025
N26070 G1 X6.7243 Y-2.2834
N26080 G3 X6.738 Y-2.313 R0.025
N26090 G3 X6.7475 Y-2.3152 R0.025
N26100 G1 X6.861
N26110 G1 X6.8752 Y-2.3145
N26120 G1 X6.8867 Y-2.313
N26130 G1 X6.8996 Y-2.3102
N26140 G1 X6.9133 Y-2.3061
N26150 G1 X6.9293 Y-2.2999
N26160 G1 X6.9458 Y-2.2919
N26170 G1 X6.9649 Y-2.2807
N26180 G1 X6.9853 Y-2.2663
N26190 G1 X7.0074 Y-2.248
N26200 G1 X7.0317 Y-2.2243
N26210 G1 X7.0551 Y-2.1974
N26220 G1 X7.0766 Y-2.1689
N26230 G1 X7.0963 Y-2.1391
N26240 G1 X7.1144 Y-2.1083
N26250 G1 X7.1309 Y-2.0767
N26260 G1 X7.146 Y-2.0444
N26270 G1 X7.1596 Y-2.0114
N26280 G1 X7.1718 Y-1.9778
N26290 G1 X7.1825 Y-1.9438
N26300 G1 X7.1919 Y-1.9093
N26310 G1 X7.1998 Y-1.8745
N26320 G1 X7.2063 Y-1.8394
N26330 G1 X7.2112 Y-1.804
N26340 G1 X7.2145 Y-1.7685
N26350 G1 X7.216 Y-1.7328
N26360 G1 X7.2154 Y-1.6971
N26370 G1 X7.2126 Y-1.6616
N26380 G1 X7.2078 Y-1.6305
N26390 G1 X7.2022 Y-1.6073
N26400 G1 X7.1958 Y-1.5876
N26410 G1 X7.1888 Y-1.571
N26420 G1 X7.1817 Y-1.5604
N26430 G1 X7.1726 Y-1.5516
N26440 G1 X7.1617 Y-1.5449
N26450 G1 X7.1496 Y-1.5408
N26460 G1 X7.137 Y-1.5394
N26470 G1 X7.0452
N26480 G3 X7.0357 Y-1.5417 R0.025
N26490 G3 X7.0219 Y-1.5583 R0.025
N26500 G1 X6.8376 Y-2.2841
N26510 G3 X6.861 Y-2.3152 R0.025
N26520 G1 X6.9745
N26530 G1 X6.9842 Y-2.3147
N26540 G1 X6.9957 Y-2.3132
N26550 G1 X7.0074 Y-2.3107
N26560 G1 X7.0209 Y-2.3067
N26570 G1 X7.0359 Y-2.3008
N26580 G1 X7.0519 Y-2.2931
N26590 G1 X7.0697 Y-2.2826
N26600 G1 X7.0891 Y-2.269
N26610 G1 X7.1096 Y-2.2519
N26620 G1 X7.1322 Y-2.2299
N26630 G1 X7.1557 Y-2.203
N26640 G1 X7.177 Y-2.1744
N26650 G1 X7.1963 Y-2.1444
N26660 G1 X7.2139 Y-2.1134
N26670 G1 X7.2299 Y-2.0814
N26680 G1 X7.2444 Y-2.0488
N26690 G1 X7.2573 Y-2.0155
N26700 G1 X7.2688 Y-1.9817
N26710 G1 X7.2789 Y-1.9475
N26720 G1 X7.2876 Y-1.9129
N26730 G1 X7.295 Y-1.878
N26740 G1 X7.3009 Y-1.8428
N26750 G1 X7.3053 Y-1.8073
N26760 G1 X7.3081 Y-1.7718
N26770 G1 X7.3093 Y-1.7361
N26780 G1 X7.3085 Y-1.7004
N26790 G1 X7.3055 Y-1.6648
N26800 G1 X7.3004 Y-1.6319
N26810 G1 X7.2946 Y-1.6077
N26820 G1 X7.2885 Y-1.589
N26830 G1 X7.2809 Y-1.571
N26840 G1 X7.2739 Y-1.5604
N26850 G1 X7.2647 Y-1.5516
N26860 G1 X7.2538 Y-1.5449
N26870 G1 X7.2417 Y-1.5408
N26880 G1 X7.2291 Y-1.5394
N26890 G1 X7.137
N26900 G3 X7.1134 Y-1.559 R0.025
N26910 G1 X6.951 Y-2.2848
N26920 G3 X6.965 Y-2.313 R0.025
N26930 G3 X6.9745 Y-2.3152 R0.025
N26940 G1 X7.0799
N26950 G1 X7.0905 Y-2.3147
N26960 G1 X7.1014 Y-2.3133
N26970 G1 X7.1128 Y-2.3108
N26980 G1 X7.1263 Y-2.3068
N26990 G1 X7.1402 Y-2.3013
N27000 G1 X7.1559 Y-2.2937
N27010 G1 X7.1727 Y-2.2838
N27020 G1 X7.1914 Y-2.2707
N27030 G1 X7.2107 Y-2.2547
N27040 G1 X7.2319 Y-2.234
N27050 G1 X7.2546 Y-2.208
N27060 G1 X7.2759 Y-2.1793
N27070 G1 X7.295 Y-2.1492
N27080 G1 X7.3123 Y-2.1179
N27090 G1 X7.3279 Y-2.0858
N27100 G1 X7.3419 Y-2.053
N27110 G1 X7.3543 Y-2.0195
N27120 G1 X7.3653 Y-1.9856
N27130 G1 X7.3749 Y-1.9512
N27140 G1 X7.3831 Y-1.9164
N27150 G1 X7.39 Y-1.8814
N27160 G1 X7.3955 Y-1.8461
N27170 G1 X7.3995 Y-1.8107
N27180 G1 X7.402 Y-1.7751
N27190 G1 X7.4029 Y-1.7394
N27200 G1 X7.4019 Y-1.7037
N27210 G1 X7.3989 Y-1.6681
N27220 G1 X7.3936 Y-1.6341
N27230 G1 X7.3877 Y-1.6092
N27240 G1 X7.3814 Y-1.59
N27250 G1 X7.3734 Y-1.5711
N27260 G1 X7.3664 Y-1.5605
N27270 G1 X7.3572 Y-1.5516
N27280 G1 X7.3463 Y-1.545
N27290 G1 X7.3342 Y-1.5408
N27300 G1 X7.3215 Y-1.5394
N27310 G1 X7.2291
N27320 G3 X7.2054 Y-1.5594 R0.025
N27330 G1 X7.0563 Y-2.2852
N27340 G3 X7.0705 Y-2.313 R0.025
N27350 G3 X7.0799 Y-2.3152 R0.025
N27360 G1 X7.1854
N27370 G1 X7.1944 Y-2.3148
N27380 G1 X7.2045 Y-2.3134
N27390 G1 X7.2159 Y-2.311
N27400 G1 X7.2292 Y-2.307
N27410 G1 X7.2425 Y-2.3019
N27420 G1 X7.2581 Y-2.2943
N27430 G1 X7.274 Y-2.2849
N27440 G1 X7.2922 Y-2.2721
N27450 G1 X7.3106 Y-2.2569
N27460 G1 X7.3309 Y-2.2371
N27470 G1 X7.3525 Y-2.2123
N27480 G1 X7.3738 Y-2.1836
N27490 G1 X7.3928 Y-2.1534
N27500 G1 X7.4099 Y-2.122
N27510 G1 X7.4251 Y-2.0898
N27520 G1 X7.4387 Y-2.0568
N27530 G1 X7.4508 Y-2.0232
N27540 G1 X7.4614 Y-1.9891
N27550 G1 X7.4706 Y-1.9546
N27560 G1 X7.4784 Y-1.9198
N27570 G1 X7.4849 Y-1.8847
N27580 G1 X7.4901 Y-1.8493
N27590 G1 X7.4938 Y-1.8138
N27600 G1 X7.496 Y-1.7782
N27610 G1 X7.4967 Y-1.7425
N27620 G1 X7.4956 Y-1.7068
N27630 G1 X7.4925 Y-1.6713
N27640 G1 X7.4871 Y-1.6362
N27650 G1 X7.481 Y-1.6106
N27660 G1 X7.4746 Y-1.5909
N27670 G1 X7.4662 Y-1.5712
N27680 G1 X7.4592 Y-1.5605
N27690 G1 X7.45 Y-1.5516
N27700 G1 X7.4391 Y-1.545
N27710 G1 X7.427 Y-1.5408
N27720 G1 X7.4143 Y-1.5394
N27730 G1 X7.3215
N27740 G3 X7.312 Y-1.5417 R0.025
N27750 G3 X7.2978 Y-1.5598 R0.025
N27760 G1 X7.1617 Y-2.2856
N27770 G3 X7.1854 Y-2.3152 R0.025
N27780 G1 X7.2827
N27790 G1 X7.2966 Y-2.3145
N27800 G1 X7.3063 Y-2.3133
N27810 G1 X7.3177 Y-2.3108
N27820 G1 X7.3303 Y-2.307
N27830 G1 X7.3435 Y-2.3019
N27840 G1 X7.3589 Y-2.2945
N27850 G1 X7.3742 Y-2.2855
N27860 G1 X7.3918 Y-2.2731
N27870 G1 X7.4097 Y-2.2582
N27880 G1 X7.4292 Y-2.2392
N27890 G1 X7.4501 Y-2.2153
N27900 G1 X7.4713 Y-2.1866
N27910 G1 X7.4902 Y-2.1563
N27920 G1 X7.5071 Y-2.1249
N27930 G1 X7.5221 Y-2.0925
N27940 G1 X7.5355 Y-2.0594
N27950 G1 X7.5472 Y-2.0257
N27960 G1 X7.5574 Y-1.9915
N27970 G1 X7.5663 Y-1.9569
N27980 G1 X7.5738 Y-1.922
N27990 G1 X7.58 Y-1.8869
N28000 G1 X7.5848 Y-1.8515
N28010 G1 X7.5882 Y-1.816
N28020 G1 X7.5902 Y-1.7803
N28030 G1 X7.5906 Y-1.7446
N28040 G1 X7.5894 Y-1.7089
N28050 G1 X7.5862 Y-1.6734
N28060 G1 X7.5807 Y-1.6381
N28070 G1 X7.5746 Y-1.6119
N28080 G1 X7.568 Y-1.5917
N28090 G1 X7.5594 Y-1.5712
N28100 G1 X7.5523 Y-1.5606
N28110 G1 X7.5431 Y-1.5517
N28120 G1 X7.5322 Y-1.545
N28130 G1 X7.5201 Y-1.5409
N28140 G1 X7.5074 Y-1.5394
N28150 G1 X7.4143
N28160 G3 X7.4048 Y-1.5417 R0.025
N28170 G3 X7.3906 Y-1.56 R0.025
N28180 G1 X7.2589 Y-2.2858
N28190 G3 X7.2827 Y-2.3152 R0.025
N28200 G1 X7.3881 Y-2.3153
N28210 G1 X7.3966 Y-2.3148
N28220 G1 X7.4062 Y-2.3136
N28230 G1 X7.4176 Y-2.3111
N28240 G1 X7.4298 Y-2.3075
N28250 G1 X7.4429 Y-2.3024
N28260 G1 X7.458 Y-2.2951
N28270 G1 X7.4731 Y-2.2862
N28280 G1 X7.4903 Y-2.2741
N28290 G1 X7.5079 Y-2.2595
N28300 G1 X7.5268 Y-2.241
N28310 G1 X7.5471 Y-2.2178
N28320 G1 X7.5682 Y-2.1893
N28330 G1 X7.5871 Y-2.159
N28340 G1 X7.6038 Y-2.1275
N28350 G1 X7.6187 Y-2.095
N28360 G1 X7.6318 Y-2.0618
N28370 G1 X7.6432 Y-2.028
N28380 G1 X7.6532 Y-1.9937
N28390 G1 X7.6618 Y-1.9591
N28400 G1 X7.669 Y-1.9241
N28410 G1 X7.6749 Y-1.8889
N28420 G1 X7.6795 Y-1.8535
N28430 G1 X7.6827 Y-1.8179
N28440 G1 X7.6845 Y-1.7823
N28450 G1 X7.6847 Y-1.7466
N28460 G1 X7.6833 Y-1.7109
N28470 G1 X7.6801 Y-1.6754
N28480 G1 X7.6746 Y-1.6401
N28490 G1 X7.6683 Y-1.6132
N28500 G1 X7.6617 Y-1.5925
N28510 G1 X7.6542 Y-1.5743
N28520 G1 X7.6527 Y-1.5713
N28530 G1 X7.6457 Y-1.5606
N28540 G1 X7.6365 Y-1.5517
N28550 G1 X7.6256 Y-1.545
N28560 G1 X7.6134 Y-1.5409
N28570 G1 X7.6007 Y-1.5394
N28580 G1 X7.5074
N28590 G3 X7.4836 Y-1.5604 R0.025
N28600 G1 X7.3643 Y-2.2862
N28610 G3 X7.3786 Y-2.313 R0.025
N28620 G3 X7.3881 Y-2.3153 R0.025
N28630 G1 X7.4854
N28640 G1 X7.496 Y-2.3148
N28650 G1 X7.5055 Y-2.3135
N28660 G1 X7.5169 Y-2.3111
N28670 G1 X7.5286 Y-2.3076
N28680 G1 X7.5418 Y-2.3024
N28690 G1 X7.5565 Y-2.2953
N28700 G1 X7.5714 Y-2.2865
N28710 G1 X7.5883 Y-2.2747
N28720 G1 X7.6056 Y-2.2603
N28730 G1 X7.6241 Y-2.2423
N28740 G1 X7.6439 Y-2.2196
N28750 G1 X7.6645 Y-2.1918
N28760 G1 X7.6833 Y-2.1615
N28770 G1 X7.7 Y-2.1299
N28780 G1 X7.7147 Y-2.0974
N28790 G1 X7.7276 Y-2.0641
N28800 G1 X7.7389 Y-2.0303
N28810 G1 X7.7487 Y-1.9959
N28820 G1 X7.7571 Y-1.9612
N28830 G1 X7.7641 Y-1.9262
N28840 G1 X7.7698 Y-1.891
N28850 G1 X7.7741 Y-1.8556
N28860 G1 X7.7772 Y-1.82
N28870 G1 X7.7788 Y-1.7843
N28880 G1 X7.779 Y-1.7486
N28890 G1 X7.7775 Y-1.713
N28900 G1 X7.7742 Y-1.6774
N28910 G1 X7.7687 Y-1.6422
N28920 G1 X7.7623 Y-1.6146
N28930 G1 X7.7556 Y-1.5933
N28940 G1 X7.7481 Y-1.575
N28950 G1 X7.7462 Y-1.5714
N28960 G1 X7.7392 Y-1.5607
N28970 G1 X7.73 Y-1.5517
N28980 G1 X7.7191 Y-1.545
N28990 G1 X7.707 Y-1.5409
N29000 G1 X7.6942 Y-1.5394
N29010 G1 X7.6007
N29020 G3 X7.5912 Y-1.5417 R0.025
N29030 G3 X7.5769 Y-1.5605 R0.025
N29040 G1 X7.4616 Y-2.2864
N29050 G3 X7.4854 Y-2.3153 R0.025
N29060 G1 X7.5827
N29070 G1 X7.5943 Y-2.3147
N29080 G1 X7.6039 Y-2.3135
N29090 G1 X7.6152 Y-2.3111
N29100 G1 X7.6267 Y-2.3076
N29110 G1 X7.6398 Y-2.3025
N29120 G1 X7.6541 Y-2.2956
N29130 G1 X7.6691 Y-2.2868
N29140 G1 X7.6856 Y-2.2752
N29150 G1 X7.7028 Y-2.2609
N29160 G1 X7.7209 Y-2.2433
N29170 G1 X7.7403 Y-2.221
N29180 G1 X7.7605 Y-2.1937
N29190 G1 X7.7794 Y-2.1634
N29200 G1 X7.796 Y-2.1319
N29210 G1 X7.8106 Y-2.0993
N29220 G1 X7.8234 Y-2.066
N29230 G1 X7.8345 Y-2.032
N29240 G1 X7.8441 Y-1.9977
N29250 G1 X7.8523 Y-1.9629
N29260 G1 X7.8591 Y-1.9279
N29270 G1 X7.8646 Y-1.8926
N29280 G1 X7.8688 Y-1.8572
N29290 G1 X7.8717 Y-1.8216
N29300 G1 X7.8732 Y-1.7859
N29310 G1 Y-1.7502
N29320 G1 X7.8717 Y-1.7146
N29330 G1 X7.8683 Y-1.679
N29340 G1 X7.8628 Y-1.6438
N29350 G1 X7.8564 Y-1.6156
N29360 G1 X7.8495 Y-1.594
N29370 G1 X7.842 Y-1.5755
N29380 G1 X7.8399 Y-1.5715
N29390 G1 X7.8329 Y-1.5607
N29400 G1 X7.8237 Y-1.5518
N29410 G1 X7.8128 Y-1.545
N29420 G1 X7.8006 Y-1.5409
N29430 G1 X7.7879 Y-1.5394
N29440 G1 X7.6942
N29450 G3 X7.6704 Y-1.5606 R0.025
N29460 G1 X7.5589 Y-2.2865
N29470 G3 X7.5827 Y-2.3153 R0.025
N29480 G1 X7.68
N29490 G1 X7.692 Y-2.3147
N29500 G1 X7.7015 Y-2.3135
N29510 G1 X7.7127 Y-2.3111
N29520 G1 X7.7241 Y-2.3077
N29530 G1 X7.7372 Y-2.3026
N29540 G1 X7.7512 Y-2.2958
N29550 G1 X7.7661 Y-2.287
N29560 G1 X7.7824 Y-2.2756
N29570 G1 X7.7995 Y-2.2614
N29580 G1 X7.8173 Y-2.2441
N29590 G1 X7.8364 Y-2.2221
N29600 G1 X7.8563 Y-2.1953
N29610 G1 X7.8752 Y-2.165
N29620 G1 X7.8917 Y-2.1334
N29630 G1 X7.9063 Y-2.1008
N29640 G1 X7.9189 Y-2.0674
N29650 G1 X7.93 Y-2.0334
N29660 G1 X7.9394 Y-1.999
N29670 G1 X7.9475 Y-1.9642
N29680 G1 X7.9541 Y-1.9292
N29690 G1 X7.9595 Y-1.8939
N29700 G1 X7.9635 Y-1.8584
N29710 G1 X7.9663 Y-1.8228
N29720 G1 X7.9676 Y-1.7872
N29730 G1 Y-1.7515
N29740 G1 X7.9659 Y-1.7158
N29750 G1 X7.9625 Y-1.6803
N29760 G1 X7.957 Y-1.645
N29770 G1 X7.9505 Y-1.6164
N29780 G1 X7.9435 Y-1.5944
N29790 G1 X7.936 Y-1.5759
N29800 G1 X7.9338 Y-1.5715
N29810 G1 X7.9268 Y-1.5608
N29820 G1 X7.9176 Y-1.5518
N29830 G1 X7.9066 Y-1.545
N29840 G1 X7.8945 Y-1.5409
N29850 G1 X7.8817 Y-1.5394
N29860 G1 X7.7879
N29870 G3 X7.764 Y-1.5608 R0.025
N29880 G1 X7.6562 Y-2.2867
N29890 G3 X7.68 Y-2.3153 R0.025
N29900 G1 X7.7773 Y-2.3154
N29910 G1 X7.789 Y-2.3148
N29920 G1 X7.7986 Y-2.3135
N29930 G1 X7.8097 Y-2.3111
N29940 G1 X7.821 Y-2.3078
N29950 G1 X7.8341 Y-2.3027
N29960 G1 X7.8479 Y-2.296
N29970 G1 X7.8628 Y-2.2872
N29980 G1 X7.8788 Y-2.276
N29990 G1 X7.8958 Y-2.2619
N30000 G1 X7.9134 Y-2.2447
N30010 G1 X7.9323 Y-2.2231
N30020 G1 X7.9519 Y-2.1965
N30030 G1 X7.9708 Y-2.1662
N30040 G1 X7.9874 Y-2.1346
N30050 G1 X8.0018 Y-2.102
N30060 G1 X8.0144 Y-2.0685
N30070 G1 X8.0253 Y-2.0346
N30080 G1 X8.0346 Y-2.0001
N30090 G1 X8.0426 Y-1.9653
N30100 G1 X8.0491 Y-1.9302
N30110 G1 X8.0543 Y-1.8949
N30120 G1 X8.0582 Y-1.8594
N30130 G1 X8.0609 Y-1.8238
N30140 G1 X8.0621 Y-1.7881
N30150 G1 X8.062 Y-1.7525
N30160 G1 X8.0603 Y-1.7168
N30170 G1 X8.0568 Y-1.6813
N30180 G1 X8.0513 Y-1.646
N30190 G1 X8.0447 Y-1.6171
N30200 G1 X8.0376 Y-1.5948
N30210 G1 X8.0301 Y-1.5762
N30220 G1 X8.0277 Y-1.5716
N30230 G1 X8.0207 Y-1.5608
N30240 G1 X8.0115 Y-1.5518
N30250 G1 X8.0006 Y-1.5451
N30260 G1 X7.9884 Y-1.5409
N30270 G1 X7.9756 Y-1.5394
N30280 G1 X7.8817
N30290 G3 X7.8722 Y-1.5417 R0.025
N30300 G3 X7.8578 Y-1.5609 R0.025
N30310 G1 X7.7534 Y-2.2868
N30320 G3 X7.7678 Y-2.3131 R0.025
N30330 G3 X7.7773 Y-2.3154 R0.025
N30340 G1 X7.8746
N30350 G1 X7.8857 Y-2.3148
N30360 G1 X7.8952 Y-2.3136
N30370 G1 X7.9063 Y-2.3112
N30380 G1 X7.9175 Y-2.3079
N30390 G1 X7.9306 Y-2.3028
N30400 G1 X7.9442 Y-2.2962
N30410 G1 X7.9591 Y-2.2874
N30420 G1 X7.9749 Y-2.2763
N30430 G1 X7.9919 Y-2.2622
N30440 G1 X8.0092 Y-2.2453
N30450 G1 X8.028 Y-2.2238
N30460 G1 X8.0474 Y-2.1975
N30470 G1 X8.0663 Y-2.1672
N30480 G1 X8.0828 Y-2.1356
N30490 G1 X8.0972 Y-2.1029
N30500 G1 X8.1097 Y-2.0695
N30510 G1 X8.1205 Y-2.0355
N30520 G1 X8.1298 Y-2.001
N30530 G1 X8.1376 Y-1.9662
N30540 G1 X8.144 Y-1.9311
N30550 G1 X8.1491 Y-1.8957
N30560 G1 X8.153 Y-1.8602
N30570 G1 X8.1555 Y-1.8246
N30580 G1 X8.1567 Y-1.789
N30590 G1 X8.1564 Y-1.7533
N30600 G1 X8.1546 Y-1.7176
N30610 G1 X8.1511 Y-1.6821
N30620 G1 X8.1456 Y-1.6468
N30630 G1 X8.1389 Y-1.6176
N30640 G1 X8.1318 Y-1.5951
N30650 G1 X8.1242 Y-1.5764
N30660 G1 X8.1218 Y-1.5716
N30670 G1 X8.1148 Y-1.5608
N30680 G1 X8.1056 Y-1.5518
N30690 G1 X8.0946 Y-1.5451
N30700 G1 X8.0825 Y-1.5409
N30710 G1 X8.0697 Y-1.5394
N30720 G1 X7.9756
N30730 G3 X7.9517 Y-1.561 R0.025
N30740 G1 X7.8507 Y-2.287
N30750 G3 X7.8746 Y-2.3154 R0.025
N30760 G1 X7.9719
N30770 G1 X7.9819 Y-2.3149
N30780 G1 X7.9915 Y-2.3137
N30790 G1 X8.0025 Y-2.3113
N30800 G1 X8.0136 Y-2.308
N30810 G1 X8.0268 Y-2.3029
N30820 G1 X8.0402 Y-2.2964
N30830 G1 X8.0551 Y-2.2876
N30840 G1 X8.0708 Y-2.2766
N30850 G1 X8.0877 Y-2.2625
N30860 G1 X8.1049 Y-2.2458
N30870 G1 X8.1235 Y-2.2245
N30880 G1 X8.1428 Y-2.1984
N30890 G1 X8.1617 Y-2.1681
N30900 G1 X8.1781 Y-2.1364
N30910 G1 X8.1925 Y-2.1038
N30920 G1 X8.2049 Y-2.0703
N30930 G1 X8.2157 Y-2.0363
N30940 G1 X8.2248 Y-2.0018
N30950 G1 X8.2326 Y-1.9669
N30960 G1 X8.2389 Y-1.9318
N30970 G1 X8.2439 Y-1.8964
N30980 G1 X8.2477 Y-1.8609
N30990 G1 X8.2501 Y-1.8253
N31000 G1 X8.2512 Y-1.7897
N31010 G1 X8.2509 Y-1.754
N31020 G1 X8.2491 Y-1.7183
N31030 G1 X8.2455 Y-1.6828
N31040 G1 X8.2399 Y-1.6475
N31050 G1 X8.2332 Y-1.6181
N31060 G1 X8.226 Y-1.5953
N31070 G1 X8.2185 Y-1.5766
N31080 G1 X8.2159 Y-1.5716
N31090 G1 X8.2089 Y-1.5608
N31100 G1 X8.1997 Y-1.5518
N31110 G1 X8.1888 Y-1.5451
N31120 G1 X8.1766 Y-1.5409
N31130 G1 X8.1638 Y-1.5394
N31140 G1 X8.0697
N31150 G3 X8.0458 Y-1.5611 R0.025
N31160 G1 X7.948 Y-2.2871
N31170 G3 X7.9719 Y-2.3154 R0.025
N31180 G1 X8.0692
N31190 G1 X8.0779 Y-2.315
N31200 G1 X8.0875 Y-2.3138
N31210 G1 X8.0984 Y-2.3114
N31220 G1 X8.1095 Y-2.3081
N31230 G1 X8.1227 Y-2.303
N31240 G1 X8.1359 Y-2.2965
N31250 G1 X8.1509 Y-2.2878
N31260 G1 X8.1664 Y-2.2768
N31270 G1 X8.1833 Y-2.2628
N31280 G1 X8.2004 Y-2.2462
N31290 G1 X8.2189 Y-2.225
N31300 G1 X8.238 Y-2.1991
N31310 G1 X8.2569 Y-2.1688
N31320 G1 X8.2734 Y-2.1372
N31330 G1 X8.2877 Y-2.1045
N31340 G1 X8.3001 Y-2.071
N31350 G1 X8.3107 Y-2.0369
N31360 G1 X8.3198 Y-2.0024
N31370 G1 X8.3275 Y-1.9675
N31380 G1 X8.3338 Y-1.9324
N31390 G1 X8.3387 Y-1.897
N31400 G1 X8.3424 Y-1.8615
N31410 G1 X8.3447 Y-1.8259
N31420 G1 X8.3458 Y-1.7902
N31430 G1 X8.3454 Y-1.7545
N31440 G1 X8.3435 Y-1.7189
N31450 G1 X8.3399 Y-1.6834
N31460 G1 X8.3344 Y-1.6481
N31470 G1 X8.3276 Y-1.6184
N31480 G1 X8.3204 Y-1.5955
N31490 G1 X8.3128 Y-1.5768
N31500 G1 X8.3102 Y-1.5716
N31510 G1 X8.3032 Y-1.5608
N31520 G1 X8.294 Y-1.5518
N31530 G1 X8.283 Y-1.5451
N31540 G1 X8.2708 Y-1.5409
N31550 G1 X8.258 Y-1.5394
N31560 G1 X8.1638
N31570 G3 X8.1543 Y-1.5417 R0.025
N31580 G3 X8.1399 Y-1.5612 R0.025
N31590 G1 X8.0453 Y-2.2872
N31600 G3 X8.0692 Y-2.3154 R0.025
N31610 G1 X8.1665 Y-2.3155
N31620 G1 X8.1737 Y-2.3151
N31630 G1 X8.1832 Y-2.3139
N31640 G1 X8.1941 Y-2.3115
N31650 G1 X8.2052 Y-2.3082
N31660 G1 X8.2184 Y-2.3031
N31670 G1 X8.2315 Y-2.2967
N31680 G1 X8.2465 Y-2.2879
N31690 G1 X8.2619 Y-2.2771
N31700 G1 X8.2788 Y-2.2631
N31710 G1 X8.2957 Y-2.2466
N31720 G1 X8.3141 Y-2.2255
N31730 G1 X8.3332 Y-2.1998
N31740 G1 X8.352 Y-2.1695
N31750 G1 X8.3685 Y-2.1378
N31760 G1 X8.3828 Y-2.1051
N31770 G1 X8.3951 Y-2.0716
N31780 G1 X8.4057 Y-2.0375
N31790 G1 X8.4148 Y-2.003
N31800 G1 X8.4224 Y-1.9681
N31810 G1 X8.4286 Y-1.9329
N31820 G1 X8.4335 Y-1.8976
N31830 G1 X8.437 Y-1.862
N31840 G1 X8.4393 Y-1.8264
N31850 G1 X8.4403 Y-1.7907
N31860 G1 X8.4399 Y-1.7551
N31870 G1 X8.438 Y-1.7194
N31880 G1 X8.4344 Y-1.6839
N31890 G1 X8.4288 Y-1.6486
N31900 G1 X8.422 Y-1.6187
N31910 G1 X8.4147 Y-1.5957
N31920 G1 X8.4071 Y-1.5769
N31930 G1 X8.4045 Y-1.5716
N31940 G1 X8.3974 Y-1.5608
N31950 G1 X8.3882 Y-1.5518
N31960 G1 X8.3773 Y-1.5451
N31970 G1 X8.3651 Y-1.5409
N31980 G1 X8.3523 Y-1.5394
N31990 G1 X8.258
N32000 G3 X8.2485 Y-1.5417 R0.025
N32010 G3 X8.2341 Y-1.5613 R0.025
N32020 G1 X8.1426 Y-2.2874
N32030 G3 X8.1665 Y-2.3155 R0.025
N32040 G1 X8.2639
N32050 G1 X8.2693 Y-2.3152
N32060 G1 X8.2788 Y-2.314
N32070 G1 X8.2896 Y-2.3117
N32080 G1 X8.3008 Y-2.3083
N32090 G1 X8.3139 Y-2.3032
N32100 G1 X8.327 Y-2.2969
N32110 G1 X8.3419 Y-2.2881
N32120 G1 X8.3573 Y-2.2773
N32130 G1 X8.3741 Y-2.2633
N32140 G1 X8.391 Y-2.2469
N32150 G1 X8.4093 Y-2.2259
N32160 G1 X8.4283 Y-2.2002
N32170 G1 X8.4471 Y-2.1699
N32180 G1 X8.4636 Y-2.1382
N32190 G1 X8.4778 Y-2.1055
N32200 G1 X8.4901 Y-2.072
N32210 G1 X8.5007 Y-2.0379
N32220 G1 X8.5097 Y-2.0034
N32230 G1 X8.5172 Y-1.9685
N32240 G1 X8.5234 Y-1.9333
N32250 G1 X8.5282 Y-1.8979
N32260 G1 X8.5317 Y-1.8624
N32270 G1 X8.534 Y-1.8268
N32280 G1 X8.5349 Y-1.7911
N32290 G1 X8.5345 Y-1.7554
N32300 G1 X8.5325 Y-1.7198
N32310 G1 X8.5289 Y-1.6843
N32320 G1 X8.5233 Y-1.649
N32330 G1 X8.5164 Y-1.619
N32340 G1 X8.5091 Y-1.5958
N32350 G1 X8.5015 Y-1.577
N32360 G1 X8.4988 Y-1.5716
N32370 G1 X8.4918 Y-1.5608
N32380 G1 X8.4826 Y-1.5518
N32390 G1 X8.4716 Y-1.5451
N32400 G1 X8.4595 Y-1.5409
N32410 G1 X8.4467 Y-1.5394
N32420 G1 X8.3523
N32430 G3 X8.3284 Y-1.5614 R0.025
N32440 G1 X8.2399 Y-2.2875
N32450 G3 X8.2639 Y-2.3155 R0.025
N32460 G1 X8.353
N32470 G1 X8.3651 Y-2.3149
N32480 G1 X8.3747 Y-2.3136
N32490 G1 X8.3854 Y-2.3113
N32500 G1 X8.3965 Y-2.308
N32510 G1 X8.4096 Y-2.3029
N32520 G1 X8.4226 Y-2.2966
N32530 G1 X8.4375 Y-2.2878
N32540 G1 X8.4528 Y-2.2771
N32550 G1 X8.4696 Y-2.2632
N32560 G1 X8.4863 Y-2.2468
N32570 G1 X8.5045 Y-2.2259
N32580 G1 X8.5234 Y-2.2004
N32590 G1 X8.5423 Y-2.1701
N32600 G1 X8.5587 Y-2.1384
N32610 G1 X8.5729 Y-2.1057
N32620 G1 X8.5851 Y-2.0721
N32630 G1 X8.5957 Y-2.038
N32640 G1 X8.6046 Y-2.0035
N32650 G1 X8.6121 Y-1.9686
N32660 G1 X8.6182 Y-1.9334
N32670 G1 X8.623 Y-1.898
N32680 G1 X8.6264 Y-1.8625
N32690 G1 X8.6286 Y-1.8269
N32700 G1 X8.6295 Y-1.7912
N32710 G1 X8.629 Y-1.7555
N32720 G1 X8.627 Y-1.7198
N32730 G1 X8.6233 Y-1.6843
N32740 G1 X8.6177 Y-1.6491
N32750 G1 X8.6108 Y-1.619
N32760 G1 X8.6035 Y-1.5957
N32770 G1 X8.5959 Y-1.5769
N32780 G1 X8.5932 Y-1.5716
N32790 G1 X8.5862 Y-1.5608
N32800 G1 X8.577 Y-1.5518
N32810 G1 X8.566 Y-1.5451
N32820 G1 X8.5538 Y-1.5409
N32830 G1 X8.5411 Y-1.5394
N32840 G1 X8.4467
N32850 G3 X8.4227 Y-1.5612 R0.025
N32860 G1 X8.3291 Y-2.2873
N32870 G3 X8.3436 Y-2.3133 R0.025
N32880 G3 X8.353 Y-2.3155 R0.025
N32890 G1 X8.4504
N32900 G1 X8.4603 Y-2.315
N32910 G1 X8.4698 Y-2.3137
N32920 G1 X8.4805 Y-2.3114
N32930 G1 X8.4917 Y-2.3081
N32940 G1 X8.5047 Y-2.303
N32950 G1 X8.5177 Y-2.2967
N32960 G1 X8.5327 Y-2.2879
N32970 G1 X8.5479 Y-2.2772
N32980 G1 X8.5647 Y-2.2633
N32990 G1 X8.5814 Y-2.247
N33000 G1 X8.5995 Y-2.2262
N33010 G1 X8.6184 Y-2.2007
N33020 G1 X8.6372 Y-2.1704
N33030 G1 X8.6536 Y-2.1387
N33040 G1 X8.6678 Y-2.1059
N33050 G1 X8.6801 Y-2.0724
N33060 G1 X8.6906 Y-2.0383
N33070 G1 X8.6995 Y-2.0037
N33080 G1 X8.7069 Y-1.9688
N33090 G1 X8.7129 Y-1.9336
N33100 G1 X8.7177 Y-1.8983
N33110 G1 X8.7211 Y-1.8627
N33120 G1 X8.7233 Y-1.8271
N33130 G1 X8.7241 Y-1.7914
N33140 G1 X8.7236 Y-1.7557
N33150 G1 X8.7216 Y-1.7201
N33160 G1 X8.7179 Y-1.6846
N33170 G1 X8.7122 Y-1.6493
N33180 G1 X8.7053 Y-1.6191
N33190 G1 X8.698 Y-1.5958
N33200 G1 X8.6903 Y-1.577
N33210 G1 X8.6876 Y-1.5716
N33220 G1 X8.6806 Y-1.5608
N33230 G1 X8.6714 Y-1.5518
N33240 G1 X8.6604 Y-1.5451
N33250 G1 X8.6483 Y-1.5409
N33260 G1 X8.6355 Y-1.5394
N33270 G1 X8.5411
N33280 G3 X8.5171 Y-1.5613 R0.025
N33290 G1 X8.4264 Y-2.2874
N33300 G3 X8.4409 Y-2.3133 R0.025
N33310 G3 X8.4504 Y-2.3155 R0.025
N33320 G1 X8.5477
N33330 G1 X8.5554 Y-2.3151
N33340 G1 X8.565 Y-2.3138
N33350 G1 X8.5756 Y-2.3116
N33360 G1 X8.5868 Y-2.3082
N33370 G1 X8.5998 Y-2.3031
N33380 G1 X8.6128 Y-2.2968
N33390 G1 X8.6278 Y-2.288
N33400 G1 X8.6429 Y-2.2774
N33410 G1 X8.6597 Y-2.2635
N33420 G1 X8.6764 Y-2.2472
N33430 G1 X8.6945 Y-2.2264
N33440 G1 X8.7133 Y-2.201
N33450 G1 X8.7321 Y-2.1707
N33460 G1 X8.7485 Y-2.139
N33470 G1 X8.7627 Y-2.1062
N33480 G1 X8.7749 Y-2.0727
N33490 G1 X8.7854 Y-2.0386
N33500 G1 X8.7943 Y-2.004
N33510 G1 X8.8017 Y-1.9691
N33520 G1 X8.8077 Y-1.9339
N33530 G1 X8.8124 Y-1.8985
N33540 G1 X8.8158 Y-1.863
N33550 G1 X8.8179 Y-1.8274
N33560 G1 X8.8187 Y-1.7917
N33570 G1 X8.8182 Y-1.756
N33580 G1 X8.8161 Y-1.7203
N33590 G1 X8.8124 Y-1.6848
N33600 G1 X8.8068 Y-1.6496
N33610 G1 X8.7998 Y-1.6193
N33620 G1 X8.7925 Y-1.5959
N33630 G1 X8.7848 Y-1.577
N33640 G1 X8.7821 Y-1.5716
N33650 G1 X8.7751 Y-1.5608
N33660 G1 X8.7659 Y-1.5518
N33670 G1 X8.7549 Y-1.5451
N33680 G1 X8.7427 Y-1.5409
N33690 G1 X8.73 Y-1.5394
N33700 G1 X8.6355
N33710 G3 X8.6115 Y-1.5614 R0.025
N33720 G1 X8.5237 Y-2.2875
N33730 G3 X8.5477 Y-2.3155 R0.025
N33740 G1 X8.645
N33750 G1 X8.6505 Y-2.3152
N33760 G1 X8.66 Y-2.3139
N33770 G1 X8.6707 Y-2.3117
N33780 G1 X8.6818 Y-2.3083
N33790 G1 X8.6949 Y-2.3032
N33800 G1 X8.7078 Y-2.297
N33810 G1 X8.7228 Y-2.2882
N33820 G1 X8.7379 Y-2.2775
N33830 G1 X8.7546 Y-2.2636
N33840 G1 X8.7713 Y-2.2474
N33850 G1 X8.7894 Y-2.2267
N33860 G1 X8.8081 Y-2.2013
N33870 G1 X8.827 Y-2.171
N33880 G1 X8.8433 Y-2.1393
N33890 G1 X8.8575 Y-2.1065
N33900 G1 X8.8697 Y-2.073
N33910 G1 X8.8802 Y-2.0389
N33920 G1 X8.889 Y-2.0043
N33930 G1 X8.8964 Y-1.9694
N33940 G1 X8.9024 Y-1.9342
N33950 G1 X8.9071 Y-1.8988
N33960 G1 X8.9104 Y-1.8632
N33970 G1 X8.9125 Y-1.8276
N33980 G1 X8.9133 Y-1.7919
N33990 G1 X8.9128 Y-1.7562
N34000 G1 X8.9107 Y-1.7206
N34010 G1 X8.907 Y-1.6851
N34020 G1 X8.9013 Y-1.6498
N34030 G1 X8.8944 Y-1.6194
N34040 G1 X8.887 Y-1.596
N34050 G1 X8.8793 Y-1.5771
N34060 G1 X8.8766 Y-1.5716
N34070 G1 X8.8696 Y-1.5608
N34080 G1 X8.8604 Y-1.5518
N34090 G1 X8.8494 Y-1.5451
N34100 G1 X8.8372 Y-1.5409
N34110 G1 X8.8244 Y-1.5394
N34120 G1 X8.73
N34130 G3 X8.7205 Y-1.5417 R0.025
N34140 G3 X8.706 Y-1.5615 R0.025
N34150 G1 X8.621 Y-2.2876
N34160 G3 X8.645 Y-2.3155 R0.025
N34170 G1 X8.7342
N34180 G1 X8.7459 Y-2.3149
N34190 G1 X8.7554 Y-2.3136
N34200 G1 X8.766 Y-2.3114
N34210 G1 X8.7771 Y-2.308
N34220 G1 X8.7901 Y-2.303
N34230 G1 X8.803 Y-2.2967
N34240 G1 X8.818 Y-2.2879
N34250 G1 X8.833 Y-2.2773
N34260 G1 X8.8497 Y-2.2635
N34270 G1 X8.8663 Y-2.2473
N34280 G1 X8.8843 Y-2.2266
N34290 G1 X8.903 Y-2.2014
N34300 G1 X8.9219 Y-2.1711
N34310 G1 X8.9382 Y-2.1393
N34320 G1 X8.9524 Y-2.1066
N34330 G1 X8.9646 Y-2.073
N34340 G1 X8.975 Y-2.0389
N34350 G1 X8.9838 Y-2.0043
N34360 G1 X8.9912 Y-1.9694
N34370 G1 X8.9971 Y-1.9342
N34380 G1 X9.0018 Y-1.8988
N34390 G1 X9.0051 Y-1.8632
N34400 G1 X9.0072 Y-1.8276
N34410 G1 X9.008 Y-1.7919
N34420 G1 X9.0074 Y-1.7562
N34430 G1 X9.0053 Y-1.7206
N34440 G1 X9.0015 Y-1.6851
N34450 G1 X8.9959 Y-1.6498
N34460 G1 X8.9889 Y-1.6194
N34470 G1 X8.9815 Y-1.5959
N34480 G1 X8.9757 Y-1.5816
N34490 G1 X8.9698 Y-1.5706
N34500 G1 X8.9617 Y-1.5611
N34510 G1 X8.9517 Y-1.5536
N34520 G1 X8.9404 Y-1.5483
N34530 G1 X8.9369 Y-1.5471
N34540 G1 X8.9207 Y-1.5438
N34550 G1 X8.9045 Y-1.5409
N34560 G1 X8.872 Y-1.5394
N34570 G1 X8.8244
N34580 G3 X8.815 Y-1.5417 R0.025
N34590 G3 X8.8005 Y-1.5613 R0.025
N34600 G1 X8.7102 Y-2.2874
N34610 G3 X8.7342 Y-2.3155 R0.025
N34620 G1 X8.7747 Y-2.3157
N34630 G1 X8.7909 Y-2.316
N34640 G1 X8.8116 Y-2.3197
N34650 G1 X8.8171 Y-2.3204
N34660 G1 X8.8246 Y-2.3208
N34670 G1 X8.8335 Y-2.3206
N34680 G1 X8.8426 Y-2.3196
N34690 G1 X8.8534 Y-2.3175
N34700 G1 X8.8648 Y-2.3144
N34710 G1 X8.8773 Y-2.3099
N34720 G1 X8.8911 Y-2.3036
N34730 G1 X8.9053 Y-2.2956
N34740 G1 X8.9214 Y-2.2849
N34750 G1 X8.9373 Y-2.2723
N34760 G1 X8.9547 Y-2.2561
N34770 G1 X8.9729 Y-2.2361
N34780 G1 X8.9911 Y-2.2127
N34790 G1 X9.0101 Y-2.1837
N34800 G1 X9.0271 Y-2.1524
N34810 G1 X9.042 Y-2.1199
N34820 G1 X9.0548 Y-2.0866
N34830 G1 X9.0659 Y-2.0527
N34840 G1 X9.0753 Y-2.0182
N34850 G1 X9.0832 Y-1.9834
N34860 G1 X9.0897 Y-1.9483
N34870 G1 X9.0949 Y-1.913
N34880 G1 X9.0987 Y-1.8775
N34890 G1 X9.0995 Y-1.8641
N34900 G1 X9.0993 Y-1.7608
N34910 G1 X9.0989 Y-1.7445
N34920 G1 X9.0968 Y-1.7283
N34930 G1 X9.0944 Y-1.7121
N34940 G1 X9.0875 Y-1.6878
N34950 G1 X9.0845 Y-1.6797
N34960 G1 X9.073 Y-1.6553
N34970 G1 X9.0666 Y-1.6442
N34980 G1 X9.058 Y-1.631
N34990 G1 X9.0504 Y-1.6209
N35000 G1 X9.0261 Y-1.5954
N35010 G1 X9.018 Y-1.5885
N35020 G1 X8.998 Y-1.5742
N35030 G1 X8.9937 Y-1.5715
N35040 G1 X8.9679 Y-1.558
N35050 G1 X8.9531 Y-1.5526
N35060 G1 X8.9404 Y-1.5483
N35070 G3 X8.9085 Y-1.5683 R0.025
N35080 G1 X8.7923 Y-2.2913
N35090 G3 X8.8116 Y-2.3197 R0.025
N35100 G1 X8.8153 Y-2.3204
N35110 G1 X8.8234 Y-2.3229
N35120 G1 X8.8372 Y-2.3284
N35130 G1 X8.8497 Y-2.3355
N35140 G1 X8.8544 Y-2.3382
N35150 G1 X8.8598 Y-2.3406
N35160 G1 X8.8657 Y-2.3426
N35170 G1 X8.8728 Y-2.3444
N35180 G1 X8.8807 Y-2.3458
N35190 G1 X8.8894 Y-2.3466
N35200 G1 X8.8993 Y-2.3467
N35210 G1 X8.9099 Y-2.3459
N35220 G1 X8.9219 Y-2.3441
N35230 G1 X8.9345 Y-2.3412
N35240 G1 X8.9487 Y-2.3366
N35250 G1 X8.9633 Y-2.3306
N35260 G1 X8.9794 Y-2.3224
N35270 G1 X8.996 Y-2.3121
N35280 G1 X9.0139 Y-2.299
N35290 G1 X9.0327 Y-2.2828
N35300 G1 X9.0514 Y-2.2637
N35310 G1 X9.0713 Y-2.24
N35320 G1 X9.0917 Y-2.2113
N35330 G1 X9.1052 Y-2.1886
N35340 G1 X9.1096 Y-2.179
N35350 G1 X9.1119 Y-2.1687
N35360 G1 X9.112 Y-2.1581
N35370 G1 X9.1099 Y-2.1477
N35380 G1 X9.1057 Y-2.1381
N35390 G1 X9.0995 Y-2.1295
N35400 G1 Y-1.8641
N35410 G3 X9.0973 Y-1.8547 R0.025
N35420 G3 X9.0519 Y-1.8544 R0.025
N35430 G1 X8.8412 Y-2.3043
N35440 G3 X8.8497 Y-2.3355 R0.025
N35450 G1 X8.8558 Y-2.3394
N35460 G1 X8.8639 Y-2.3456
N35470 G1 X8.8723 Y-2.3528
N35480 G1 X8.8804 Y-2.3609
N35490 G1 X8.884 Y-2.3649
N35500 G1 X8.8881 Y-2.3684
N35510 G1 X8.8928 Y-2.3717
N35520 G1 X8.8983 Y-2.375
N35530 G1 X8.9046 Y-2.3782
N35540 G1 X8.9119 Y-2.3811
N35550 G1 X8.92 Y-2.3836
N35560 G1 X8.9292 Y-2.3857
N35570 G1 X8.9394 Y-2.3871
N35580 G1 X8.9506 Y-2.3878
N35590 G1 X8.9631 Y-2.3875
N35600 G1 X8.9763 Y-2.3862
N35610 G1 X8.9912 Y-2.3835
N35620 G1 X9.0064 Y-2.3794
N35630 G1 X9.0237 Y-2.3733
N35640 G1 X9.0409 Y-2.3655
N35650 G1 X9.06 Y-2.3551
N35660 G1 X9.0799 Y-2.3419
N35670 G1 X9.1001 Y-2.3261
N35680 G1 X9.1198 Y-2.308
N35690 G1 X9.1352 Y-2.2914
N35700 G1 X9.1467 Y-2.2767
N35710 G1 X9.1557 Y-2.2632
N35720 G1 X9.1633 Y-2.2495
N35730 G1 X9.1689 Y-2.2371
N35740 G1 X9.1736 Y-2.2241
N35750 G1 X9.1775 Y-2.2099
N35760 G1 X9.1795 Y-2.199
N35770 G1 X9.1804 Y-2.1863
N35780 G1 X9.1786 Y-2.1737
N35790 G1 X9.1741 Y-2.1617
N35800 G1 X9.167 Y-2.1511
N35810 G1 X9.1578 Y-2.1422
N35820 G1 X9.1469 Y-2.1355
N35830 G1 X9.1348 Y-2.1314
N35840 G1 X9.1222 Y-2.13
N35850 G3 X9.1127 Y-2.1324 R0.0226
N35860 G3 X9.1081 Y-2.1355 R0.0226
N35870 G1 X8.8838 Y-2.3305
N35880 G3 X8.8764 Y-2.352 R0.0226
N35890 G3 X8.8804 Y-2.3609 R0.0226
N35900 G1 X8.8927 Y-2.3771
N35910 G1 X8.8975 Y-2.3852
N35920 G1 X8.9016 Y-2.3933
N35930 G1 X8.9041 Y-2.3981
N35940 G1 X8.9072 Y-2.4025
N35950 G1 X8.9108 Y-2.4068
N35960 G1 X8.9152 Y-2.4113
N35970 G1 X8.9202 Y-2.4156
N35980 G1 X8.9264 Y-2.4201
N35990 G1 X8.9332 Y-2.4243
N36000 G1 X8.9413 Y-2.4285
N36010 G1 X8.9501 Y-2.4321
N36020 G1 X8.9604 Y-2.4354
N36030 G1 X8.9714 Y-2.438
N36040 G1 X8.9838 Y-2.4399
N36050 G1 X8.9975 Y-2.4408
N36060 G1 X9.012 Y-2.4407
N36070 G1 X9.0286 Y-2.4392
N36080 G1 X9.0453 Y-2.4363
N36090 G1 X9.064 Y-2.4315
N36100 G1 X9.0838 Y-2.4246
N36110 G1 X9.1037 Y-2.4159
N36120 G1 X9.1241 Y-2.405
N36130 G1 X9.1439 Y-2.3923
N36140 G1 X9.1624 Y-2.378
N36150 G1 X9.1796 Y-2.3626
N36160 G1 X9.1951 Y-2.3462
N36170 G1 X9.2089 Y-2.329
N36180 G1 X9.2211 Y-2.311
N36190 G1 X9.2309 Y-2.2936
N36200 G1 X9.2385 Y-2.2774
N36210 G1 X9.2442 Y-2.262
N36220 G1 X9.2483 Y-2.2475
N36230 G1 X9.2511 Y-2.2335
N36240 G1 X9.2526 Y-2.2198
N36250 G1 X9.2531 Y-2.2072
N36260 G1 X9.2524 Y-2.1942
N36270 G1 X9.251 Y-2.1827
N36280 G1 X9.2497 Y-2.1763
N36290 G1 X9.2455 Y-2.1638
N36300 G1 X9.2386 Y-2.1525
N36310 G1 X9.2293 Y-2.143
N36320 G1 X9.2182 Y-2.1359
N36330 G1 X9.2057 Y-2.1315
N36340 G1 X9.1926 Y-2.13
N36350 G3 X9.1831 Y-2.1322 R0.025
N36360 G3 X9.1772 Y-2.136 R0.025
N36370 G1 X8.9085 Y-2.3647
N36380 G3 X8.9016 Y-2.3933 R0.025
N36390 G1 X8.9052 Y-2.4014
N36400 G1 X8.91 Y-2.4177
N36410 G1 X8.9121 Y-2.4273
N36420 G1 X8.913 Y-2.4327
N36430 G1 X8.9148 Y-2.4378
N36440 G1 X8.9171 Y-2.4427
N36450 G1 X8.9242 Y-2.4529
N36460 G1 X8.9333 Y-2.4613
N36470 G1 X8.944 Y-2.4675
N36480 G1 X8.9558 Y-2.4714
N36490 G1 X8.9681 Y-2.4727
N36500 G3 X9.0093 Y-2.3947 R0.0509
N36510 G3 X8.9122 Y-2.4175 R0.0528
N36520 G3 X8.9121 Y-2.4273 R0.0528
N36530 G1 X8.9147 Y-2.4501
N36540 G1 X8.9155 Y-2.4541
N36550 G1 X8.9171 Y-2.4582
N36560 G1 X8.9207 Y-2.4636
N36570 G1 X8.9232 Y-2.4663
N36580 G1 X8.926 Y-2.4685
N36590 G1 X8.9308 Y-2.471
N36600 G1 X8.9369 Y-2.4726
N36610 G1 X9.091 Y-2.4727
N36620 G1 X9.1093 Y-2.4718
N36630 G1 X9.1234 Y-2.47
N36640 G1 X9.1387 Y-2.4667
N36650 G1 X9.1544 Y-2.462
N36660 G1 X9.1715 Y-2.4553
N36670 G1 X9.1889 Y-2.4469
N36680 G1 X9.2061 Y-2.4368
N36690 G1 X9.2237 Y-2.4244
N36700 G1 X9.241 Y-2.4101
N36710 G1 X9.2573 Y-2.3942
N36720 G1 X9.2723 Y-2.377
N36730 G1 X9.2857 Y-2.3588
N36740 G1 X9.2975 Y-2.3399
N36750 G1 X9.3075 Y-2.3205
N36760 G1 X9.3157 Y-2.3008
N36770 G1 X9.3222 Y-2.2809
N36780 G1 X9.3269 Y-2.2615
N36790 G1 X9.3297 Y-2.2435
N36800 G1 X9.3309 Y-2.2266
N36810 G1 Y-2.2115
