%
(MOTORMOUNTRIGHT)
(T2  D=0.25 CR=0. - ZMIN=-0.9846 - FLAT END MILL)
N10 G90 G54 G64 G50 G17 G40 G80 G94 G91.1 G49
N20 G20
N30 G28 G91 Z0.
N40 G90

(ADAPTIVE2)
N50 M9
N60 M998
N70 T2 G43 H2 M6
N80 S5140 M3
N90 G4 P2.
N100 G54
N110 G0 X-0.1688 Y1.0301
N120 M8
N130 G4 P2.
N140 G0 Z0.6
N150 G0 Z0.2
N160 G0 Z-0.15
N170 G1 Z-0.175 F24.
N180 G1 Y1.0298 Z-0.1789
N190 G1 X-0.1686 Y1.0289 Z-0.1827
N200 G1 X-0.1683 Y1.0275 Z-0.1863
N210 G1 X-0.168 Y1.0255 Z-0.1897
N220 G1 X-0.1675 Y1.0229 Z-0.1927
N230 G1 X-0.1669 Y1.02 Z-0.1952
N240 G1 X-0.1663 Y1.0167 Z-0.1973
N250 G1 X-0.1657 Y1.0132 Z-0.1988
N260 G1 X-0.165 Y1.0094 Z-0.1997
N270 G1 X-0.1642 Y1.0056 Z-0.2
N280 G3 X-0.1245 Y0.874 R0.6382
N290 G1 X-0.0986 Y0.8195
N300 G1 X-0.089 Y0.8027
N310 G1 X-0.0883 Y0.8017
N320 G1 X-0.0844 Y0.8054
N330 G1 X-0.0811 Y0.8104
N340 G1 X-0.0732 Y0.8244
N350 G1 X-0.0649 Y0.8426
N360 G1 X-0.0561 Y0.8666
N370 G1 X-0.047 Y0.8997
N380 G1 X-0.0401 Y0.936
N390 G1 X-0.0353 Y0.9727
N400 G1 X-0.032 Y1.0096
N410 G1 X-0.0297 Y1.0465
N420 G1 X-0.0281 Y1.0835
N430 G1 X-0.0263 Y1.1575
N440 G1 X-0.0251 Y1.2685
N450 G1 X-0.0246 Y1.5645
N460 G1 Y2.1969
N470 G1 X-0.0258 Y2.2053
N480 G1 X-0.0294 Y2.213
N490 G1 X-0.035 Y2.2194
N500 G1 X-0.0422 Y2.2239
N510 G1 X-0.0504 Y2.2262
N520 G1 X-0.0589 Y2.2261
N530 G1 X-0.067 Y2.2235
N540 G1 X-0.0741 Y2.2188
N550 G1 X-0.0795 Y2.2122
N560 G3 X-0.0825 Y2.2029 R0.025
N570 G1 X-0.0829 Y2.1991 Z-0.1997
N580 G1 X-0.0834 Y2.1953 Z-0.1988
N590 G1 X-0.0838 Y2.1917 Z-0.1973
N600 G1 X-0.0842 Y2.1883 Z-0.1952
N610 G1 X-0.0845 Y2.1854 Z-0.1927
N620 G1 X-0.0848 Y2.1829 Z-0.1897
N630 G1 X-0.085 Y2.1808 Z-0.1863
N640 G1 X-0.0852 Y2.1793 Z-0.1827
N650 G1 X-0.0853 Y2.1784 Z-0.1789
N660 G1 X-0.0854 Y2.1781 Z-0.175
N670 G0 Z0.2
N680 G0 X-0.0748 Y0.8334
N690 G0 Z-0.15
N700 G1 Z-0.175 F24.
N710 G1 X-0.075 Y0.8331 Z-0.1789
N720 G1 X-0.0755 Y0.8323 Z-0.1827
N730 G1 X-0.0763 Y0.8311 Z-0.1863
N740 G1 X-0.0774 Y0.8294 Z-0.1897
N750 G1 X-0.0788 Y0.8272 Z-0.1927
N760 G1 X-0.0804 Y0.8247 Z-0.1952
N770 G1 X-0.0823 Y0.8219 Z-0.1973
N780 G1 X-0.0843 Y0.8189 Z-0.1988
N790 G1 X-0.0864 Y0.8157 Z-0.1997
N800 G1 X-0.0885 Y0.8125 Z-0.2
N810 G3 X-0.089 Y0.8027 R0.0096
N820 G1 X-0.0738 Y0.7774
N830 G1 X-0.0728 Y0.776
N840 G1 X-0.0663 Y0.7784
N850 G1 X-0.0588 Y0.7819
N860 G1 X-0.0507 Y0.7865
N870 G1 X-0.0424 Y0.7921
N880 G1 X-0.033 Y0.7997
N890 G1 X-0.0236 Y0.8086
N900 G1 X-0.0137 Y0.8195
N910 G1 X-0.0032 Y0.8332
N920 G1 X0.0072 Y0.8494
N930 G1 X0.0181 Y0.8696
N940 G1 X0.0292 Y0.895
N950 G1 X0.0403 Y0.9273
N960 G1 X0.0496 Y0.9631
N970 G1 X0.0564 Y0.9995
N980 G1 X0.0615 Y1.0361
N990 G1 X0.0652 Y1.0729
N1000 G1 X0.068 Y1.1098
N1010 G1 X0.07 Y1.1468
N1020 G1 X0.0726 Y1.2207
N1030 G1 X0.0744 Y1.3317
N1040 G1 X0.0752 Y1.5167
N1050 G1 X0.0754 Y2.1088
N1060 G1 X0.0744 Y2.1382
N1070 G1 X0.0719 Y2.16
N1080 G1 X0.0687 Y2.1765
N1090 G1 X0.0644 Y2.1917
N1100 G1 X0.0598 Y2.2041
N1110 G1 X0.0543 Y2.2158
N1120 G1 X0.0486 Y2.226
N1130 G1 X0.0278 Y2.2566
N1140 G1 X0.0263 Y2.26
N1150 G1 X0.0211 Y2.2687
N1160 G1 X0.0139 Y2.2758
N1170 G1 X0.0053 Y2.281
N1180 G1 X-0.0043 Y2.284
N1190 G1 X-0.0144 Y2.2846
N1200 G1 X-0.0243 Y2.2828
N1210 G1 X-0.0335 Y2.2787
N1220 G1 X-0.0415 Y2.2725
N1230 G1 X-0.0477 Y2.2646
N1240 G3 X-0.0507 Y2.2553 R0.025
N1250 G1 X-0.0512 Y2.2514 Z-0.1997
N1260 G1 X-0.0516 Y2.2476 Z-0.1988
N1270 G1 X-0.052 Y2.244 Z-0.1973
N1280 G1 X-0.0524 Y2.2407 Z-0.1952
N1290 G1 X-0.0528 Y2.2377 Z-0.1927
N1300 G1 X-0.0531 Y2.2352 Z-0.1897
N1310 G1 X-0.0533 Y2.2332 Z-0.1863
N1320 G1 X-0.0535 Y2.2317 Z-0.1827
N1330 G1 X-0.0536 Y2.2308 Z-0.1789
N1340 G1 Y2.2305 Z-0.175
N1350 G0 Z0.2
N1360 G0 X-0.0537 Y0.8039
N1370 G0 Z-0.15
N1380 G1 Z-0.175 F24.
N1390 G1 X-0.0539 Y0.8037 Z-0.1789
N1400 G1 X-0.0546 Y0.8031 Z-0.1827
N1410 G1 X-0.0557 Y0.8021 Z-0.1863
N1420 G1 X-0.0573 Y0.8007 Z-0.1897
N1430 G1 X-0.0591 Y0.799 Z-0.1927
N1440 G1 X-0.0614 Y0.797 Z-0.1952
N1450 G1 X-0.0638 Y0.7948 Z-0.1973
N1460 G1 X-0.0665 Y0.7923 Z-0.1988
N1470 G1 X-0.0693 Y0.7898 Z-0.1997
N1480 G1 X-0.0722 Y0.7871 Z-0.2
N1490 G3 X-0.0738 Y0.7774 R0.0078
N1500 G1 X-0.0543 Y0.7463
N1510 G1 X-0.0535 Y0.7451
N1520 G1 X-0.0453 Y0.7455
N1530 G1 X-0.0367 Y0.7466
N1540 G1 X-0.027 Y0.7486
N1550 G1 X-0.0172 Y0.7515
N1560 G1 X-0.0062 Y0.7557
N1570 G1 X0.0047 Y0.7609
N1580 G1 X0.0168 Y0.768
N1590 G1 X0.0288 Y0.7763
N1600 G1 X0.0419 Y0.7871
N1610 G1 X0.0548 Y0.7995
N1620 G1 X0.0686 Y0.8152
N1630 G1 X0.0821 Y0.8333
N1640 G1 X0.0958 Y0.8551
N1650 G1 X0.1097 Y0.8817
N1660 G1 X0.1234 Y0.9139
N1670 G1 X0.135 Y0.949
N1680 G1 X0.1442 Y0.9848
N1690 G1 X0.1514 Y1.0211
N1700 G1 X0.157 Y1.0577
N1710 G1 X0.1614 Y1.0944
N1720 G1 X0.1648 Y1.1313
N1730 G1 X0.1673 Y1.1682
N1740 G1 X0.1693 Y1.2052
N1750 G1 X0.172 Y1.2791
N1760 G1 X0.174 Y1.3901
N1770 G1 X0.1751 Y1.5751
N1780 G1 X0.1754 Y2.0191
N1790 G1 X0.1751 Y2.0561
N1800 G1 X0.1737 Y2.0931
N1810 G1 X0.1702 Y2.13
N1820 G1 X0.1649 Y2.1603
N1830 G1 X0.158 Y2.1873
N1840 G1 X0.146 Y2.2223
N1850 G1 X0.1356 Y2.2464
N1860 G1 X0.1259 Y2.2646
N1870 G1 X0.1163 Y2.2797
N1880 G1 X0.107 Y2.2919
N1890 G1 X0.0973 Y2.3028
N1900 G1 X0.0877 Y2.3119
N1910 G1 X0.0678 Y2.328
N1920 G1 X0.0577 Y2.3345
N1930 G1 X0.0466 Y2.3388
N1940 G1 X0.0347 Y2.3407
N1950 G1 X0.0228 Y2.3401
N1960 G1 X0.0112 Y2.3371
N1970 G1 X0.0005 Y2.3317
N1980 G1 X-0.0088 Y2.3242
N1990 G1 X-0.0164 Y2.315
N2000 G3 X-0.0198 Y2.3058 R0.025
N2010 G1 X-0.0204 Y2.302 Z-0.1997
N2020 G1 X-0.021 Y2.2982 Z-0.1988
N2030 G1 X-0.0215 Y2.2946 Z-0.1973
N2040 G1 X-0.022 Y2.2913 Z-0.1952
N2050 G1 X-0.0225 Y2.2884 Z-0.1927
N2060 G1 X-0.0229 Y2.2858 Z-0.1897
N2070 G1 X-0.0232 Y2.2838 Z-0.1863
N2080 G1 X-0.0234 Y2.2823 Z-0.1827
N2090 G1 X-0.0236 Y2.2814 Z-0.1789
N2100 G1 Y2.2811 Z-0.175
N2110 G0 Z0.2
N2120 G0 X-0.0342 Y0.7727
N2130 G0 Z-0.15
N2140 G1 Z-0.175 F24.
N2150 G1 X-0.0344 Y0.7725 Z-0.1789
N2160 G1 X-0.0351 Y0.7719 Z-0.1827
N2170 G1 X-0.0362 Y0.7709 Z-0.1863
N2180 G1 X-0.0377 Y0.7695 Z-0.1897
N2190 G1 X-0.0396 Y0.7678 Z-0.1927
N2200 G1 X-0.0418 Y0.7658 Z-0.1952
N2210 G1 X-0.0443 Y0.7636 Z-0.1973
N2220 G1 X-0.047 Y0.7611 Z-0.1988
N2230 G1 X-0.0498 Y0.7586 Z-0.1997
N2240 G1 X-0.0527 Y0.756 Z-0.2
N2250 G3 X-0.0543 Y0.7463 R0.0078
N2260 G1 X-0.0317 Y0.7102
N2270 G1 X-0.0309 Y0.7091
N2280 G1 X-0.0226 Y0.7077
N2290 G1 X-0.0132 Y0.7068
N2300 G1 X-0.003 Y0.7067
N2310 G1 X0.0078 Y0.7074
N2320 G1 X0.0198 Y0.7093
N2330 G1 X0.032 Y0.7121
N2340 G1 X0.0456 Y0.7165
N2350 G1 X0.0595 Y0.7222
N2360 G1 X0.0741 Y0.7296
N2370 G1 X0.0897 Y0.7392
N2380 G1 X0.105 Y0.7504
N2390 G1 X0.1216 Y0.7647
N2400 G1 X0.138 Y0.7813
N2410 G1 X0.1547 Y0.8012
N2420 G1 X0.1719 Y0.8254
N2430 G1 X0.1883 Y0.8529
N2440 G1 X0.2045 Y0.8858
N2450 G1 X0.2181 Y0.9202
N2460 G1 X0.2293 Y0.9554
N2470 G1 X0.2386 Y0.9912
N2480 G1 X0.2461 Y1.0275
N2490 G1 X0.2522 Y1.064
N2500 G1 X0.2571 Y1.1006
N2510 G1 X0.2611 Y1.1374
N2520 G1 X0.2642 Y1.1743
N2530 G1 X0.2667 Y1.2112
N2540 G1 X0.2687 Y1.2482
N2550 G1 X0.2714 Y1.3221
N2560 G1 X0.2736 Y1.4331
N2570 G1 X0.2748 Y1.5811
N2580 G1 X0.2754 Y1.9141
N2590 G1 X0.2751 Y1.9881
N2600 G1 X0.2743 Y2.0251
N2610 G1 X0.2726 Y2.0621
N2620 G1 X0.2695 Y2.099
N2630 G1 X0.2645 Y2.1356
N2640 G1 X0.2572 Y2.1719
N2650 G1 X0.2477 Y2.2077
N2660 G1 X0.2364 Y2.2404
N2670 G1 X0.2239 Y2.2691
N2680 G1 X0.2108 Y2.2933
N2690 G1 X0.1956 Y2.3169
N2700 G1 X0.1802 Y2.3371
N2710 G1 X0.1667 Y2.352
N2720 G1 X0.1531 Y2.3648
N2730 G1 X0.1405 Y2.375
N2740 G1 X0.1277 Y2.3836
N2750 G1 X0.1154 Y2.3906
N2760 G1 X0.1032 Y2.3963
N2770 G1 X0.0909 Y2.4004
N2780 G1 X0.078 Y2.4017
N2790 G1 X0.0651 Y2.4001
N2800 G1 X0.0529 Y2.3957
N2810 G1 X0.042 Y2.3887
N2820 G1 X0.0328 Y2.3795
N2830 G3 X0.0287 Y2.3707 R0.025
N2840 G1 X0.0278 Y2.3669 Z-0.1997
N2850 G1 X0.0269 Y2.3632 Z-0.1988
N2860 G1 X0.026 Y2.3596 Z-0.1973
N2870 G1 X0.0252 Y2.3564 Z-0.1952
N2880 G1 X0.0245 Y2.3535 Z-0.1927
N2890 G1 X0.0239 Y2.351 Z-0.1897
N2900 G1 X0.0234 Y2.349 Z-0.1863
N2910 G1 X0.023 Y2.3476 Z-0.1827
N2920 G1 X0.0228 Y2.3467 Z-0.1789
N2930 G1 X0.0227 Y2.3464 Z-0.175
N2940 G0 Z0.2
N2950 G0 X-0.0117 Y0.7367
N2960 G0 Z-0.15
N2970 G1 Z-0.175 F24.
N2980 G1 X-0.0119 Y0.7365 Z-0.1789
N2990 G1 X-0.0126 Y0.7359 Z-0.1827
N3000 G1 X-0.0137 Y0.7349 Z-0.1863
N3010 G1 X-0.0152 Y0.7335 Z-0.1897
N3020 G1 X-0.0171 Y0.7318 Z-0.1927
N3030 G1 X-0.0193 Y0.7298 Z-0.1952
N3040 G1 X-0.0218 Y0.7276 Z-0.1973
N3050 G1 X-0.0245 Y0.7251 Z-0.1988
N3060 G1 X-0.0273 Y0.7226 Z-0.1997
N3070 G1 X-0.0302 Y0.7199 Z-0.2
N3080 G3 X-0.0317 Y0.7102 R0.0078
N3090 G1 X-0.0106 Y0.6766
N3100 G1 X-0.0073 Y0.672
N3110 G1 X-0.0065 Y0.6709
N3120 G1 X0.0015 Y0.6678
N3130 G1 X0.01 Y0.6652
N3140 G1 X0.0199 Y0.6631
N3150 G1 X0.0304 Y0.6617
N3160 G1 X0.0422 Y0.6611
N3170 G1 X0.0549 Y0.6615
N3180 G1 X0.0683 Y0.6629
N3190 G1 X0.0833 Y0.6658
N3200 G1 X0.0984 Y0.67
N3210 G1 X0.1149 Y0.676
N3220 G1 X0.1324 Y0.6841
N3230 G1 X0.1499 Y0.6938
N3240 G1 X0.1689 Y0.7066
N3250 G1 X0.1882 Y0.7219
N3260 G1 X0.2073 Y0.7398
N3270 G1 X0.2275 Y0.762
N3280 G1 X0.2474 Y0.7877
N3290 G1 X0.2664 Y0.8169
N3300 G1 X0.2841 Y0.8494
N3310 G1 X0.2993 Y0.8832
N3320 G1 X0.3123 Y0.9178
N3330 G1 X0.3234 Y0.9531
N3340 G1 X0.3327 Y0.9889
N3350 G1 X0.3406 Y1.0251
N3360 G1 X0.3471 Y1.0615
N3370 G1 X0.3525 Y1.0981
N3380 G1 X0.357 Y1.1348
N3390 G1 X0.3607 Y1.1717
N3400 G1 X0.3637 Y1.2085
N3410 G1 X0.3661 Y1.2455
N3420 G1 X0.3696 Y1.3194
N3430 G1 X0.3719 Y1.3934
N3440 G1 X0.3738 Y1.5043
N3450 G1 X0.375 Y1.6894
N3460 G1 X0.3752 Y1.9114
N3470 G1 X0.3748 Y1.9484
N3480 G1 X0.3741 Y1.9854
N3490 G1 X0.3726 Y2.0223
N3500 G1 X0.3701 Y2.0593
N3510 G1 X0.3663 Y2.0961
N3520 G1 X0.361 Y2.1327
N3530 G1 X0.3541 Y2.169
N3540 G1 X0.3453 Y2.205
N3550 G1 X0.3345 Y2.2404
N3560 G1 X0.3213 Y2.2749
N3570 G1 X0.3056 Y2.3085
N3580 G1 X0.2884 Y2.3389
N3590 G1 X0.2706 Y2.3653
N3600 G1 X0.2527 Y2.3875
N3610 G1 X0.2343 Y2.407
N3620 G1 X0.2162 Y2.4234
N3630 G1 X0.1991 Y2.4365
N3640 G1 X0.1839 Y2.4463
N3650 G1 X0.1692 Y2.4542
N3660 G1 X0.1553 Y2.4603
N3670 G1 X0.1484 Y2.4627
N3680 G1 X0.1368 Y2.4654
N3690 G1 X0.125 Y2.4657
N3700 G1 X0.1133 Y2.4636
N3710 G1 X0.1022 Y2.4591
N3720 G1 X0.0923 Y2.4526
N3730 G1 X0.084 Y2.4441
N3740 G3 X0.0797 Y2.4353 R0.025
N3750 G1 X0.0788 Y2.4315 Z-0.1997
N3760 G1 X0.0778 Y2.4278 Z-0.1988
N3770 G1 X0.0769 Y2.4243 Z-0.1973
N3780 G1 X0.0761 Y2.4211 Z-0.1952
N3790 G1 X0.0754 Y2.4182 Z-0.1927
N3800 G1 X0.0747 Y2.4157 Z-0.1897
N3810 G1 X0.0742 Y2.4137 Z-0.1863
N3820 G1 X0.0738 Y2.4123 Z-0.1827
N3830 G1 X0.0736 Y2.4114 Z-0.1789
N3840 G1 X0.0735 Y2.4111 Z-0.175
N3850 G0 Z0.2
N3860 G0 X0.0199 Y0.6638
N3870 G0 Z-0.15
N3880 G1 Z-0.175 F24.
N3890 G1 X0.0196 Y0.664 Z-0.1789
N3900 G1 X0.0189 Y0.6646 Z-0.1827
N3910 G1 X0.0177 Y0.6655 Z-0.1863
N3920 G1 X0.0161 Y0.6667 Z-0.1897
N3930 G1 X0.014 Y0.6682 Z-0.1927
N3940 G1 X0.0116 Y0.67 Z-0.1952
N3950 G1 X0.0089 Y0.672 Z-0.1973
N3960 G1 X0.006 Y0.6741 Z-0.1988
N3970 G1 X0.003 Y0.6764 Z-0.1997
N3980 G1 X-0.0002 Y0.6787 Z-0.2
N3990 G3 X-0.0073 Y0.672 R0.005
N4000 G1 X0.0075 Y0.6514
N4010 G1 X0.021 Y0.6346
N4020 G1 X0.0246 Y0.6306
N4030 G1 X0.0311 Y0.6266
N4040 G1 X0.0386 Y0.6228
N4050 G1 X0.0472 Y0.6192
N4060 G1 X0.0567 Y0.6162
N4070 G1 X0.0675 Y0.6136
N4080 G1 X0.0792 Y0.6119
N4090 G1 X0.0925 Y0.6109
N4100 G1 X0.1061 Y0.6111
N4110 G1 X0.1218 Y0.6125
N4120 G1 X0.138 Y0.6153
N4130 G1 X0.1555 Y0.6198
N4140 G1 X0.1746 Y0.6264
N4150 G1 X0.1937 Y0.6347
N4160 G1 X0.2143 Y0.6459
N4170 G1 X0.2364 Y0.6601
N4180 G1 X0.2577 Y0.6764
N4190 G1 X0.2801 Y0.6966
N4200 G1 X0.3032 Y0.721
N4210 G1 X0.3259 Y0.7493
N4220 G1 X0.3467 Y0.78
N4230 G1 X0.3651 Y0.812
N4240 G1 X0.3813 Y0.8453
N4250 G1 X0.3955 Y0.8795
N4260 G1 X0.4079 Y0.9143
N4270 G1 X0.4187 Y0.9497
N4280 G1 X0.4279 Y0.9856
N4290 G1 X0.4359 Y1.0217
N4300 G1 X0.4427 Y1.0581
N4310 G1 X0.4484 Y1.0946
N4320 G1 X0.4533 Y1.1313
N4330 G1 X0.4573 Y1.1681
N4340 G1 X0.4607 Y1.2049
N4350 G1 X0.4635 Y1.2418
N4360 G1 X0.4658 Y1.2788
N4370 G1 X0.4692 Y1.3527
N4380 G1 X0.4715 Y1.4267
N4390 G1 X0.4735 Y1.5377
N4400 G1 X0.4749 Y1.7227
N4410 G1 X0.475 Y1.8707
N4420 G1 X0.4739 Y1.9447
N4430 G1 X0.4727 Y1.9817
N4440 G1 X0.4707 Y2.0186
N4450 G1 X0.4677 Y2.0555
N4460 G1 X0.4637 Y2.0923
N4470 G1 X0.4584 Y2.1289
N4480 G1 X0.4518 Y2.1653
N4490 G1 X0.4437 Y2.2014
N4500 G1 X0.4339 Y2.2371
N4510 G1 X0.4222 Y2.2722
N4520 G1 X0.4085 Y2.3066
N4530 G1 X0.3928 Y2.3401
N4540 G1 X0.3749 Y2.3724
N4550 G1 X0.3547 Y2.4035
N4560 G1 X0.3329 Y2.432
N4570 G1 X0.3113 Y2.456
N4580 G1 X0.2893 Y2.4767
N4590 G1 X0.268 Y2.4939
N4600 G1 X0.2489 Y2.5068
N4610 G1 X0.2326 Y2.5161
N4620 G1 X0.2163 Y2.5237
N4630 G1 X0.211 Y2.5257
N4640 G1 X0.1982 Y2.5289
N4650 G1 X0.185 Y2.5291
N4660 G1 X0.172 Y2.5263
N4670 G1 X0.1601 Y2.5207
N4680 G1 X0.1497 Y2.5125
N4690 G1 X0.1032 Y2.4662
N4700 G1 X0.0859 Y2.4465
N4710 G1 X0.084 Y2.4441
N4720 G3 X0.0797 Y2.4353 R0.025
N4730 G1 X0.0788 Y2.4315 Z-0.1997
N4740 G1 X0.0778 Y2.4278 Z-0.1988
N4750 G1 X0.0769 Y2.4243 Z-0.1973
N4760 G1 X0.0761 Y2.4211 Z-0.1952
N4770 G1 X0.0754 Y2.4182 Z-0.1927
N4780 G1 X0.0747 Y2.4157 Z-0.1897
N4790 G1 X0.0742 Y2.4137 Z-0.1863
N4800 G1 X0.0738 Y2.4123 Z-0.1827
N4810 G1 X0.0736 Y2.4114 Z-0.1789
N4820 G1 X0.0735 Y2.4111 Z-0.175
N4830 G0 Z0.2
N4840 G0 X0.0376 Y0.6634
N4850 G0 Z-0.15
N4860 G1 Z-0.175 F24.
N4870 G1 X0.0374 Y0.6631 Z-0.1789
N4880 G1 X0.0368 Y0.6624 Z-0.1827
N4890 G1 X0.0359 Y0.6613 Z-0.1863
N4900 G1 X0.0345 Y0.6597 Z-0.1897
N4910 G1 X0.0329 Y0.6578 Z-0.1927
N4920 G1 X0.0309 Y0.6556 Z-0.1952
N4930 G1 X0.0287 Y0.653 Z-0.1973
N4940 G1 X0.0264 Y0.6503 Z-0.1988
N4950 G1 X0.0239 Y0.6474 Z-0.1997
N4960 G1 X0.0213 Y0.6444 Z-0.2
N4970 G3 X0.021 Y0.6346 R0.0078
N4980 G1 X0.0571 Y0.5901
N4990 G1 X0.0607 Y0.586
N5000 G1 X0.0661 Y0.5816
N5010 G1 X0.0728 Y0.577
N5020 G1 X0.0801 Y0.5727
N5030 G1 X0.0888 Y0.5684
N5040 G1 X0.0983 Y0.5648
N5050 G1 X0.1095 Y0.5615
N5060 G1 X0.1214 Y0.5589
N5070 G1 X0.1349 Y0.5572
N5080 G1 X0.1497 Y0.5565
N5090 G1 X0.1655 Y0.557
N5100 G1 X0.1835 Y0.559
N5110 G1 X0.2017 Y0.5626
N5120 G1 X0.2219 Y0.5682
N5130 G1 X0.2436 Y0.5763
N5140 G1 X0.2653 Y0.5863
N5150 G1 X0.2892 Y0.5998
N5160 G1 X0.3142 Y0.6168
N5170 G1 X0.3385 Y0.6362
N5180 G1 X0.3638 Y0.66
N5190 G1 X0.3886 Y0.6874
N5200 G1 X0.4112 Y0.7167
N5210 G1 X0.4317 Y0.7475
N5220 G1 X0.4502 Y0.7796
N5230 G1 X0.4668 Y0.8126
N5240 G1 X0.4816 Y0.8466
N5250 G1 X0.4947 Y0.8811
N5260 G1 X0.5063 Y0.9163
N5270 G1 X0.5165 Y0.9519
N5280 G1 X0.5254 Y0.9878
N5290 G1 X0.5332 Y1.024
N5300 G1 X0.5399 Y1.0603
N5310 G1 X0.5456 Y1.0969
N5320 G1 X0.5506 Y1.1336
N5330 G1 X0.5548 Y1.1703
N5340 G1 X0.5584 Y1.2072
N5350 G1 X0.5614 Y1.244
N5360 G1 X0.5639 Y1.281
N5370 G1 X0.5678 Y1.3549
N5380 G1 X0.5704 Y1.4288
N5390 G1 X0.5728 Y1.5398
N5400 G1 X0.5744 Y1.6878
N5410 G1 X0.5748 Y1.7988
N5420 G1 X0.5743 Y1.8728
N5430 G1 X0.5736 Y1.9098
N5440 G1 X0.5725 Y1.9468
N5450 G1 X0.5708 Y1.9838
N5460 G1 X0.5684 Y2.0207
N5470 G1 X0.5651 Y2.0575
N5480 G1 X0.5608 Y2.0943
N5490 G1 X0.5555 Y2.1309
N5500 G1 X0.5489 Y2.1673
N5510 G1 X0.541 Y2.2035
N5520 G1 X0.5317 Y2.2393
N5530 G1 X0.5209 Y2.2747
N5540 G1 X0.5085 Y2.3095
N5550 G1 X0.4943 Y2.3437
N5560 G1 X0.4783 Y2.3771
N5570 G1 X0.4604 Y2.4095
N5580 G1 X0.4406 Y2.4407
N5590 G1 X0.4189 Y2.4707
N5600 G1 X0.3952 Y2.4991
N5610 G1 X0.3696 Y2.5255
N5620 G1 X0.345 Y2.5471
N5630 G1 X0.3238 Y2.5628
N5640 G1 X0.3045 Y2.5749
N5650 G1 X0.2879 Y2.5835
N5660 G1 X0.2776 Y2.5878
N5670 G1 X0.2651 Y2.5915
N5680 G1 X0.252 Y2.5923
N5690 G1 X0.2391 Y2.5902
N5700 G1 X0.227 Y2.5853
N5710 G1 X0.2163 Y2.5778
N5720 G1 X0.1878 Y2.5502
N5730 G1 X0.1497 Y2.5125
N5740 G3 X0.1445 Y2.5042 R0.025
N5750 G1 X0.1431 Y2.5006 Z-0.1997
N5760 G1 X0.1417 Y2.497 Z-0.1988
N5770 G1 X0.1405 Y2.4936 Z-0.1973
N5780 G1 X0.1393 Y2.4905 Z-0.1952
N5790 G1 X0.1382 Y2.4877 Z-0.1927
N5800 G1 X0.1373 Y2.4853 Z-0.1897
N5810 G1 X0.1366 Y2.4834 Z-0.1863
N5820 G1 X0.136 Y2.482 Z-0.1827
N5830 G1 X0.1357 Y2.4811 Z-0.1789
N5840 G1 X0.1356 Y2.4808 Z-0.175
N5850 G0 Z0.2
N5860 G0 X0.0738 Y0.6188
N5870 G0 Z-0.15
N5880 G1 Z-0.175 F24.
N5890 G1 X0.0736 Y0.6186 Z-0.1789
N5900 G1 X0.073 Y0.6179 Z-0.1827
N5910 G1 X0.072 Y0.6167 Z-0.1863
N5920 G1 X0.0707 Y0.6152 Z-0.1897
N5930 G1 X0.069 Y0.6133 Z-0.1927
N5940 G1 X0.0671 Y0.611 Z-0.1952
N5950 G1 X0.0649 Y0.6085 Z-0.1973
N5960 G1 X0.0625 Y0.6057 Z-0.1988
N5970 G1 X0.06 Y0.6028 Z-0.1997
N5980 G1 X0.0575 Y0.5999 Z-0.2
N5990 G3 X0.0571 Y0.5901 R0.0078
N6000 G1 X0.097 Y0.5411
N6010 G1 X0.104 Y0.5336
N6020 G1 X0.1092 Y0.5288
N6030 G1 X0.1158 Y0.5238
N6040 G1 X0.123 Y0.5191
N6050 G1 X0.1317 Y0.5143
N6060 G1 X0.1412 Y0.5101
N6070 G1 X0.1524 Y0.5061
N6080 G1 X0.1646 Y0.5029
N6090 G1 X0.1785 Y0.5004
N6100 G1 X0.1937 Y0.499
N6110 G1 X0.2101 Y0.4987
N6120 G1 X0.2288 Y0.4999
N6130 G1 X0.2479 Y0.5026
N6140 G1 X0.2696 Y0.5076
N6150 G1 X0.2924 Y0.5148
N6160 G1 X0.316 Y0.5243
N6170 G1 X0.3418 Y0.5373
N6180 G1 X0.3687 Y0.5536
N6190 G1 X0.3953 Y0.5728
N6200 G1 X0.4231 Y0.5965
N6210 G1 X0.4493 Y0.6227
N6220 G1 X0.4734 Y0.6508
N6230 G1 X0.4956 Y0.6804
N6240 G1 X0.516 Y0.7112
N6250 G1 X0.5347 Y0.7432
N6260 G1 X0.5516 Y0.7761
N6270 G1 X0.5669 Y0.8098
N6280 G1 X0.5807 Y0.8441
N6290 G1 X0.593 Y0.879
N6300 G1 X0.6041 Y0.9143
N6310 G1 X0.6139 Y0.95
N6320 G1 X0.6225 Y0.986
N6330 G1 X0.6302 Y1.0222
N6340 G1 X0.6369 Y1.0586
N6350 G1 X0.6427 Y1.0951
N6360 G1 X0.6478 Y1.1318
N6370 G1 X0.6522 Y1.1685
N6380 G1 X0.6559 Y1.2053
N6390 G1 X0.6592 Y1.2422
N6400 G1 X0.6619 Y1.2791
N6410 G1 X0.6662 Y1.353
N6420 G1 X0.6692 Y1.4269
N6430 G1 X0.6721 Y1.5379
N6440 G1 X0.6737 Y1.6489
N6450 G1 X0.6743 Y1.7599
N6460 G1 X0.674 Y1.8339
N6470 G1 X0.6725 Y1.9079
N6480 G1 X0.6712 Y1.9449
N6490 G1 X0.6692 Y1.9818
N6500 G1 X0.6665 Y2.0187
N6510 G1 X0.6631 Y2.0556
N6520 G1 X0.6588 Y2.0923
N6530 G1 X0.6535 Y2.1289
N6540 G1 X0.6471 Y2.1654
N6550 G1 X0.6396 Y2.2016
N6560 G1 X0.6309 Y2.2376
N6570 G1 X0.6209 Y2.2732
N6580 G1 X0.6096 Y2.3084
N6590 G1 X0.5968 Y2.3431
N6600 G1 X0.5824 Y2.3772
N6610 G1 X0.5664 Y2.4106
N6620 G1 X0.5488 Y2.4431
N6630 G1 X0.5296 Y2.4748
N6640 G1 X0.5087 Y2.5053
N6650 G1 X0.4862 Y2.5347
N6660 G1 X0.4619 Y2.5626
N6670 G1 X0.4357 Y2.5888
N6680 G1 X0.4094 Y2.6113
N6690 G1 X0.3869 Y2.6277
N6700 G1 X0.3684 Y2.6389
N6710 G1 X0.3559 Y2.6452
N6720 G1 X0.3436 Y2.6498
N6730 G1 X0.3307 Y2.6515
N6740 G1 X0.3176 Y2.6502
N6750 G1 X0.3052 Y2.6461
N6760 G1 X0.294 Y2.6393
N6770 G1 X0.2314 Y2.5909
N6780 G1 X0.2163 Y2.5778
N6790 G3 X0.2107 Y2.5698 R0.025
N6800 G1 X0.2091 Y2.5662 Z-0.1997
N6810 G1 X0.2075 Y2.5627 Z-0.1988
N6820 G1 X0.2061 Y2.5594 Z-0.1973
N6830 G1 X0.2047 Y2.5564 Z-0.1952
N6840 G1 X0.2035 Y2.5536 Z-0.1927
N6850 G1 X0.2025 Y2.5513 Z-0.1897
N6860 G1 X0.2016 Y2.5494 Z-0.1863
N6870 G1 X0.201 Y2.5481 Z-0.1827
N6880 G1 X0.2006 Y2.5472 Z-0.1789
N6890 G1 X0.2005 Y2.547 Z-0.175
N6900 G0 Z0.2
N6910 G0 X0.1134 Y0.57
N6920 G0 Z-0.15
N6930 G1 Z-0.175 F24.
N6940 G1 X0.1132 Y0.5698 Z-0.1789
N6950 G1 X0.1126 Y0.5691 Z-0.1827
N6960 G1 X0.1116 Y0.568 Z-0.1863
N6970 G1 X0.1103 Y0.5664 Z-0.1897
N6980 G1 X0.1086 Y0.5644 Z-0.1927
N6990 G1 X0.1067 Y0.5622 Z-0.1952
N7000 G1 X0.1046 Y0.5596 Z-0.1973
N7010 G1 X0.1022 Y0.5569 Z-0.1988
N7020 G1 X0.0997 Y0.5539 Z-0.1997
N7030 G1 X0.0972 Y0.551 Z-0.2
N7040 G3 X0.097 Y0.5411 R0.0078
N7050 G1 X0.1054 Y0.5314
N7060 G1 X0.1222 Y0.5137
N7070 G1 X0.1623 Y0.475
N7080 G1 X0.1682 Y0.4698
N7090 G1 X0.175 Y0.4648
N7100 G1 X0.1826 Y0.46
N7110 G1 X0.1917 Y0.4554
N7120 G1 X0.2019 Y0.4511
N7130 G1 X0.2136 Y0.4473
N7140 G1 X0.2267 Y0.4442
N7150 G1 X0.2414 Y0.4419
N7160 G1 X0.2573 Y0.4407
N7170 G1 X0.2758 Y0.4409
N7180 G1 X0.2947 Y0.4425
N7190 G1 X0.3167 Y0.4462
N7200 G1 X0.3393 Y0.452
N7210 G1 X0.3638 Y0.4603
N7220 G1 X0.3909 Y0.472
N7230 G1 X0.418 Y0.4864
N7240 G1 X0.4465 Y0.5046
N7250 G1 X0.476 Y0.527
N7260 G1 X0.5036 Y0.5516
N7270 G1 X0.5294 Y0.5782
N7280 G1 X0.5534 Y0.6063
N7290 G1 X0.5758 Y0.6358
N7300 G1 X0.5964 Y0.6665
N7310 G1 X0.6155 Y0.6982
N7320 G1 X0.633 Y0.7308
N7330 G1 X0.649 Y0.7642
N7340 G1 X0.6636 Y0.7982
N7350 G1 X0.6768 Y0.8327
N7360 G1 X0.6888 Y0.8677
N7370 G1 X0.6996 Y0.9031
N7380 G1 X0.7093 Y0.9388
N7390 G1 X0.718 Y0.9748
N7400 G1 X0.7258 Y1.011
N7410 G1 X0.7326 Y1.0473
N7420 G1 X0.7387 Y1.0838
N7430 G1 X0.744 Y1.1205
N7440 G1 X0.7487 Y1.1572
N7450 G1 X0.7528 Y1.1939
N7460 G1 X0.7563 Y1.2308
N7470 G1 X0.7593 Y1.2677
N7480 G1 X0.7641 Y1.3415
N7490 G1 X0.7676 Y1.4154
N7500 G1 X0.7701 Y1.4894
N7510 G1 X0.7725 Y1.6004
N7520 G1 X0.7737 Y1.7114
N7530 G1 Y1.7854
N7540 G1 X0.7727 Y1.8594
N7550 G1 X0.7717 Y1.8964
N7560 G1 X0.7702 Y1.9333
N7570 G1 X0.7682 Y1.9703
N7580 G1 X0.7656 Y2.0072
N7590 G1 X0.7622 Y2.044
N7600 G1 X0.7581 Y2.0808
N7610 G1 X0.7532 Y2.1175
N7620 G1 X0.7473 Y2.154
N7630 G1 X0.7404 Y2.1904
N7640 G1 X0.7325 Y2.2265
N7650 G1 X0.7235 Y2.2624
N7660 G1 X0.7133 Y2.298
N7670 G1 X0.7018 Y2.3332
N7680 G1 X0.689 Y2.3679
N7690 G1 X0.6749 Y2.4021
N7700 G1 X0.6593 Y2.4356
N7710 G1 X0.6424 Y2.4685
N7720 G1 X0.624 Y2.5007
N7730 G1 X0.6043 Y2.532
N7740 G1 X0.583 Y2.5623
N7750 G1 X0.5602 Y2.5914
N7760 G1 X0.5358 Y2.6192
N7770 G1 X0.5097 Y2.6455
N7780 G1 X0.4831 Y2.6689
N7790 G1 X0.4608 Y2.6855
N7800 G1 X0.443 Y2.6967
N7810 G1 X0.4334 Y2.7017
N7820 G1 X0.4224 Y2.7061
N7830 G1 X0.4107 Y2.7082
N7840 G1 X0.3989 Y2.7079
N7850 G1 X0.3874 Y2.7051
N7860 G1 X0.3766 Y2.7001
N7870 G1 X0.3654 Y2.6931
N7880 G1 X0.3407 Y2.6754
N7890 G1 X0.294 Y2.6393
N7900 G3 X0.2878 Y2.6318 R0.025
N7910 G1 X0.286 Y2.6283 Z-0.1997
N7920 G1 X0.2842 Y2.6249 Z-0.1988
N7930 G1 X0.2825 Y2.6217 Z-0.1973
N7940 G1 X0.281 Y2.6188 Z-0.1952
N7950 G1 X0.2796 Y2.6161 Z-0.1927
N7960 G1 X0.2784 Y2.6139 Z-0.1897
N7970 G1 X0.2774 Y2.6121 Z-0.1863
N7980 G1 X0.2767 Y2.6107 Z-0.1827
N7990 G1 X0.2763 Y2.6099 Z-0.1789
N8000 G1 X0.2762 Y2.6097 Z-0.175
N8010 G0 Z0.2
N8020 G0 X0.1753 Y0.5055
N8030 G0 Z-0.15
N8040 G1 Z-0.175 F24.
N8050 G1 X0.1751 Y0.5053 Z-0.1789
N8060 G1 X0.1746 Y0.5045 Z-0.1827
N8070 G1 X0.1738 Y0.5033 Z-0.1863
N8080 G1 X0.1726 Y0.5016 Z-0.1897
N8090 G1 X0.1712 Y0.4995 Z-0.1927
N8100 G1 X0.1696 Y0.497 Z-0.1952
N8110 G1 X0.1677 Y0.4942 Z-0.1973
N8120 G1 X0.1657 Y0.4912 Z-0.1988
N8130 G1 X0.1636 Y0.488 Z-0.1997
N8140 G1 X0.1614 Y0.4848 Z-0.2
N8150 G3 X0.1623 Y0.475 R0.0078
N8160 G1 X0.223 Y0.4167
N8170 G1 X0.2303 Y0.4106
N8180 G1 X0.2371 Y0.4058
N8190 G1 X0.2455 Y0.4008
N8200 G1 X0.2545 Y0.3963
N8210 G1 X0.2656 Y0.3919
N8220 G1 X0.2774 Y0.3884
N8230 G1 X0.2915 Y0.3852
N8240 G1 X0.3063 Y0.3832
N8250 G1 X0.324 Y0.3823
N8260 G1 X0.3423 Y0.3827
N8270 G1 X0.3634 Y0.3849
N8280 G1 X0.3859 Y0.3892
N8290 G1 X0.4099 Y0.3957
N8300 G1 X0.4371 Y0.4056
N8310 G1 X0.4647 Y0.4181
N8320 G1 X0.4939 Y0.4343
N8330 G1 X0.5247 Y0.4549
N8340 G1 X0.5538 Y0.4777
N8350 G1 X0.5811 Y0.5026
N8360 G1 X0.6069 Y0.5292
N8370 G1 X0.631 Y0.5572
N8380 G1 X0.6536 Y0.5866
N8390 G1 X0.6747 Y0.617
N8400 G1 X0.6942 Y0.6484
N8410 G1 X0.7123 Y0.6807
N8420 G1 X0.729 Y0.7137
N8430 G1 X0.7444 Y0.7473
N8440 G1 X0.7586 Y0.7815
N8450 G1 X0.7715 Y0.8162
N8460 G1 X0.7834 Y0.8512
N8470 G1 X0.7941 Y0.8866
N8480 G1 X0.8039 Y0.9223
N8490 G1 X0.8127 Y0.9583
N8500 G1 X0.8207 Y0.9944
N8510 G1 X0.8278 Y1.0307
N8520 G1 X0.8341 Y1.0672
N8530 G1 X0.8397 Y1.1038
N8540 G1 X0.8447 Y1.1404
N8550 G1 X0.8491 Y1.1772
N8560 G1 X0.8529 Y1.214
N8570 G1 X0.8563 Y1.2508
N8580 G1 X0.8617 Y1.3246
N8590 G1 X0.8657 Y1.3985
N8600 G1 X0.8686 Y1.4725
N8610 G1 X0.8715 Y1.5834
N8620 G1 X0.873 Y1.6944
N8630 G1 Y1.7684
N8640 G1 X0.872 Y1.8424
N8650 G1 X0.871 Y1.8794
N8660 G1 X0.8696 Y1.9164
N8670 G1 X0.8676 Y1.9534
N8680 G1 X0.8651 Y1.9903
N8690 G1 X0.862 Y2.0272
N8700 G1 X0.8582 Y2.064
N8710 G1 X0.8537 Y2.1007
N8720 G1 X0.8483 Y2.1373
N8730 G1 X0.8421 Y2.1738
N8740 G1 X0.835 Y2.2101
N8750 G1 X0.8269 Y2.2462
N8760 G1 X0.8178 Y2.2821
N8770 G1 X0.8076 Y2.3176
N8780 G1 X0.7962 Y2.3528
N8790 G1 X0.7836 Y2.3876
N8800 G1 X0.7699 Y2.422
N8810 G1 X0.7549 Y2.4558
N8820 G1 X0.7387 Y2.4891
N8830 G1 X0.7212 Y2.5217
N8840 G1 X0.7025 Y2.5536
N8850 G1 X0.6825 Y2.5848
N8860 G1 X0.6611 Y2.6149
N8870 G1 X0.6382 Y2.644
N8880 G1 X0.614 Y2.672
N8890 G1 X0.5882 Y2.6986
N8900 G1 X0.561 Y2.7233
N8910 G1 X0.5392 Y2.7402
N8920 G1 X0.5204 Y2.7524
N8930 G1 X0.5093 Y2.757
N8940 G1 X0.4975 Y2.7592
N8950 G1 X0.4855 Y2.759
N8960 G1 X0.4738 Y2.7563
N8970 G1 X0.4628 Y2.7513
N8980 G1 X0.3766 Y2.7001
N8990 G3 X0.3696 Y2.6934 R0.025
N9000 G1 X0.3674 Y2.6902 Z-0.1997
N9010 G1 X0.3652 Y2.687 Z-0.1988
N9020 G1 X0.3631 Y2.684 Z-0.1973
N9030 G1 X0.3612 Y2.6813 Z-0.1952
N9040 G1 X0.3595 Y2.6788 Z-0.1927
N9050 G1 X0.3581 Y2.6767 Z-0.1897
N9060 G1 X0.3569 Y2.6751 Z-0.1863
N9070 G1 X0.356 Y2.6738 Z-0.1827
N9080 G1 X0.3555 Y2.6731 Z-0.1789
N9090 G1 X0.3553 Y2.6728 Z-0.175
N9100 G0 Z0.2
N9110 G0 X0.2357 Y0.4474
N9120 G0 Z-0.15
N9130 G1 Z-0.175 F24.
N9140 G1 X0.2355 Y0.4471 Z-0.1789
N9150 G1 X0.235 Y0.4464 Z-0.1827
N9160 G1 X0.2342 Y0.4451 Z-0.1863
N9170 G1 X0.2331 Y0.4434 Z-0.1897
N9180 G1 X0.2317 Y0.4413 Z-0.1927
N9190 G1 X0.23 Y0.4388 Z-0.1952
N9200 G1 X0.2282 Y0.436 Z-0.1973
N9210 G1 X0.2262 Y0.4329 Z-0.1988
N9220 G1 X0.2242 Y0.4297 Z-0.1997
N9230 G1 X0.222 Y0.4264 Z-0.2
N9240 G3 X0.223 Y0.4167 R0.0078
N9250 G1 X0.2329 Y0.4078
N9260 G1 X0.2566 Y0.3886
N9270 G1 X0.3071 Y0.3508
N9280 G1 X0.3116 Y0.3477
N9290 G1 X0.3197 Y0.3431
N9300 G1 X0.3289 Y0.3388
N9310 G1 X0.34 Y0.3348
N9320 G1 X0.3518 Y0.3315
N9330 G1 X0.3663 Y0.3287
N9340 G1 X0.3813 Y0.327
N9350 G1 X0.3993 Y0.3264
N9360 G1 X0.4178 Y0.3273
N9370 G1 X0.4395 Y0.3302
N9380 G1 X0.4624 Y0.335
N9390 G1 X0.4876 Y0.3425
N9400 G1 X0.5156 Y0.3534
N9410 G1 X0.5445 Y0.3674
N9420 G1 X0.5754 Y0.3856
N9430 G1 X0.6057 Y0.4068
N9440 G1 X0.6344 Y0.4302
N9450 G1 X0.6615 Y0.4554
N9460 G1 X0.6871 Y0.4822
N9470 G1 X0.7111 Y0.5103
N9480 G1 X0.7338 Y0.5395
N9490 G1 X0.755 Y0.5698
N9500 G1 X0.7748 Y0.6011
N9510 G1 X0.7934 Y0.6331
N9520 G1 X0.8106 Y0.6659
N9530 G1 X0.8266 Y0.6992
N9540 G1 X0.8414 Y0.7331
N9550 G1 X0.8551 Y0.7675
N9560 G1 X0.8677 Y0.8023
N9570 G1 X0.8793 Y0.8374
N9580 G1 X0.8899 Y0.8729
N9590 G1 X0.8996 Y0.9086
N9600 G1 X0.9084 Y0.9445
N9610 G1 X0.9164 Y0.9807
N9620 G1 X0.9236 Y1.017
N9630 G1 X0.9301 Y1.0534
N9640 G1 X0.9359 Y1.0899
N9650 G1 X0.9411 Y1.1266
N9660 G1 X0.9457 Y1.1633
N9670 G1 X0.9498 Y1.2001
N9680 G1 X0.9534 Y1.2369
N9690 G1 X0.9593 Y1.3107
N9700 G1 X0.9638 Y1.3845
N9710 G1 X0.9671 Y1.4585
N9720 G1 X0.9705 Y1.5694
N9730 G1 X0.9722 Y1.6804
N9740 G1 X0.9723 Y1.7544
N9750 G1 X0.9713 Y1.8284
N9760 G1 X0.9702 Y1.8654
N9770 G1 X0.9688 Y1.9024
N9780 G1 X0.9669 Y1.9393
N9790 G1 X0.9645 Y1.9763
N9800 G1 X0.9616 Y2.0131
N9810 G1 X0.958 Y2.05
N9820 G1 X0.9538 Y2.0867
N9830 G1 X0.9488 Y2.1234
N9840 G1 X0.9431 Y2.16
N9850 G1 X0.9365 Y2.1964
N9860 G1 X0.9291 Y2.2326
N9870 G1 X0.9208 Y2.2687
N9880 G1 X0.9116 Y2.3045
N9890 G1 X0.9013 Y2.3401
N9900 G1 X0.89 Y2.3753
N9910 G1 X0.8776 Y2.4101
N9920 G1 X0.8641 Y2.4446
N9930 G1 X0.8495 Y2.4786
N9940 G1 X0.8338 Y2.5121
N9950 G1 X0.817 Y2.5451
N9960 G1 X0.799 Y2.5774
N9970 G1 X0.7798 Y2.6091
N9980 G1 X0.7595 Y2.64
N9990 G1 X0.7379 Y2.67
N10000 G1 X0.715 Y2.6991
N10010 G1 X0.6908 Y2.7271
N10020 G1 X0.6651 Y2.7537
N10030 G1 X0.6404 Y2.7765
N10040 G1 X0.6212 Y2.7915
N10050 G1 X0.6142 Y2.7961
N10060 G1 X0.6039 Y2.8015
N10070 G1 X0.5928 Y2.8047
N10080 G1 X0.5813 Y2.8057
N10090 G1 X0.5697 Y2.8044
N10100 G1 X0.5587 Y2.8008
N10110 G1 X0.5171 Y2.7822
N10120 G1 X0.5072 Y2.7771
N10130 G1 X0.4628 Y2.7513
N10140 G3 X0.4558 Y2.7445 R0.025
N10150 G1 X0.4536 Y2.7413 Z-0.1997
N10160 G1 X0.4514 Y2.7382 Z-0.1988
N10170 G1 X0.4493 Y2.7352 Z-0.1973
N10180 G1 X0.4474 Y2.7325 Z-0.1952
N10190 G1 X0.4457 Y2.73 Z-0.1927
N10200 G1 X0.4443 Y2.7279 Z-0.1897
N10210 G1 X0.4431 Y2.7262 Z-0.1863
N10220 G1 X0.4422 Y2.725 Z-0.1827
N10230 G1 X0.4417 Y2.7243 Z-0.1789
N10240 G1 X0.4415 Y2.724 Z-0.175
N10250 G0 Z0.2
N10260 G0 X0.3162 Y0.3827
N10270 G0 Z-0.15
N10280 G1 Z-0.175 F24.
N10290 G1 X0.3161 Y0.3824 Z-0.1789
N10300 G1 X0.3157 Y0.3816 Z-0.1827
N10310 G1 X0.315 Y0.3803 Z-0.1863
N10320 G1 X0.3141 Y0.3784 Z-0.1897
N10330 G1 X0.3129 Y0.3761 Z-0.1927
N10340 G1 X0.3116 Y0.3735 Z-0.1952
N10350 G1 X0.3101 Y0.3705 Z-0.1973
N10360 G1 X0.3084 Y0.3673 Z-0.1988
N10370 G1 X0.3067 Y0.3638 Z-0.1997
N10380 G1 X0.305 Y0.3604 Z-0.2
N10390 G3 X0.3071 Y0.3508 R0.0078
N10400 G1 X0.3659 Y0.3068
N10410 G1 X0.3783 Y0.2985
N10420 G1 X0.3911 Y0.2907
N10430 G1 X0.3961 Y0.2879
N10440 G1 X0.4052 Y0.2839
N10450 G1 X0.4163 Y0.2799
N10460 G1 X0.4281 Y0.2768
N10470 G1 X0.4424 Y0.2742
N10480 G1 X0.4575 Y0.2727
N10490 G1 X0.4755 Y0.2724
N10500 G1 X0.4942 Y0.2736
N10510 G1 X0.5164 Y0.2767
N10520 G1 X0.539 Y0.2818
N10530 G1 X0.5651 Y0.29
N10540 G1 X0.5932 Y0.3014
N10550 G1 X0.6227 Y0.3161
N10560 G1 X0.6543 Y0.3352
N10570 G1 X0.6844 Y0.3568
N10580 G1 X0.7129 Y0.3804
N10590 G1 X0.7399 Y0.4057
N10600 G1 X0.7655 Y0.4325
N10610 G1 X0.7896 Y0.4605
N10620 G1 X0.8124 Y0.4896
N10630 G1 X0.8339 Y0.5198
N10640 G1 X0.8541 Y0.5508
N10650 G1 X0.8731 Y0.5825
N10660 G1 X0.8908 Y0.615
N10670 G1 X0.9074 Y0.6481
N10680 G1 X0.9229 Y0.6817
N10690 G1 X0.9373 Y0.7158
N10700 G1 X0.9506 Y0.7503
N10710 G1 X0.963 Y0.7852
N10720 G1 X0.9745 Y0.8204
N10730 G1 X0.985 Y0.8558
N10740 G1 X0.9947 Y0.8915
N10750 G1 X1.0036 Y0.9275
N10760 G1 X1.0117 Y0.9636
N10770 G1 X1.019 Y0.9998
N10780 G1 X1.0257 Y1.0362
N10790 G1 X1.0317 Y1.0727
N10800 G1 X1.0372 Y1.1093
N10810 G1 X1.042 Y1.146
N10820 G1 X1.0464 Y1.1828
N10830 G1 X1.0502 Y1.2196
N10840 G1 X1.0537 Y1.2564
N10850 G1 X1.0593 Y1.3302
N10860 G1 X1.0637 Y1.4041
N10870 G1 X1.0669 Y1.478
N10880 G1 X1.0693 Y1.552
N10890 G1 X1.0708 Y1.626
N10900 G1 X1.0715 Y1.7
N10910 G1 X1.0711 Y1.774
N10920 G1 X1.0696 Y1.848
N10930 G1 X1.0682 Y1.8849
N10940 G1 X1.0665 Y1.9219
N10950 G1 X1.0642 Y1.9588
N10960 G1 X1.0615 Y1.9957
N10970 G1 X1.0582 Y2.0326
N10980 G1 X1.0542 Y2.0694
N10990 G1 X1.0497 Y2.1061
N11000 G1 X1.0444 Y2.1427
N11010 G1 X1.0385 Y2.1792
N11020 G1 X1.0317 Y2.2156
N11030 G1 X1.0242 Y2.2519
N11040 G1 X1.0158 Y2.2879
N11050 G1 X1.0065 Y2.3237
N11060 G1 X0.9963 Y2.3593
N11070 G1 X0.9851 Y2.3945
N11080 G1 X0.9729 Y2.4295
N11090 G1 X0.9598 Y2.4641
N11100 G1 X0.9456 Y2.4983
N11110 G1 X0.9304 Y2.532
N11120 G1 X0.9142 Y2.5653
N11130 G1 X0.897 Y2.598
N11140 G1 X0.8787 Y2.6302
N11150 G1 X0.8593 Y2.6617
N11160 G1 X0.8388 Y2.6925
N11170 G1 X0.8172 Y2.7225
N11180 G1 X0.7943 Y2.7516
N11190 G1 X0.7702 Y2.7797
N11200 G1 X0.7446 Y2.8065
N11210 G1 X0.7234 Y2.8258
N11220 G1 X0.712 Y2.8346
N11230 G1 X0.7015 Y2.8411
N11240 G1 X0.6899 Y2.8453
N11250 G1 X0.6776 Y2.8468
N11260 G1 X0.6653 Y2.8458
N11270 G1 X0.6535 Y2.8422
N11280 G1 X0.5587 Y2.8008
N11290 G3 X0.5509 Y2.795 R0.025
N11300 G1 X0.5483 Y2.7921 Z-0.1997
N11310 G1 X0.5458 Y2.7892 Z-0.1988
N11320 G1 X0.5433 Y2.7866 Z-0.1973
N11330 G1 X0.5411 Y2.7841 Z-0.1952
N11340 G1 X0.5391 Y2.7818 Z-0.1927
N11350 G1 X0.5374 Y2.7799 Z-0.1897
N11360 G1 X0.536 Y2.7784 Z-0.1863
N11370 G1 X0.535 Y2.7773 Z-0.1827
N11380 G1 X0.5344 Y2.7766 Z-0.1789
N11390 G1 X0.5342 Y2.7764 Z-0.175
N11400 G0 Z0.2
N11410 G0 X0.3972 Y0.3233
N11420 G0 Z-0.15
N11430 G1 Z-0.175 F24.
N11440 G1 X0.3971 Y0.323 Z-0.1789
N11450 G1 X0.3968 Y0.3222 Z-0.1827
N11460 G1 X0.3962 Y0.3208 Z-0.1863
N11470 G1 X0.3955 Y0.3189 Z-0.1897
N11480 G1 X0.3946 Y0.3165 Z-0.1927
N11490 G1 X0.3935 Y0.3137 Z-0.1952
N11500 G1 X0.3923 Y0.3106 Z-0.1973
N11510 G1 X0.3909 Y0.3072 Z-0.1988
N11520 G1 X0.3895 Y0.3037 Z-0.1997
N11530 G1 X0.3881 Y0.3 Z-0.2
N11540 G3 X0.3911 Y0.2907 R0.0078
N11550 G1 X0.4205 Y0.2733
N11560 G1 X0.4751 Y0.242
N11570 G1 X0.486 Y0.2365
N11580 G1 X0.4955 Y0.2326
N11590 G1 X0.5056 Y0.2293
N11600 G1 X0.5178 Y0.2265
N11610 G1 X0.5315 Y0.2244
N11620 G1 X0.5467 Y0.2233
N11630 G1 X0.5643 Y0.2235
N11640 G1 X0.583 Y0.2253
N11650 G1 X0.6047 Y0.229
N11660 G1 X0.6279 Y0.235
N11670 G1 X0.6534 Y0.2438
N11680 G1 X0.6819 Y0.2563
N11690 G1 X0.7129 Y0.273
N11700 G1 X0.744 Y0.2931
N11710 G1 X0.7735 Y0.3154
N11720 G1 X0.8015 Y0.3396
N11730 G1 X0.828 Y0.3655
N11740 G1 X0.8531 Y0.3926
N11750 G1 X0.8769 Y0.421
N11760 G1 X0.8994 Y0.4504
N11770 G1 X0.9206 Y0.4806
N11780 G1 X0.9407 Y0.5117
N11790 G1 X0.9596 Y0.5435
N11800 G1 X0.9774 Y0.576
N11810 G1 X0.9941 Y0.609
N11820 G1 X1.0098 Y0.6425
N11830 G1 X1.0245 Y0.6765
N11840 G1 X1.0382 Y0.7108
N11850 G1 X1.051 Y0.7456
N11860 G1 X1.0628 Y0.7806
N11870 G1 X1.0738 Y0.8159
N11880 G1 X1.084 Y0.8515
N11890 G1 X1.0934 Y0.8873
N11900 G1 X1.102 Y0.9233
N11910 G1 X1.1099 Y0.9594
N11920 G1 X1.1172 Y0.9957
N11930 G1 X1.1238 Y1.0321
N11940 G1 X1.1297 Y1.0687
N11950 G1 X1.1352 Y1.1053
N11960 G1 X1.1401 Y1.1419
N11970 G1 X1.1444 Y1.1787
N11980 G1 X1.1484 Y1.2155
N11990 G1 X1.155 Y1.2892
N12000 G1 X1.1602 Y1.363
N12010 G1 X1.1642 Y1.4369
N12020 G1 X1.1671 Y1.5108
N12030 G1 X1.1692 Y1.5848
N12040 G1 X1.1703 Y1.6588
N12050 G1 X1.1705 Y1.7328
N12060 G1 X1.1695 Y1.8068
N12070 G1 X1.1671 Y1.8808
N12080 G1 X1.1653 Y1.9178
N12090 G1 X1.1631 Y1.9547
N12100 G1 X1.1604 Y1.9916
N12110 G1 X1.1571 Y2.0284
N12120 G1 X1.1533 Y2.0652
N12130 G1 X1.1488 Y2.102
N12140 G1 X1.1437 Y2.1386
N12150 G1 X1.138 Y2.1752
N12160 G1 X1.1316 Y2.2116
N12170 G1 X1.1244 Y2.2479
N12180 G1 X1.1164 Y2.2841
N12190 G1 X1.1076 Y2.32
N12200 G1 X1.098 Y2.3557
N12210 G1 X1.0875 Y2.3912
N12220 G1 X1.0762 Y2.4264
N12230 G1 X1.0639 Y2.4614
N12240 G1 X1.0508 Y2.496
N12250 G1 X1.0367 Y2.5302
N12260 G1 X1.0217 Y2.564
N12270 G1 X1.0057 Y2.5973
N12280 G1 X0.9887 Y2.6302
N12290 G1 X0.9707 Y2.6626
N12300 G1 X0.9518 Y2.6944
N12310 G1 X0.9318 Y2.7255
N12320 G1 X0.9108 Y2.7559
N12330 G1 X0.8886 Y2.7856
N12340 G1 X0.8654 Y2.8144
N12350 G1 X0.8408 Y2.842
N12360 G1 X0.8203 Y2.862
N12370 G1 X0.8152 Y2.8662
N12380 G1 X0.8058 Y2.8726
N12390 G1 X0.7952 Y2.877
N12400 G1 X0.784 Y2.8793
N12410 G1 X0.7726 Y2.8794
N12420 G1 X0.7614 Y2.8772
N12430 G1 X0.6852 Y2.8543
N12440 G1 X0.6535 Y2.8422
N12450 G3 X0.6456 Y2.8364 R0.025
N12460 G1 X0.643 Y2.8335 Z-0.1997
N12470 G1 X0.6404 Y2.8307 Z-0.1988
N12480 G1 X0.638 Y2.8281 Z-0.1973
N12490 G1 X0.6357 Y2.8256 Z-0.1952
N12500 G1 X0.6337 Y2.8234 Z-0.1927
N12510 G1 X0.632 Y2.8215 Z-0.1897
N12520 G1 X0.6306 Y2.82 Z-0.1863
N12530 G1 X0.6296 Y2.8189 Z-0.1827
N12540 G1 X0.629 Y2.8182 Z-0.1789
N12550 G1 X0.6287 Y2.818 Z-0.175
N12560 G0 Z0.2
N12570 G0 X0.4803 Y0.2748
N12580 G0 Z-0.15
N12590 G1 Z-0.175 F24.
N12600 G1 X0.4802 Y0.2745 Z-0.1789
N12610 G1 X0.4799 Y0.2737 Z-0.1827
N12620 G1 X0.4794 Y0.2723 Z-0.1863
N12630 G1 X0.4787 Y0.2703 Z-0.1897
N12640 G1 X0.4778 Y0.2679 Z-0.1927
N12650 G1 X0.4768 Y0.2651 Z-0.1952
N12660 G1 X0.4757 Y0.262 Z-0.1973
N12670 G1 X0.4745 Y0.2586 Z-0.1988
N12680 G1 X0.4732 Y0.255 Z-0.1997
N12690 G1 X0.4719 Y0.2513 Z-0.2
N12700 G3 X0.4751 Y0.242 R0.0078
N12710 G1 X0.5171 Y0.2181
N12720 G1 X0.5423 Y0.2056
N12730 G1 X0.5804 Y0.1893
N12740 G1 X0.5911 Y0.1854
N12750 G1 X0.6014 Y0.1826
N12760 G1 X0.614 Y0.1802
N12770 G1 X0.6273 Y0.1788
N12780 G1 X0.643 Y0.1784
N12790 G1 X0.6605 Y0.1793
N12800 G1 X0.6798 Y0.1819
N12810 G1 X0.7014 Y0.1866
N12820 G1 X0.7255 Y0.1939
N12830 G1 X0.751 Y0.2039
N12840 G1 X0.7798 Y0.218
N12850 G1 X0.8113 Y0.2367
N12860 G1 X0.8416 Y0.2581
N12870 G1 X0.8702 Y0.2815
N12880 G1 X0.8974 Y0.3066
N12890 G1 X0.9232 Y0.3332
N12900 G1 X0.9476 Y0.361
N12910 G1 X0.9708 Y0.3898
N12920 G1 X0.9927 Y0.4196
N12930 G1 X1.0135 Y0.4503
N12940 G1 X1.0331 Y0.4816
N12950 G1 X1.0517 Y0.5136
N12960 G1 X1.0692 Y0.5462
N12970 G1 X1.0858 Y0.5793
N12980 G1 X1.1014 Y0.6129
N12990 G1 X1.116 Y0.6468
N13000 G1 X1.1297 Y0.6812
N13010 G1 X1.1426 Y0.7159
N13020 G1 X1.1546 Y0.7509
N13030 G1 X1.1657 Y0.7862
N13040 G1 X1.1761 Y0.8217
N13050 G1 X1.1858 Y0.8574
N13060 G1 X1.1947 Y0.8933
N13070 G1 X1.2029 Y0.9294
N13080 G1 X1.2105 Y0.9656
N13090 G1 X1.2174 Y1.002
N13100 G1 X1.2237 Y1.0384
N13110 G1 X1.2295 Y1.075
N13120 G1 X1.2348 Y1.1116
N13130 G1 X1.2395 Y1.1483
N13140 G1 X1.2438 Y1.1851
N13150 G1 X1.2477 Y1.2219
N13160 G1 X1.2542 Y1.2956
N13170 G1 X1.2594 Y1.3694
N13180 G1 X1.2634 Y1.4433
N13190 G1 X1.2664 Y1.5172
N13200 G1 X1.2684 Y1.5912
N13210 G1 X1.2694 Y1.6652
N13220 G1 Y1.7392
N13230 G1 X1.2682 Y1.8132
N13240 G1 X1.2671 Y1.8502
N13250 G1 X1.2655 Y1.8872
N13260 G1 X1.2636 Y1.9241
N13270 G1 X1.2613 Y1.9611
N13280 G1 X1.2584 Y1.9979
N13290 G1 X1.2551 Y2.0348
N13300 G1 X1.2512 Y2.0716
N13310 G1 X1.2467 Y2.1083
N13320 G1 X1.2416 Y2.145
N13330 G1 X1.2359 Y2.1815
N13340 G1 X1.2296 Y2.218
N13350 G1 X1.2225 Y2.2543
N13360 G1 X1.2147 Y2.2905
N13370 G1 X1.2061 Y2.3265
N13380 G1 X1.1968 Y2.3623
N13390 G1 X1.1867 Y2.3979
N13400 G1 X1.1758 Y2.4333
N13410 G1 X1.1641 Y2.4683
N13420 G1 X1.1515 Y2.5031
N13430 G1 X1.1381 Y2.5376
N13440 G1 X1.1238 Y2.5718
N13450 G1 X1.1086 Y2.6055
N13460 G1 X1.0926 Y2.6389
N13470 G1 X1.0756 Y2.6717
N13480 G1 X1.0577 Y2.7041
N13490 G1 X1.0389 Y2.736
N13500 G1 X1.0191 Y2.7672
N13510 G1 X0.9983 Y2.7978
N13520 G1 X0.9765 Y2.8277
N13530 G1 X0.9535 Y2.8568
N13540 G1 X0.9381 Y2.8739
N13550 G1 X0.9206 Y2.892
N13560 G1 X0.9069 Y2.9038
N13570 G1 X0.9047 Y2.9055
N13580 G1 X0.9027 Y2.9065 Z-0.1997
N13590 G1 X0.9009 Y2.9074 Z-0.199
N13600 G1 X0.8992 Y2.9081 Z-0.1979
N13610 G1 X0.8978 Y2.9088 Z-0.1963
N13620 G1 X0.8967 Y2.9093 Z-0.1945
N13630 G1 X0.896 Y2.9095 Z-0.1924
N13640 G1 X0.8958 Y2.9096 Z-0.1902
N13650 G0 Z0.2
N13660 G0 X0.6076 Y0.1895
N13670 G0 Z-0.15
N13680 G1 Z-0.175 F24.
N13690 G1 X0.6073 Y0.1896 Z-0.1789
N13700 G1 X0.6065 Y0.1899 Z-0.1827
N13710 G1 X0.6051 Y0.1904 Z-0.1863
N13720 G1 X0.6032 Y0.1912 Z-0.1897
N13730 G1 X0.6008 Y0.1921 Z-0.1927
N13740 G1 X0.598 Y0.1931 Z-0.1952
N13750 G1 X0.5949 Y0.1943 Z-0.1973
N13760 G1 X0.5915 Y0.1956 Z-0.1988
N13770 G1 X0.5879 Y0.197 Z-0.1997
N13780 G1 X0.5843 Y0.1984 Z-0.2
N13790 G3 X0.5804 Y0.1893 R0.0049
N13800 G1 X0.6768 Y0.149
N13810 G1 X0.6889 Y0.1447
N13820 G1 X0.6986 Y0.1422
N13830 G1 X0.7103 Y0.1401
N13840 G1 X0.7236 Y0.1388
N13850 G1 X0.7381 Y0.1386
N13860 G1 X0.7555 Y0.1397
N13870 G1 X0.7733 Y0.1422
N13880 G1 X0.7947 Y0.1471
N13890 G1 X0.8168 Y0.1541
N13900 G1 X0.8422 Y0.1644
N13910 G1 X0.8706 Y0.1786
N13920 G1 X0.9016 Y0.1975
N13930 G1 X0.9316 Y0.2192
N13940 G1 X0.96 Y0.2429
N13950 G1 X0.9869 Y0.2683
N13960 G1 X1.0123 Y0.2952
N13970 G1 X1.0365 Y0.3232
N13980 G1 X1.0594 Y0.3523
N13990 G1 X1.0811 Y0.3822
N14000 G1 X1.1018 Y0.4129
N14010 G1 X1.1213 Y0.4444
N14020 G1 X1.1399 Y0.4764
N14030 G1 X1.1574 Y0.5089
N14040 G1 X1.174 Y0.542
N14050 G1 X1.1897 Y0.5755
N14060 G1 X1.2045 Y0.6094
N14070 G1 X1.2185 Y0.6437
N14080 G1 X1.2316 Y0.6783
N14090 G1 X1.2439 Y0.7132
N14100 G1 X1.2554 Y0.7484
N14110 G1 X1.2661 Y0.7838
N14120 G1 X1.2761 Y0.8194
N14130 G1 X1.2854 Y0.8552
N14140 G1 X1.294 Y0.8912
N14150 G1 X1.302 Y0.9274
N14160 G1 X1.3094 Y0.9636
N14170 G1 X1.3162 Y1.
N14180 G1 X1.3224 Y1.0365
N14190 G1 X1.3281 Y1.073
N14200 G1 X1.3333 Y1.1097
N14210 G1 X1.3381 Y1.1464
N14220 G1 X1.3424 Y1.1831
N14230 G1 X1.3497 Y1.2568
N14240 G1 X1.3557 Y1.3305
N14250 G1 X1.3604 Y1.4044
N14260 G1 X1.3639 Y1.4783
N14270 G1 X1.3665 Y1.5523
N14280 G1 X1.368 Y1.6262
N14290 G1 X1.3685 Y1.7002
N14300 G1 X1.3679 Y1.7742
N14310 G1 X1.3671 Y1.8112
N14320 G1 X1.3644 Y1.8852
N14330 G1 X1.3624 Y1.9221
N14340 G1 X1.3601 Y1.9591
N14350 G1 X1.3572 Y1.996
N14360 G1 X1.3539 Y2.0328
N14370 G1 X1.3501 Y2.0696
N14380 G1 X1.3457 Y2.1064
N14390 G1 X1.3408 Y2.143
N14400 G1 X1.3353 Y2.1796
N14410 G1 X1.3291 Y2.2161
N14420 G1 X1.3223 Y2.2525
N14430 G1 X1.3148 Y2.2887
N14440 G1 X1.3067 Y2.3248
N14450 G1 X1.2978 Y2.3607
N14460 G1 X1.2882 Y2.3965
N14470 G1 X1.2778 Y2.432
N14480 G1 X1.2667 Y2.4673
N14490 G1 X1.2549 Y2.5023
N14500 G1 X1.2422 Y2.5371
N14510 G1 X1.2288 Y2.5716
N14520 G1 X1.2145 Y2.6057
N14530 G1 X1.1994 Y2.6395
N14540 G1 X1.1835 Y2.6729
N14550 G1 X1.1667 Y2.7059
N14560 G1 X1.149 Y2.7384
N14570 G1 X1.1305 Y2.7704
N14580 G1 X1.111 Y2.8019
N14590 G1 X1.0907 Y2.8328
N14600 G1 X1.0693 Y2.863
N14610 G1 X1.0492 Y2.8884
N14620 G1 X1.0433 Y2.8955
N14630 G1 X1.0351 Y2.9068
N14640 G1 X1.0264 Y2.9145
N14650 G1 X1.0164 Y2.9204
N14660 G1 X1.0055 Y2.9242
N14670 G1 X0.994 Y2.9257
N14680 G1 X0.9824 Y2.9249
N14690 G3 X0.9735 Y2.9212 R0.025
N14700 G1 X0.9702 Y2.919 Z-0.1997
N14710 G1 X0.967 Y2.9168 Z-0.1988
N14720 G1 X0.964 Y2.9148 Z-0.1973
N14730 G1 X0.9613 Y2.9129 Z-0.1952
N14740 G1 X0.9588 Y2.9113 Z-0.1927
N14750 G1 X0.9567 Y2.9098 Z-0.1897
N14760 G1 X0.955 Y2.9087 Z-0.1863
N14770 G1 X0.9537 Y2.9079 Z-0.1827
N14780 G1 X0.953 Y2.9073 Z-0.1789
N14790 G1 X0.9527 Y2.9072 Z-0.175
N14800 G0 Z0.2
N14810 G0 X0.6775 Y0.1822
N14820 G0 Z-0.15
N14830 G1 Z-0.175 F24.
N14840 G1 Y0.1819 Z-0.1789
N14850 G1 X0.6773 Y0.181 Z-0.1827
N14860 G1 X0.677 Y0.1796 Z-0.1863
N14870 G1 X0.6765 Y0.1776 Z-0.1897
N14880 G1 X0.676 Y0.1751 Z-0.1927
N14890 G1 X0.6754 Y0.1722 Z-0.1952
N14900 G1 X0.6747 Y0.1689 Z-0.1973
N14910 G1 X0.6739 Y0.1653 Z-0.1988
N14920 G1 X0.6731 Y0.1616 Z-0.1997
N14930 G1 X0.6723 Y0.1578 Z-0.2
N14940 G3 X0.6768 Y0.149 R0.0078
N14950 G1 X0.6852 Y0.1456
N14960 G1 X0.7104 Y0.1372
N14970 G1 X0.8448 Y0.0993
N14980 G1 X0.8501 Y0.0982
N14990 G1 X0.8692 Y0.1018
N15000 G1 X0.8914 Y0.1079
N15010 G1 X0.9154 Y0.1166
N15020 G1 X0.9415 Y0.1284
N15030 G1 X0.9709 Y0.1447
N15040 G1 X1.0016 Y0.1653
N15050 G1 X1.0308 Y0.1881
N15060 G1 X1.0584 Y0.2127
N15070 G1 X1.0845 Y0.2389
N15080 G1 X1.1093 Y0.2664
N15090 G1 X1.1329 Y0.2949
N15100 G1 X1.1553 Y0.3244
N15110 G1 X1.1765 Y0.3547
N15120 G1 X1.1967 Y0.3857
N15130 G1 X1.2159 Y0.4173
N15140 G1 X1.2341 Y0.4495
N15150 G1 X1.2513 Y0.4823
N15160 G1 X1.2677 Y0.5155
N15170 G1 X1.2832 Y0.5491
N15180 G1 X1.2979 Y0.583
N15190 G1 X1.3117 Y0.6173
N15200 G1 X1.3248 Y0.652
N15210 G1 X1.337 Y0.6869
N15220 G1 X1.3486 Y0.722
N15230 G1 X1.3594 Y0.7574
N15240 G1 X1.3695 Y0.793
N15250 G1 X1.379 Y0.8288
N15260 G1 X1.3878 Y0.8647
N15270 G1 X1.396 Y0.9008
N15280 G1 X1.4036 Y0.937
N15290 G1 X1.4107 Y0.9733
N15300 G1 X1.4171 Y1.0098
N15310 G1 X1.4231 Y1.0463
N15320 G1 X1.4286 Y1.0829
N15330 G1 X1.4336 Y1.1195
N15340 G1 X1.4382 Y1.1563
N15350 G1 X1.4461 Y1.2298
N15360 G1 X1.4526 Y1.3036
N15370 G1 X1.4577 Y1.3774
N15380 G1 X1.4617 Y1.4513
N15390 G1 X1.4647 Y1.5252
N15400 G1 X1.4666 Y1.5992
N15410 G1 X1.4674 Y1.6732
N15420 G1 X1.4671 Y1.7472
N15430 G1 X1.4656 Y1.8212
N15440 G1 X1.4643 Y1.8582
N15450 G1 X1.4626 Y1.8951
N15460 G1 X1.4605 Y1.9321
N15470 G1 X1.458 Y1.969
N15480 G1 X1.4551 Y2.0059
N15490 G1 X1.4517 Y2.0427
N15500 G1 X1.4478 Y2.0795
N15510 G1 X1.4433 Y2.1163
N15520 G1 X1.4383 Y2.1529
N15530 G1 X1.4328 Y2.1895
N15540 G1 X1.4267 Y2.226
N15550 G1 X1.4199 Y2.2624
N15560 G1 X1.4125 Y2.2987
N15570 G1 X1.4045 Y2.3348
N15580 G1 X1.3958 Y2.3707
N15590 G1 X1.3864 Y2.4065
N15600 G1 X1.3763 Y2.4421
N15610 G1 X1.3655 Y2.4775
N15620 G1 X1.354 Y2.5127
N15630 G1 X1.3418 Y2.5476
N15640 G1 X1.3288 Y2.5823
N15650 G1 X1.3151 Y2.6166
N15660 G1 X1.3005 Y2.6507
N15670 G1 X1.2853 Y2.6844
N15680 G1 X1.2692 Y2.7177
N15690 G1 X1.2523 Y2.7506
N15700 G1 X1.2346 Y2.7831
N15710 G1 X1.2161 Y2.8152
N15720 G1 X1.1967 Y2.8467
N15730 G1 X1.1734 Y2.8812
N15740 G1 X1.1681 Y2.8887
N15750 G1 X1.164 Y2.8971
N15760 G1 X1.1587 Y2.9092
N15770 G1 X1.1508 Y2.9199
N15780 G1 X1.1407 Y2.9284
N15790 G1 X1.1289 Y2.9345
N15800 G1 X1.1161 Y2.9378
N15810 G1 X1.1029 Y2.9381
N15820 G3 X1.0936 Y2.935 R0.025
N15830 G1 X1.0903 Y2.933 Z-0.1997
N15840 G1 X1.0869 Y2.9311 Z-0.1988
N15850 G1 X1.0838 Y2.9293 Z-0.1973
N15860 G1 X1.0809 Y2.9277 Z-0.1952
N15870 G1 X1.0783 Y2.9262 Z-0.1927
N15880 G1 X1.0761 Y2.9249 Z-0.1897
N15890 G1 X1.0743 Y2.9239 Z-0.1863
N15900 G1 X1.073 Y2.9232 Z-0.1827
N15910 G1 X1.0722 Y2.9227 Z-0.1789
N15920 G1 X1.0719 Y2.9226 Z-0.175
N15930 G0 Z0.2
N15940 G0 X0.8414 Y0.1324
N15950 G0 Z-0.15
N15960 G1 Z-0.175 F24.
N15970 G1 Y0.1321 Z-0.1789
N15980 G1 X0.8413 Y0.1312 Z-0.1827
N15990 G1 X0.8412 Y0.1297 Z-0.1863
N16000 G1 X0.841 Y0.1276 Z-0.1897
N16010 G1 X0.8408 Y0.1251 Z-0.1927
N16020 G1 X0.8406 Y0.1221 Z-0.1952
N16030 G1 X0.8403 Y0.1188 Z-0.1973
N16040 G1 X0.84 Y0.1152 Z-0.1988
N16050 G1 X0.8396 Y0.1114 Z-0.1997
N16060 G1 X0.8393 Y0.1075 Z-0.2
N16070 G3 X0.8448 Y0.0993 R0.0078
N16080 G1 X0.8581 Y0.096
N16090 G1 X0.8868 Y0.0904
N16100 G1 X0.996 Y0.0736
N16110 G1 X1.0014 Y0.073
N16120 G1 X1.0293 Y0.0862
N16130 G1 X1.0595 Y0.1036
N16140 G1 X1.09 Y0.1245
N16150 G1 X1.1189 Y0.1477
N16160 G1 X1.1463 Y0.1726
N16170 G1 X1.1722 Y0.199
N16180 G1 X1.1968 Y0.2266
N16190 G1 X1.2203 Y0.2552
N16200 G1 X1.2425 Y0.2848
N16210 G1 X1.2637 Y0.3151
N16220 G1 X1.2839 Y0.3461
N16230 G1 X1.3031 Y0.3778
N16240 G1 X1.3213 Y0.4099
N16250 G1 X1.3387 Y0.4426
N16260 G1 X1.3552 Y0.4757
N16270 G1 X1.3709 Y0.5092
N16280 G1 X1.3858 Y0.5431
N16290 G1 X1.3998 Y0.5774
N16300 G1 X1.4131 Y0.6119
N16310 G1 X1.4257 Y0.6467
N16320 G1 X1.4376 Y0.6817
N16330 G1 X1.4487 Y0.717
N16340 G1 X1.4592 Y0.7525
N16350 G1 X1.469 Y0.7882
N16360 G1 X1.4782 Y0.824
N16370 G1 X1.4868 Y0.86
N16380 G1 X1.4948 Y0.8961
N16390 G1 X1.5023 Y0.9324
N16400 G1 X1.5092 Y0.9687
N16410 G1 X1.5156 Y1.0052
N16420 G1 X1.5215 Y1.0417
N16430 G1 X1.527 Y1.0783
N16440 G1 X1.532 Y1.115
N16450 G1 X1.5366 Y1.1517
N16460 G1 X1.5445 Y1.2253
N16470 G1 X1.5511 Y1.299
N16480 G1 X1.5564 Y1.3728
N16490 G1 X1.5605 Y1.4467
N16500 G1 X1.5635 Y1.5206
N16510 G1 X1.5655 Y1.5946
N16520 G1 X1.5664 Y1.6686
N16530 G1 X1.5661 Y1.7426
N16540 G1 X1.5645 Y1.8166
N16550 G1 X1.5616 Y1.8905
N16560 G1 X1.5596 Y1.9275
N16570 G1 X1.5593 Y1.969
N16580 G1 X1.5576 Y2.012
N16590 G1 X1.5543 Y2.0614
N16600 G1 X1.5505 Y2.1027
N16610 G1 X1.5455 Y2.1465
N16620 G1 X1.5392 Y2.1921
N16630 G1 X1.5318 Y2.2386
N16640 G1 X1.5236 Y2.2833
N16650 G1 X1.5145 Y2.3277
N16660 G1 X1.5045 Y2.3716
N16670 G1 X1.4936 Y2.4148
N16680 G1 X1.482 Y2.4571
N16690 G1 X1.4696 Y2.4983
N16700 G1 X1.4525 Y2.5507
N16710 G1 X1.4344 Y2.6009
N16720 G1 X1.4202 Y2.6375
N16730 G1 X1.4 Y2.6857
N16740 G1 X1.3796 Y2.7307
N16750 G1 X1.3588 Y2.773
N16760 G1 X1.3379 Y2.8127
N16770 G1 X1.2981 Y2.8828
N16780 G1 X1.2934 Y2.8908
N16790 G1 X1.29 Y2.8994
N16800 G1 X1.289 Y2.9039
N16810 G1 X1.2852 Y2.9153
N16820 G1 X1.2792 Y2.9257
N16830 G1 X1.2711 Y2.9347
N16840 G1 X1.2614 Y2.9417
N16850 G1 X1.2505 Y2.9467
N16860 G1 X1.2387 Y2.9493
N16870 G1 X1.2267 Y2.9494
N16880 G3 X1.2175 Y2.9463 R0.025
N16890 G1 X1.2141 Y2.9444 Z-0.1997
N16900 G1 X1.2108 Y2.9425 Z-0.1988
N16910 G1 X1.2076 Y2.9407 Z-0.1973
N16920 G1 X1.2047 Y2.939 Z-0.1952
N16930 G1 X1.2021 Y2.9376 Z-0.1927
N16940 G1 X1.1999 Y2.9363 Z-0.1897
N16950 G1 X1.1981 Y2.9353 Z-0.1863
N16960 G1 X1.1968 Y2.9345 Z-0.1827
N16970 G1 X1.196 Y2.9341 Z-0.1789
N16980 G1 X1.1958 Y2.9339 Z-0.175
N16990 G0 Z0.2
N17000 G0 X0.9891 Y0.106
N17010 G0 Z-0.15
N17020 G1 Z-0.175 F24.
N17030 G1 Y0.1057 Z-0.1789
N17040 G1 Y0.1048 Z-0.1827
N17050 G1 Y0.1033 Z-0.1863
N17060 G1 X0.9892 Y0.1013 Z-0.1897
N17070 G1 X0.9893 Y0.0987 Z-0.1927
N17080 G1 Y0.0957 Z-0.1952
N17090 G1 X0.9894 Y0.0924 Z-0.1973
N17100 G1 X0.9895 Y0.0888 Z-0.1988
N17110 G1 X0.9896 Y0.085 Z-0.1997
N17120 G1 X0.9897 Y0.081 Z-0.2
N17130 G3 X0.996 Y0.0736 R0.0078
N17140 G1 X1.0297 Y0.0688
N17150 G1 X1.1389 Y0.0586
N17160 G1 X1.1443 Y0.0584
N17170 G1 X1.1745 Y0.0798
N17180 G1 X1.2032 Y0.1032
N17190 G1 X1.2304 Y0.1282
N17200 G1 X1.2563 Y0.1547
N17210 G1 X1.2809 Y0.1823
N17220 G1 X1.3043 Y0.2109
N17230 G1 X1.3267 Y0.2404
N17240 G1 X1.3479 Y0.2707
N17250 G1 X1.3682 Y0.3016
N17260 G1 X1.3876 Y0.3332
N17270 G1 X1.4061 Y0.3652
N17280 G1 X1.4237 Y0.3978
N17290 G1 X1.4404 Y0.4308
N17300 G1 X1.4564 Y0.4642
N17310 G1 X1.4715 Y0.4979
N17320 G1 X1.4859 Y0.532
N17330 G1 X1.4995 Y0.5664
N17340 G1 X1.5124 Y0.6011
N17350 G1 X1.5247 Y0.636
N17360 G1 X1.5362 Y0.6712
N17370 G1 X1.5471 Y0.7065
N17380 G1 X1.5574 Y0.7421
N17390 G1 X1.5671 Y0.7778
N17400 G1 X1.5761 Y0.8137
N17410 G1 X1.5846 Y0.8497
N17420 G1 X1.5925 Y0.8858
N17430 G1 X1.5999 Y0.9221
N17440 G1 X1.6068 Y0.9585
N17450 G1 X1.6132 Y0.9949
N17460 G1 X1.6192 Y1.0314
N17470 G1 X1.6247 Y1.068
N17480 G1 X1.6297 Y1.1047
N17490 G1 X1.6386 Y1.1781
N17500 G1 X1.646 Y1.2518
N17510 G1 X1.6521 Y1.3255
N17520 G1 X1.657 Y1.3994
N17530 G1 X1.6607 Y1.4733
N17540 G1 X1.6633 Y1.5472
N17550 G1 X1.6649 Y1.6212
N17560 G1 X1.6653 Y1.6952
N17570 G1 X1.6645 Y1.7692
N17580 G1 X1.6605 Y1.9172
N17590 G1 X1.6592 Y1.9542
N17600 G1 X1.6597 Y1.9965
N17610 G1 X1.6588 Y2.0352
N17620 G1 X1.6566 Y2.0786
N17630 G1 X1.6526 Y2.1267
N17640 G1 X1.6468 Y2.1794
N17650 G1 X1.6411 Y2.2212
N17660 G1 X1.6342 Y2.2644
N17670 G1 X1.6262 Y2.3085
N17680 G1 X1.6171 Y2.3528
N17690 G1 X1.6071 Y2.3971
N17700 G1 X1.5961 Y2.4408
N17710 G1 X1.5842 Y2.484
N17720 G1 X1.5716 Y2.5263
N17730 G1 X1.5583 Y2.5677
N17740 G1 X1.5443 Y2.6082
N17750 G1 X1.5296 Y2.6476
N17760 G1 X1.5144 Y2.6859
N17770 G1 X1.4934 Y2.7351
N17780 G1 X1.472 Y2.7814
N17790 G1 X1.4517 Y2.8225
N17800 G1 X1.4348 Y2.8554
N17810 G1 X1.4212 Y2.8832
N17820 G1 X1.4185 Y2.892
N17830 G1 X1.4172 Y2.9012
N17840 G1 X1.4173 Y2.9104
N17850 G1 X1.4169 Y2.9223
N17860 G1 X1.4136 Y2.9337
N17870 G1 X1.4076 Y2.944
N17880 G1 X1.3992 Y2.9524
N17890 G1 X1.389 Y2.9584
N17900 G1 X1.3776 Y2.9618
N17910 G1 X1.3657 Y2.9622
N17920 G3 X1.3565 Y2.9591 R0.025
N17930 G1 X1.3531 Y2.9572 Z-0.1997
N17940 G1 X1.3498 Y2.9553 Z-0.1988
N17950 G1 X1.3466 Y2.9535 Z-0.1973
N17960 G1 X1.3437 Y2.9518 Z-0.1952
N17970 G1 X1.3411 Y2.9503 Z-0.1927
N17980 G1 X1.3389 Y2.9491 Z-0.1897
N17990 G1 X1.3372 Y2.948 Z-0.1863
N18000 G1 X1.3359 Y2.9473 Z-0.1827
N18010 G1 X1.3351 Y2.9468 Z-0.1789
N18020 G1 X1.3348 Y2.9467 Z-0.175
N18030 G0 Z0.2
N18040 G0 X1.1299 Y0.0906
N18050 G0 Z-0.15
N18060 G1 Z-0.175 F24.
N18070 G1 X1.13 Y0.0903 Z-0.1789
N18080 G1 Y0.0894 Z-0.1827
N18090 G1 X1.1302 Y0.0879 Z-0.1863
N18100 G1 X1.1303 Y0.0859 Z-0.1897
N18110 G1 X1.1306 Y0.0833 Z-0.1927
N18120 G1 X1.1308 Y0.0804 Z-0.1952
N18130 G1 X1.1311 Y0.077 Z-0.1973
N18140 G1 X1.1314 Y0.0734 Z-0.1988
N18150 G1 X1.1317 Y0.0696 Z-0.1997
N18160 G1 X1.1321 Y0.0657 Z-0.2
N18170 G3 X1.1389 Y0.0586 R0.0078
N18180 G1 X1.2649 Y0.0471
N18190 G1 X1.2703 Y0.0468
N18200 G1 X1.2987 Y0.0706
N18210 G1 X1.3256 Y0.096
N18220 G1 X1.3511 Y0.1228
N18230 G1 X1.3753 Y0.1508
N18240 G1 X1.3984 Y0.1797
N18250 G1 X1.4204 Y0.2094
N18260 G1 X1.4414 Y0.2399
N18270 G1 X1.4615 Y0.271
N18280 G1 X1.4806 Y0.3027
N18290 G1 X1.4988 Y0.3349
N18300 G1 X1.5163 Y0.3675
N18310 G1 X1.5329 Y0.4006
N18320 G1 X1.5487 Y0.434
N18330 G1 X1.5638 Y0.4678
N18340 G1 X1.5781 Y0.5019
N18350 G1 X1.5918 Y0.5363
N18360 G1 X1.6048 Y0.571
N18370 G1 X1.6171 Y0.6059
N18380 G1 X1.6287 Y0.641
N18390 G1 X1.6397 Y0.6763
N18400 G1 X1.6502 Y0.7118
N18410 G1 X1.66 Y0.7475
N18420 G1 X1.6692 Y0.7833
N18430 G1 X1.6779 Y0.8193
N18440 G1 X1.6861 Y0.8554
N18450 G1 X1.6937 Y0.8916
N18460 G1 X1.7008 Y0.9279
N18470 G1 X1.7075 Y0.9643
N18480 G1 X1.7137 Y1.0008
N18490 G1 X1.7194 Y1.0373
N18500 G1 X1.7247 Y1.074
N18510 G1 X1.7342 Y1.1474
N18520 G1 X1.7421 Y1.2209
N18530 G1 X1.7487 Y1.2946
N18540 G1 X1.7541 Y1.3685
N18550 G1 X1.7583 Y1.4423
N18560 G1 X1.7613 Y1.5163
N18570 G1 X1.7633 Y1.5903
N18580 G1 X1.7642 Y1.6643
N18590 G1 X1.7639 Y1.7383
N18600 G1 X1.7607 Y1.9232
N18610 G1 X1.76 Y1.9602
N18620 G1 X1.7612 Y2.0025
N18630 G1 X1.7611 Y2.04
N18640 G1 X1.7598 Y2.0813
N18650 G1 X1.757 Y2.1265
N18660 G1 X1.7524 Y2.1758
N18670 G1 X1.746 Y2.2285
N18680 G1 X1.7399 Y2.2703
N18690 G1 X1.7326 Y2.3132
N18700 G1 X1.7241 Y2.3571
N18710 G1 X1.7145 Y2.4016
N18720 G1 X1.7039 Y2.4462
N18730 G1 X1.6922 Y2.4906
N18740 G1 X1.6797 Y2.5346
N18750 G1 X1.6663 Y2.5779
N18760 G1 X1.652 Y2.6205
N18770 G1 X1.6371 Y2.6622
N18780 G1 X1.6215 Y2.7027
N18790 G1 X1.6053 Y2.7423
N18800 G1 X1.5872 Y2.7839
N18810 G1 X1.5719 Y2.8176
N18820 G1 X1.5582 Y2.852
N18830 G1 X1.5474 Y2.882
N18840 G1 X1.5456 Y2.8911
N18850 G1 X1.5452 Y2.9004
N18860 G1 X1.5464 Y2.9095
N18870 G1 X1.5489 Y2.9184
N18880 G1 X1.5528 Y2.9268
N18890 G1 X1.558 Y2.9345
N18900 G1 X1.5753 Y2.9526
N18910 G1 X1.5779 Y2.9587
N18920 G1 X1.578 Y2.9652
N18930 G1 X1.5758 Y2.9714
N18940 G1 X1.5714 Y2.9763
N18950 G1 X1.5655 Y2.9793
N18960 G1 X1.559 Y2.9799
N18970 G3 X1.5497 Y2.9768 R0.025
N18980 G1 X1.5464 Y2.9749 Z-0.1997
N18990 G1 X1.543 Y2.973 Z-0.1988
N19000 G1 X1.5399 Y2.9712 Z-0.1973
N19010 G1 X1.537 Y2.9695 Z-0.1952
N19020 G1 X1.5344 Y2.9681 Z-0.1927
N19030 G1 X1.5322 Y2.9668 Z-0.1897
N19040 G1 X1.5304 Y2.9658 Z-0.1863
N19050 G1 X1.5291 Y2.965 Z-0.1827
N19060 G1 X1.5283 Y2.9646 Z-0.1789
N19070 G1 X1.528 Y2.9644 Z-0.175
N19080 G0 Z0.2
N19090 G0 X1.256 Y0.0791
N19100 G0 Z-0.15
N19110 G1 Z-0.175 F24.
N19120 G1 Y0.0787 Z-0.1789
N19130 G1 X1.2561 Y0.0778 Z-0.1827
N19140 G1 X1.2562 Y0.0763 Z-0.1863
N19150 G1 X1.2564 Y0.0743 Z-0.1897
N19160 G1 X1.2566 Y0.0718 Z-0.1927
N19170 G1 X1.2569 Y0.0688 Z-0.1952
N19180 G1 X1.2571 Y0.0655 Z-0.1973
N19190 G1 X1.2575 Y0.0618 Z-0.1988
N19200 G1 X1.2578 Y0.058 Z-0.1997
N19210 G1 X1.2581 Y0.0541 Z-0.2
N19220 G3 X1.2649 Y0.0471 R0.0078
N19230 G1 X1.3994 Y0.0347
N19240 G1 X1.4047 Y0.0345
N19250 G1 X1.4288 Y0.0626
N19260 G1 X1.4522 Y0.0913
N19270 G1 X1.4748 Y0.1206
N19280 G1 X1.4967 Y0.1504
N19290 G1 X1.5177 Y0.1809
N19300 G1 X1.538 Y0.2118
N19310 G1 X1.5574 Y0.2433
N19320 G1 X1.576 Y0.2753
N19330 G1 X1.5938 Y0.3077
N19340 G1 X1.6109 Y0.3406
N19350 G1 X1.6273 Y0.3738
N19360 G1 X1.6429 Y0.4073
N19370 G1 X1.6578 Y0.4412
N19380 G1 X1.672 Y0.4753
N19390 G1 X1.6856 Y0.5097
N19400 G1 X1.6985 Y0.5444
N19410 G1 X1.7108 Y0.5793
N19420 G1 X1.7225 Y0.6144
N19430 G1 X1.7335 Y0.6497
N19440 G1 X1.744 Y0.6852
N19450 G1 X1.7539 Y0.7209
N19460 G1 X1.7633 Y0.7567
N19470 G1 X1.7721 Y0.7926
N19480 G1 X1.7804 Y0.8287
N19490 G1 X1.7882 Y0.8648
N19500 G1 X1.7955 Y0.9011
N19510 G1 X1.8024 Y0.9375
N19520 G1 X1.8088 Y0.9739
N19530 G1 X1.8147 Y1.0105
N19540 G1 X1.8202 Y1.047
N19550 G1 X1.8301 Y1.1204
N19560 G1 X1.8385 Y1.1939
N19570 G1 X1.8455 Y1.2676
N19580 G1 X1.8513 Y1.3414
N19590 G1 X1.8559 Y1.4152
N19600 G1 X1.8593 Y1.4891
N19610 G1 X1.8617 Y1.5631
N19620 G1 X1.8629 Y1.6371
N19630 G1 X1.8631 Y1.7111
N19640 G1 X1.8613 Y1.8961
N19650 G1 Y1.9331
N19660 G1 X1.8606 Y2.0071
N19670 G1 X1.8595 Y2.0441
N19680 G1 X1.8578 Y2.0811
N19690 G1 X1.8555 Y2.118
N19700 G1 X1.8524 Y2.1549
N19710 G1 X1.8487 Y2.1917
N19720 G1 X1.8443 Y2.2284
N19730 G1 X1.8392 Y2.2651
N19740 G1 X1.8335 Y2.3016
N19750 G1 X1.8271 Y2.3381
N19760 G1 X1.8201 Y2.3744
N19770 G1 X1.8125 Y2.4106
N19780 G1 X1.8042 Y2.4467
N19790 G1 X1.7953 Y2.4826
N19800 G1 X1.7858 Y2.5184
N19810 G1 X1.7757 Y2.554
N19820 G1 X1.765 Y2.5894
N19830 G1 X1.7537 Y2.6246
N19840 G1 X1.7417 Y2.6596
N19850 G1 X1.7292 Y2.6944
N19860 G1 X1.716 Y2.729
N19870 G1 X1.7022 Y2.7634
N19880 G1 X1.6889 Y2.7979
N19890 G1 X1.684 Y2.8346
N19900 G1 X1.6816 Y2.8808
N19910 G1 X1.6825 Y2.89
N19920 G1 X1.6871 Y2.9079
N19930 G1 X1.7067 Y2.9393
N19940 G1 X1.7351 Y2.963
N19950 G1 X1.7677 Y2.9805
N19960 G1 X1.7966 Y2.9909
N19970 G1 X1.7996 Y2.9935
N19980 G1 X1.8001 Y2.9973
N19990 G1 X1.798 Y3.0005
N20000 G1 X1.7943 Y3.0015
N20010 G3 X1.785 Y2.9984 R0.025
N20020 G1 X1.7816 Y2.9965 Z-0.1997
N20030 G1 X1.7783 Y2.9946 Z-0.1988
N20040 G1 X1.7752 Y2.9928 Z-0.1973
N20050 G1 X1.7723 Y2.9911 Z-0.1952
N20060 G1 X1.7697 Y2.9897 Z-0.1927
N20070 G1 X1.7675 Y2.9884 Z-0.1897
N20080 G1 X1.7657 Y2.9874 Z-0.1863
N20090 G1 X1.7644 Y2.9866 Z-0.1827
N20100 G1 X1.7636 Y2.9862 Z-0.1789
N20110 G1 X1.7633 Y2.986 Z-0.175
N20120 G0 Z0.2
N20130 G0 X1.3904 Y0.0667
N20140 G0 Z-0.15
N20150 G1 Z-0.175 F24.
N20160 G1 Y0.0664 Z-0.1789
N20170 G1 X1.3905 Y0.0655 Z-0.1827
N20180 G1 X1.3906 Y0.064 Z-0.1863
N20190 G1 X1.3908 Y0.062 Z-0.1897
N20200 G1 X1.391 Y0.0594 Z-0.1927
N20210 G1 X1.3913 Y0.0564 Z-0.1952
N20220 G1 X1.3916 Y0.0531 Z-0.1973
N20230 G1 X1.3919 Y0.0495 Z-0.1988
N20240 G1 X1.3922 Y0.0457 Z-0.1997
N20250 G1 X1.3926 Y0.0418 Z-0.2
N20260 G3 X1.3994 Y0.0347 R0.0078
N20270 G1 X1.5254 Y0.0232
N20280 G1 X1.5308 Y0.0229
N20290 G1 X1.5724 Y0.0841
N20300 G1 X1.5928 Y0.115
N20310 G1 X1.6126 Y0.1462
N20320 G1 X1.632 Y0.1778
N20330 G1 X1.6507 Y0.2097
N20340 G1 X1.6688 Y0.242
N20350 G1 X1.6862 Y0.2746
N20360 G1 X1.703 Y0.3076
N20370 G1 X1.7192 Y0.3409
N20380 G1 X1.7347 Y0.3745
N20390 G1 X1.7495 Y0.4084
N20400 G1 X1.7637 Y0.4425
N20410 G1 X1.7773 Y0.477
N20420 G1 X1.7902 Y0.5116
N20430 G1 X1.8026 Y0.5465
N20440 G1 X1.8144 Y0.5816
N20450 G1 X1.8256 Y0.6169
N20460 G1 X1.8362 Y0.6523
N20470 G1 X1.8463 Y0.6879
N20480 G1 X1.8558 Y0.7236
N20490 G1 X1.8649 Y0.7595
N20500 G1 X1.8734 Y0.7955
N20510 G1 X1.8814 Y0.8317
N20520 G1 X1.8889 Y0.8679
N20530 G1 X1.896 Y0.9042
N20540 G1 X1.9027 Y0.9406
N20550 G1 X1.9089 Y0.9771
N20560 G1 X1.9147 Y1.0136
N20570 G1 X1.9251 Y1.0869
N20580 G1 X1.934 Y1.1604
N20590 G1 X1.9416 Y1.234
N20600 G1 X1.9478 Y1.3077
N20610 G1 X1.9529 Y1.3816
N20620 G1 X1.9569 Y1.4555
N20630 G1 X1.9597 Y1.5294
N20640 G1 X1.9614 Y1.6034
N20650 G1 X1.9621 Y1.6774
N20660 G1 X1.9614 Y1.8994
N20670 G1 X1.961 Y1.9364
N20680 G1 X1.9594 Y2.0104
N20690 G1 X1.9579 Y2.0474
N20700 G1 X1.956 Y2.0843
N20710 G1 X1.9535 Y2.1212
N20720 G1 X1.9504 Y2.1581
N20730 G1 X1.9467 Y2.1949
N20740 G1 X1.9424 Y2.2317
N20750 G1 X1.9374 Y2.2683
N20760 G1 X1.9319 Y2.3049
N20770 G1 X1.9257 Y2.3414
N20780 G1 X1.919 Y2.3778
N20790 G1 X1.9116 Y2.4141
N20800 G1 X1.9036 Y2.4502
N20810 G1 X1.8951 Y2.4862
N20820 G1 X1.8859 Y2.5221
N20830 G1 X1.8762 Y2.5578
N20840 G1 X1.8659 Y2.5933
N20850 G1 X1.855 Y2.6286
N20860 G1 X1.8435 Y2.6638
N20870 G1 X1.8314 Y2.6988
N20880 G1 X1.8188 Y2.7336
N20890 G1 X1.8136 Y2.7513
N20900 G1 X1.8139 Y2.7883
N20910 G1 X1.8261 Y2.8233
N20920 G1 X1.8568 Y2.8861
N20930 G1 X1.8704 Y2.9205
N20940 G1 X1.894 Y2.9489
N20950 G1 X1.9243 Y2.9702
N20960 G1 X1.9579 Y2.9856
N20970 G1 X1.9932 Y2.9968
N20980 G1 X2.0293 Y3.0047
N20990 G1 X2.0659 Y3.0104
N21000 G1 X2.1027 Y3.0144
N21010 G1 X2.1396 Y3.0172
N21020 G1 X2.1765 Y3.0191
N21030 G1 X2.2135 Y3.0205
N21040 G1 X2.2875 Y3.0222
N21050 G1 X2.3985 Y3.0232
N21060 G1 X2.7685 Y3.0238
N21070 G1 X2.8055
N21080 G1 X4.8037 Y3.0241
N21090 G1 X5.3883 Y3.0242
N21100 G1 X5.3955 Y3.0254
N21110 G1 X5.4019 Y3.0289
N21120 G1 X5.4069 Y3.0343
N21130 G1 X5.4098 Y3.0409
N21140 G1 X5.4104 Y3.0482
N21150 G1 X5.4086 Y3.0553
N21160 G1 X5.4046 Y3.0614
N21170 G1 X5.3989 Y3.0659
N21180 G3 X5.3894 Y3.0684 R0.025
N21190 G1 X5.3855 Y3.0686 Z-0.1997
N21200 G1 X5.3817 Y3.0688 Z-0.1988
N21210 G1 X5.3781 Y3.069 Z-0.1973
N21220 G1 X5.3748 Y3.0692 Z-0.1952
N21230 G1 X5.3718 Y3.0694 Z-0.1927
N21240 G1 X5.3692 Y3.0696 Z-0.1897
N21250 G1 X5.3672 Y3.0697 Z-0.1863
N21260 G1 X5.3657 Y3.0698 Z-0.1827
N21270 G1 X5.3648 Z-0.1789
N21280 G1 X5.3645 Z-0.175
N21290 G0 Z0.2
N21300 G0 X1.5164 Y0.0551
N21310 G0 Z-0.15
N21320 G1 Z-0.175 F24.
N21330 G1 X1.5165 Y0.0548 Z-0.1789
N21340 G1 X1.5166 Y0.0539 Z-0.1827
N21350 G1 X1.5167 Y0.0524 Z-0.1863
N21360 G1 X1.5169 Y0.0504 Z-0.1897
N21370 G1 X1.5171 Y0.0478 Z-0.1927
N21380 G1 X1.5173 Y0.0449 Z-0.1952
N21390 G1 X1.5176 Y0.0415 Z-0.1973
N21400 G1 X1.5179 Y0.0379 Z-0.1988
N21410 G1 X1.5183 Y0.0341 Z-0.1997
N21420 G1 X1.5186 Y0.0302 Z-0.2
N21430 G3 X1.5254 Y0.0232 R0.0078
N21440 G1 X1.6514 Y0.0116
N21450 G1 X1.656 Y0.0114
N21460 G1 X1.6734 Y0.0441
N21470 G1 X1.7271 Y0.1412
N21480 G1 X1.7447 Y0.1738
N21490 G1 X1.762 Y0.2065
N21500 G1 X1.7788 Y0.2395
N21510 G1 X1.7951 Y0.2727
N21520 G1 X1.8109 Y0.3061
N21530 G1 X1.8262 Y0.3398
N21540 G1 X1.8409 Y0.3738
N21550 G1 X1.855 Y0.408
N21560 G1 X1.8686 Y0.4424
N21570 G1 X1.8816 Y0.4771
N21580 G1 X1.894 Y0.5119
N21590 G1 X1.9059 Y0.547
N21600 G1 X1.9172 Y0.5822
N21610 G1 X1.928 Y0.6176
N21620 G1 X1.9382 Y0.6531
N21630 G1 X1.9479 Y0.6888
N21640 G1 X1.9572 Y0.7247
N21650 G1 X1.9659 Y0.7606
N21660 G1 X1.9741 Y0.7967
N21670 G1 X1.9819 Y0.8329
N21680 G1 X1.9893 Y0.8692
N21690 G1 X1.9962 Y0.9055
N21700 G1 X2.0026 Y0.9419
N21710 G1 X2.0087 Y0.9784
N21720 G1 X2.0197 Y1.0516
N21730 G1 X2.0291 Y1.125
N21740 G1 X2.0372 Y1.1986
N21750 G1 X2.0441 Y1.2723
N21760 G1 X2.0497 Y1.3461
N21770 G1 X2.0541 Y1.4199
N21780 G1 X2.0574 Y1.4939
N21790 G1 X2.0597 Y1.5678
N21800 G1 X2.0609 Y1.6418
N21810 G1 X2.0615 Y1.7528
N21820 G1 X2.0612 Y1.8638
N21830 G1 X2.0603 Y1.9378
N21840 G1 X2.0582 Y2.0118
N21850 G1 X2.0566 Y2.0488
N21860 G1 X2.0545 Y2.0857
N21870 G1 X2.0519 Y2.1226
N21880 G1 X2.0487 Y2.1595
N21890 G1 X2.0451 Y2.1963
N21900 G1 X2.0408 Y2.2331
N21910 G1 X2.036 Y2.2698
N21920 G1 X2.0307 Y2.3064
N21930 G1 X2.0247 Y2.3429
N21940 G1 X2.0182 Y2.3793
N21950 G1 X2.0111 Y2.4157
N21960 G1 X2.0034 Y2.4519
N21970 G1 X1.9952 Y2.4879
N21980 G1 X1.9864 Y2.5239
N21990 G1 X1.977 Y2.5597
N22000 G1 X1.9671 Y2.5953
N22010 G1 X1.9566 Y2.6308
N22020 G1 X1.9456 Y2.6661
N22030 G1 X1.9393 Y2.7026
N22040 G1 X1.9398 Y2.7396
N22050 G1 X1.9449 Y2.7762
N22060 G1 X1.9614 Y2.8094
N22070 G1 X1.9862 Y2.8368
N22080 G1 X2.0162 Y2.8585
N22090 G1 X2.0492 Y2.8752
N22100 G1 X2.0839 Y2.8879
N22110 G1 X2.1197 Y2.8974
N22120 G1 X2.156 Y2.9045
N22130 G1 X2.1926 Y2.9097
N22140 G1 X2.2294 Y2.9136
N22150 G1 X2.2663 Y2.9164
N22160 G1 X2.3033 Y2.9184
N22170 G1 X2.3403 Y2.9199
N22180 G1 X2.4142 Y2.9218
N22190 G1 X2.5252 Y2.923
N22200 G1 X2.7843 Y2.9237
N22210 G1 X3.0433 Y2.9238
N22220 G1 X5.0414 Y2.9242
N22230 G1 X5.3005
N22240 G1 X5.3289 Y2.9252
N22250 G1 X5.3495 Y2.9276
N22260 G1 X5.3655 Y2.9308
N22270 G1 X5.3794 Y2.9348
N22280 G1 X5.3918 Y2.9394
N22290 G1 X5.4022 Y2.9443
N22300 G1 X5.412 Y2.9499
N22310 G1 X5.4426 Y2.9707
N22320 G1 X5.4511 Y2.9776
N22330 G1 X5.4575 Y2.9864
N22340 G1 X5.4614 Y2.9965
N22350 G1 X5.4625 Y3.0073
N22360 G1 X5.4609 Y3.0181
N22370 G1 X5.4565 Y3.028
N22380 G1 X5.4497 Y3.0365
N22390 G1 X5.4409 Y3.0429
N22400 G3 X5.4315 Y3.0455 R0.025
N22410 G1 X5.4276 Y3.0458 Z-0.1997
N22420 G1 X5.4238 Y3.0461 Z-0.1988
N22430 G1 X5.4202 Y3.0463 Z-0.1973
N22440 G1 X5.4168 Y3.0466 Z-0.1952
N22450 G1 X5.4138 Y3.0468 Z-0.1927
N22460 G1 X5.4113 Y3.047 Z-0.1897
N22470 G1 X5.4093 Y3.0472 Z-0.1863
N22480 G1 X5.4078 Y3.0473 Z-0.1827
N22490 G1 X5.4069 Z-0.1789
N22500 G1 X5.4065 Y3.0474 Z-0.175
N22510 G0 Z0.2
N22520 G0 X1.6425 Y0.0436
N22530 G0 Z-0.15
N22540 G1 Z-0.175 F24.
N22550 G1 Y0.0433 Z-0.1789
N22560 G1 X1.6426 Y0.0424 Z-0.1827
N22570 G1 X1.6427 Y0.0409 Z-0.1863
N22580 G1 X1.6429 Y0.0388 Z-0.1897
N22590 G1 X1.6431 Y0.0363 Z-0.1927
N22600 G1 X1.6434 Y0.0333 Z-0.1952
N22610 G1 X1.6437 Y0.03 Z-0.1973
N22620 G1 X1.644 Y0.0264 Z-0.1988
N22630 G1 X1.6443 Y0.0226 Z-0.1997
N22640 G1 X1.6446 Y0.0187 Z-0.2
N22650 G3 X1.6514 Y0.0116 R0.0078
N22660 G1 X1.7943 Y-0.0015
N22670 G1 X1.7989 Y-0.0017
N22680 G1 X1.8079 Y0.0342
N22690 G1 X1.8194 Y0.0693
N22700 G1 X1.8325 Y0.1039
N22710 G1 X1.8466 Y0.1381
N22720 G1 X1.906 Y0.2737
N22730 G1 X1.9346 Y0.342
N22740 G1 X1.9484 Y0.3763
N22750 G1 X1.9617 Y0.4108
N22760 G1 X1.9745 Y0.4456
N22770 G1 X1.9868 Y0.4804
N22780 G1 X1.9986 Y0.5155
N22790 G1 X2.01 Y0.5507
N22800 G1 X2.0208 Y0.5861
N22810 G1 X2.0311 Y0.6216
N22820 G1 X2.041 Y0.6573
N22830 G1 X2.0503 Y0.6931
N22840 G1 X2.0592 Y0.729
N22850 G1 X2.0676 Y0.7651
N22860 G1 X2.0756 Y0.8012
N22870 G1 X2.0831 Y0.8374
N22880 G1 X2.0902 Y0.8737
N22890 G1 X2.0969 Y0.9101
N22900 G1 X2.1091 Y0.9831
N22910 G1 X2.1197 Y1.0564
N22920 G1 X2.129 Y1.1298
N22930 G1 X2.1369 Y1.2034
N22940 G1 X2.1436 Y1.2771
N22950 G1 X2.149 Y1.3509
N22960 G1 X2.1534 Y1.4248
N22970 G1 X2.1566 Y1.4987
N22980 G1 X2.1588 Y1.5727
N22990 G1 X2.1605 Y1.6837
N23000 G1 X2.161 Y1.7947
N23010 G1 X2.1606 Y1.8687
N23020 G1 X2.1593 Y1.9427
N23030 G1 X2.1568 Y2.0166
N23040 G1 X2.155 Y2.0536
N23050 G1 X2.1528 Y2.0905
N23060 G1 X2.1501 Y2.1274
N23070 G1 X2.1469 Y2.1643
N23080 G1 X2.1432 Y2.2011
N23090 G1 X2.139 Y2.2379
N23100 G1 X2.1343 Y2.2746
N23110 G1 X2.129 Y2.3112
N23120 G1 X2.1232 Y2.3477
N23130 G1 X2.1169 Y2.3842
N23140 G1 X2.11 Y2.4205
N23150 G1 X2.1025 Y2.4568
N23160 G1 X2.0945 Y2.4929
N23170 G1 X2.086 Y2.5289
N23180 G1 X2.0769 Y2.5648
N23190 G1 X2.0673 Y2.6005
N23200 G1 X2.0591 Y2.6366
N23210 G1 X2.0604 Y2.6551
N23220 G1 X2.0701 Y2.6908
N23230 G1 X2.0909 Y2.7214
N23240 G1 X2.1185 Y2.746
N23250 G1 X2.1501 Y2.7653
N23260 G1 X2.184 Y2.7801
N23270 G1 X2.2192 Y2.7914
N23280 G1 X2.2553 Y2.7998
N23290 G1 X2.2917 Y2.8061
N23300 G1 X2.3284 Y2.8108
N23310 G1 X2.3653 Y2.8142
N23320 G1 X2.4022 Y2.8168
N23330 G1 X2.4392 Y2.8187
N23340 G1 X2.5131 Y2.8211
N23350 G1 X2.6241 Y2.8227
N23360 G1 X2.8461 Y2.8237
N23370 G1 X3.2532 Y2.8239
N23380 G1 X5.2143 Y2.8242
N23390 G1 X5.2513 Y2.8246
N23400 G1 X5.2883 Y2.8263
N23410 G1 X5.3238 Y2.83
N23420 G1 X5.3531 Y2.8355
N23430 G1 X5.3796 Y2.8428
N23440 G1 X5.4089 Y2.8533
N23450 G1 X5.4305 Y2.8631
N23460 G1 X5.4473 Y2.8725
N23470 G1 X5.461 Y2.8816
N23480 G1 X5.4728 Y2.8909
N23490 G1 X5.4831 Y2.9005
N23500 G1 X5.4915 Y2.9096
N23510 G1 X5.5086 Y2.9316
N23520 G1 X5.515 Y2.9419
N23530 G1 X5.519 Y2.9533
N23540 G1 X5.5204 Y2.9654
N23550 G1 X5.5193 Y2.9774
N23560 G1 X5.5156 Y2.989
N23570 G1 X5.5095 Y2.9994
N23580 G1 X5.5012 Y3.0083
N23590 G1 X5.4913 Y3.0153
N23600 G3 X5.4819 Y3.0179 R0.025
N23610 G1 X5.478 Y3.0182 Z-0.1997
N23620 G1 X5.4742 Y3.0185 Z-0.1988
N23630 G1 X5.4706 Y3.0187 Z-0.1973
N23640 G1 X5.4672 Y3.019 Z-0.1952
N23650 G1 X5.4643 Y3.0192 Z-0.1927
N23660 G1 X5.4617 Y3.0194 Z-0.1897
N23670 G1 X5.4597 Y3.0195 Z-0.1863
N23680 G1 X5.4582 Y3.0196 Z-0.1827
N23690 G1 X5.4573 Y3.0197 Z-0.1789
N23700 G1 X5.457 Z-0.175
N23710 G0 Z0.2
N23720 G0 X1.7853 Y0.0305
N23730 G0 Z-0.15
N23740 G1 Z-0.175 F24.
N23750 G1 Y0.0301 Z-0.1789
N23760 G1 X1.7854 Y0.0292 Z-0.1827
N23770 G1 X1.7856 Y0.0277 Z-0.1863
N23780 G1 X1.7857 Y0.0257 Z-0.1897
N23790 G1 X1.7859 Y0.0232 Z-0.1927
N23800 G1 X1.7862 Y0.0202 Z-0.1952
N23810 G1 X1.7865 Y0.0169 Z-0.1973
N23820 G1 X1.7868 Y0.0132 Z-0.1988
N23830 G1 X1.7871 Y0.0094 Z-0.1997
N23840 G1 X1.7875 Y0.0055 Z-0.2
N23850 G3 X1.7943 Y-0.0015 R0.0078
N23860 G1 X1.9623 Y-0.017
N23870 G1 X1.9635
N23880 G1 X1.9583 Y0.0196
N23890 G1 X1.9587 Y0.0566
N23900 G1 X1.9634 Y0.0933
N23910 G1 X1.9712 Y0.1295
N23920 G1 X1.981 Y0.1652
N23930 G1 X1.9922 Y0.2004
N23940 G1 X2.0043 Y0.2354
N23950 G1 X2.0547 Y0.3746
N23960 G1 X2.0791 Y0.4445
N23970 G1 X2.0907 Y0.4796
N23980 G1 X2.1019 Y0.5148
N23990 G1 X2.1128 Y0.5502
N24000 G1 X2.1231 Y0.5858
N24010 G1 X2.1331 Y0.6214
N24020 G1 X2.1425 Y0.6572
N24030 G1 X2.1516 Y0.6931
N24040 G1 X2.1602 Y0.729
N24050 G1 X2.1683 Y0.7651
N24060 G1 X2.1761 Y0.8013
N24070 G1 X2.1834 Y0.8376
N24080 G1 X2.1903 Y0.8739
N24090 G1 X2.203 Y0.9468
N24100 G1 X2.2142 Y1.02
N24110 G1 X2.2239 Y1.0934
N24120 G1 X2.2324 Y1.1669
N24130 G1 X2.2396 Y1.2405
N24140 G1 X2.2456 Y1.3143
N24150 G1 X2.2504 Y1.3881
N24160 G1 X2.2542 Y1.4621
N24170 G1 X2.2569 Y1.536
N24180 G1 X2.2594 Y1.647
N24190 G1 X2.2604 Y1.758
N24200 G1 X2.2599 Y1.869
N24210 G1 X2.2584 Y1.943
N24220 G1 X2.2557 Y2.0169
N24230 G1 X2.2538 Y2.0539
N24240 G1 X2.2515 Y2.0908
N24250 G1 X2.2488 Y2.1277
N24260 G1 X2.2457 Y2.1646
N24270 G1 X2.242 Y2.2014
N24280 G1 X2.2379 Y2.2382
N24290 G1 X2.2333 Y2.2749
N24300 G1 X2.2281 Y2.3116
N24310 G1 X2.2225 Y2.3481
N24320 G1 X2.2163 Y2.3846
N24330 G1 X2.2097 Y2.421
N24340 G1 X2.2025 Y2.4573
N24350 G1 X2.1948 Y2.4935
N24360 G1 X2.1865 Y2.5296
N24370 G1 X2.1857 Y2.5481
N24380 G1 X2.189 Y2.5663
N24390 G1 X2.2022 Y2.6008
N24400 G1 X2.2255 Y2.6296
N24410 G1 X2.2545 Y2.6525
N24420 G1 X2.287 Y2.6703
N24430 G1 X2.3214 Y2.6839
N24440 G1 X2.3569 Y2.6942
N24450 G1 X2.3931 Y2.7018
N24460 G1 X2.4297 Y2.7076
N24470 G1 X2.4664 Y2.7118
N24480 G1 X2.5033 Y2.715
N24490 G1 X2.5402 Y2.7173
N24500 G1 X2.5772 Y2.719
N24510 G1 X2.6512 Y2.7212
N24520 G1 X2.7622 Y2.7228
N24530 G1 X2.9842 Y2.7237
N24540 G1 X3.5022 Y2.7239
N24550 G1 X5.1674 Y2.7243
N24560 G1 X5.2043 Y2.7249
N24570 G1 X5.2413 Y2.7264
N24580 G1 X5.2782 Y2.7291
N24590 G1 X5.3149 Y2.7337
N24600 G1 X5.3513 Y2.7405
N24610 G1 X5.3872 Y2.7497
N24620 G1 X5.4187 Y2.7603
N24630 G1 X5.4464 Y2.7722
N24640 G1 X5.4707 Y2.785
N24650 G1 X5.4929 Y2.7991
N24660 G1 X5.5141 Y2.8151
N24670 G1 X5.5301 Y2.8293
N24680 G1 X5.5433 Y2.8431
N24690 G1 X5.5535 Y2.8556
N24700 G1 X5.5626 Y2.8688
N24710 G1 X5.5695 Y2.8808
N24720 G1 X5.5793 Y2.9014
N24730 G1 X5.5832 Y2.9124
N24740 G1 X5.5848 Y2.9241
N24750 G1 X5.5841 Y2.9358
N24760 G1 X5.5811 Y2.9471
N24770 G1 X5.5758 Y2.9576
N24780 G1 X5.5685 Y2.9669
N24790 G1 X5.5596 Y2.9744
N24800 G3 X5.5505 Y2.978 R0.025
N24810 G1 X5.5466 Y2.9787 Z-0.1997
N24820 G1 X5.5429 Y2.9793 Z-0.1988
N24830 G1 X5.5393 Y2.9799 Z-0.1973
N24840 G1 X5.536 Y2.9805 Z-0.1952
N24850 G1 X5.5331 Y2.981 Z-0.1927
N24860 G1 X5.5306 Y2.9815 Z-0.1897
N24870 G1 X5.5285 Y2.9818 Z-0.1863
N24880 G1 X5.5271 Y2.9821 Z-0.1827
N24890 G1 X5.5262 Y2.9823 Z-0.1789
N24900 G1 X5.5259 Z-0.175
N24910 G0 Z0.2
N24920 G0 X1.9534 Y0.015
N24930 G0 Z-0.15
N24940 G1 Z-0.175 F24.
N24950 G1 Y0.0147 Z-0.1789
N24960 G1 X1.9535 Y0.0138 Z-0.1827
N24970 G1 X1.9536 Y0.0123 Z-0.1863
N24980 G1 X1.9538 Y0.0103 Z-0.1897
N24990 G1 X1.954 Y0.0077 Z-0.1927
N25000 G1 X1.9543 Y0.0048 Z-0.1952
N25010 G1 X1.9545 Y0.0014 Z-0.1973
N25020 G1 X1.9548 Y-0.0022 Z-0.1988
N25030 G1 X1.9552 Y-0.006 Z-0.1997
N25040 G1 X1.9555 Y-0.0099 Z-0.2
N25050 G3 X1.9623 Y-0.017 R0.0078
N25060 G1 X3.1218 Y-0.1234
N25070 G1 X3.1244 Y-0.1237 Z-0.1998
N25080 G1 X3.127 Y-0.1239 Z-0.1991
N25090 G1 X3.1293 Y-0.1241 Z-0.198
N25100 G1 X3.1315 Y-0.1243 Z-0.1965
N25110 G1 X3.1333 Y-0.1245 Z-0.1947
N25120 G1 X3.1349 Y-0.1246 Z-0.1925
N25130 G1 X3.1353 Z-0.1916
N25140 G1 X3.1362 Y-0.1245 Z-0.1895
N25150 G1 X3.1367 Y-0.1244 Z-0.1872
N25160 G1 X3.1369 Z-0.1848
N25170 G0 Z0.2
N25180 G0 X5.1073 Y-0.1598
N25190 G0 Z-0.15
N25200 G1 Z-0.175 F24.
N25210 G1 X5.1076 Y-0.1597 Z-0.1789
N25220 G1 X5.1085 Y-0.1596 Z-0.1827
N25230 G1 X5.11 Y-0.1594 Z-0.1863
N25240 G1 X5.112 Y-0.1592 Z-0.1897
N25250 G1 X5.1146 Y-0.1589 Z-0.1927
N25260 G1 X5.1175 Y-0.1585 Z-0.1952
N25270 G1 X5.1208 Y-0.1581 Z-0.1973
N25280 G1 X5.1244 Y-0.1576 Z-0.1988
N25290 G1 X5.1282 Y-0.1571 Z-0.1997
N25300 G1 X5.1321 Y-0.1566 Z-0.2
N25310 G3 X5.2658 Y-0.1247 R0.6382
N25320 G1 X5.3316 Y-0.0983
N25330 G1 X5.3485 Y-0.0911
N25340 G1 X5.3653 Y-0.0827
N25350 G1 X5.3663 Y-0.0821
N25360 G1 X5.3628 Y-0.078
N25370 G1 X5.3584 Y-0.0748
N25380 G1 X5.3534 Y-0.0717
N25390 G1 X5.3469 Y-0.0685
N25400 G1 X5.326 Y-0.06
N25410 G1 X5.2974 Y-0.051
N25420 G1 X5.2613 Y-0.0428
N25430 G1 X5.2247 Y-0.0372
N25440 G1 X5.1879 Y-0.0333
N25450 G1 X5.151 Y-0.0306
N25460 G1 X5.1141 Y-0.0287
N25470 G1 X5.0401 Y-0.0265
N25480 G1 X4.9291 Y-0.0252
N25490 G1 X4.6701 Y-0.0245
N25500 G1 X3.375 Y-0.0244
N25510 G1 X3.227
N25520 G1 X3.19 Y-0.0235
N25530 G1 X3.153 Y-0.0218
N25540 G1 X3.0792 Y-0.0171
N25550 G1 X2.9685 Y-0.0083
N25560 G1 X2.7105 Y0.0148
N25570 G1 X2.2039 Y0.0613
N25580 G1 X2.1949 Y0.0636
N25590 G1 X2.1864 Y0.0673
N25600 G1 X2.1786 Y0.0722
N25610 G1 X2.1717 Y0.0784
N25620 G1 X2.16 Y0.0927
N25630 G1 X2.1439 Y0.126
N25640 G1 X2.1362 Y0.1622
N25650 G1 X2.1345 Y0.1992
N25660 G1 X2.137 Y0.2361
N25670 G1 X2.1425 Y0.2727
N25680 G1 X2.15 Y0.3089
N25690 G1 X2.1587 Y0.3449
N25700 G1 X2.1683 Y0.3806
N25710 G1 X2.2089 Y0.523
N25720 G1 X2.2284 Y0.5944
N25730 G1 X2.2466 Y0.6661
N25740 G1 X2.2633 Y0.7382
N25750 G1 X2.2785 Y0.8106
N25760 G1 X2.2921 Y0.8833
N25770 G1 X2.3043 Y0.9563
N25780 G1 X2.3151 Y1.0296
N25790 G1 X2.3245 Y1.103
N25800 G1 X2.3327 Y1.1765
N25810 G1 X2.3396 Y1.2502
N25820 G1 X2.3454 Y1.324
N25830 G1 X2.35 Y1.3978
N25840 G1 X2.3536 Y1.4717
N25850 G1 X2.3563 Y1.5457
N25860 G1 X2.3588 Y1.6567
N25870 G1 X2.3597 Y1.7677
N25880 G1 X2.3594 Y1.8417
N25890 G1 X2.3582 Y1.9157
N25900 G1 X2.3558 Y1.9897
N25910 G1 X2.3521 Y2.0636
N25920 G1 X2.3497 Y2.1005
N25930 G1 X2.3468 Y2.1374
N25940 G1 X2.3436 Y2.1742
N25950 G1 X2.3399 Y2.2111
N25960 G1 X2.3357 Y2.2478
N25970 G1 X2.3311 Y2.2845
N25980 G1 X2.326 Y2.3212
N25990 G1 X2.3204 Y2.3578
N26000 G1 X2.3143 Y2.3943
N26010 G1 X2.3077 Y2.4307
N26020 G1 X2.3078 Y2.4492
N26030 G1 X2.3116 Y2.4673
N26040 G1 X2.3256 Y2.5015
N26050 G1 X2.3492 Y2.53
N26060 G1 X2.3784 Y2.5527
N26070 G1 X2.411 Y2.5704
N26080 G1 X2.4454 Y2.5838
N26090 G1 X2.481 Y2.594
N26100 G1 X2.5172 Y2.6017
N26110 G1 X2.5538 Y2.6074
N26120 G1 X2.5905 Y2.6117
N26130 G1 X2.6274 Y2.6149
N26140 G1 X2.6643 Y2.6172
N26150 G1 X2.7013 Y2.619
N26160 G1 X2.7752 Y2.6212
N26170 G1 X2.8862 Y2.6228
N26180 G1 X3.1082 Y2.6237
N26190 G1 X4.5884 Y2.6241
N26200 G1 X5.1064 Y2.6243
N26210 G1 X5.1434 Y2.6248
N26220 G1 X5.1804 Y2.6257
N26230 G1 X5.2174 Y2.6274
N26240 G1 X5.2543 Y2.6301
N26250 G1 X5.291 Y2.6342
N26260 G1 X5.3276 Y2.6398
N26270 G1 X5.3639 Y2.6472
N26280 G1 X5.3996 Y2.6566
N26290 G1 X5.4347 Y2.6683
N26300 G1 X5.4689 Y2.6825
N26310 G1 X5.5014 Y2.6989
N26320 G1 X5.5295 Y2.716
N26330 G1 X5.5541 Y2.7339
N26340 G1 X5.5757 Y2.7525
N26350 G1 X5.5947 Y2.7716
N26360 G1 X5.6113 Y2.7913
N26370 G1 X5.6232 Y2.808
N26380 G1 X5.633 Y2.8243
N26390 G1 X5.6403 Y2.8389
N26400 G1 X5.6461 Y2.8535
N26410 G1 X5.6503 Y2.8672
N26420 G1 X5.6517 Y2.8785
N26430 G1 X5.6508 Y2.89
N26440 G1 X5.6477 Y2.901
N26450 G1 X5.6425 Y2.9112
N26460 G1 X5.6354 Y2.9202
N26470 G1 X5.6267 Y2.9277
N26480 G3 X5.6177 Y2.9313 R0.025
N26490 G1 X5.6138 Y2.932 Z-0.1997
N26500 G1 X5.6101 Y2.9327 Z-0.1988
N26510 G1 X5.6065 Y2.9333 Z-0.1973
N26520 G1 X5.6032 Y2.9339 Z-0.1952
N26530 G1 X5.6003 Y2.9345 Z-0.1927
N26540 G1 X5.5978 Y2.9349 Z-0.1897
N26550 G1 X5.5958 Y2.9353 Z-0.1863
N26560 G1 X5.5943 Y2.9356 Z-0.1827
N26570 G1 X5.5934 Y2.9357 Z-0.1789
N26580 G1 X5.5931 Y2.9358 Z-0.175
N26590 G0 Z0.2
N26600 G0 X5.3557 Y-0.0803
N26610 G0 Z-0.0963
N26620 G1 Z-0.1213 F24.
N26630 G1 Z-0.2
N26640 G3 X5.3653 Y-0.0827 R0.0078
N26650 G1 X5.3905 Y-0.0695
N26660 G1 X5.3925 Y-0.0683
N26670 G1 X5.3902 Y-0.0621
N26680 G1 X5.3872 Y-0.0554
N26690 G1 X5.3828 Y-0.0477
N26700 G1 X5.3775 Y-0.0397
N26710 G1 X5.3709 Y-0.0313
N26720 G1 X5.362 Y-0.0218
N26730 G1 X5.3518 Y-0.0126
N26740 G1 X5.339 Y-0.0026
N26750 G1 X5.3234 Y0.0076
N26760 G1 X5.3039 Y0.0183
N26770 G1 X5.2799 Y0.0289
N26780 G1 X5.2488 Y0.0399
N26790 G1 X5.2131 Y0.0493
N26800 G1 X5.1767 Y0.0563
N26810 G1 X5.1401 Y0.0614
N26820 G1 X5.1033 Y0.0652
N26830 G1 X5.0664 Y0.068
N26840 G1 X5.0294 Y0.07
N26850 G1 X4.9925 Y0.0715
N26860 G1 X4.9185 Y0.0734
N26870 G1 X4.8075 Y0.0747
N26880 G1 X4.5485 Y0.0755
N26890 G1 X3.4384 Y0.0756
N26900 G1 X3.2904 Y0.0758
N26910 G1 X3.2534 Y0.0763
N26920 G1 X3.2164 Y0.0773
N26930 G1 X3.1425 Y0.0806
N26940 G1 X3.0686 Y0.0852
N26950 G1 X2.9579 Y0.0937
N26960 G1 X2.7736 Y0.1097
N26970 G1 X2.3682 Y0.1466
N26980 G1 X2.3507 Y0.1526
N26990 G1 X2.3356 Y0.1632
N27000 G1 X2.3101 Y0.1901
N27010 G1 X2.294 Y0.2234
N27020 G1 X2.2851 Y0.2593
N27030 G1 X2.2818 Y0.2961
N27040 G1 X2.2825 Y0.3331
N27050 G1 X2.286 Y0.37
N27060 G1 X2.2914 Y0.4066
N27070 G1 X2.2982 Y0.4429
N27080 G1 X2.3058 Y0.4792
N27090 G1 X2.3308 Y0.5873
N27100 G1 X2.3475 Y0.6594
N27110 G1 X2.3633 Y0.7317
N27120 G1 X2.3779 Y0.8043
N27130 G1 X2.3912 Y0.8771
N27140 G1 X2.4032 Y0.9501
N27150 G1 X2.4139 Y1.0233
N27160 G1 X2.4232 Y1.0967
N27170 G1 X2.4313 Y1.1703
N27180 G1 X2.4383 Y1.244
N27190 G1 X2.4441 Y1.3177
N27200 G1 X2.4488 Y1.3916
N27210 G1 X2.4525 Y1.4655
N27220 G1 X2.4553 Y1.5395
N27230 G1 X2.458 Y1.6504
N27240 G1 X2.459 Y1.7614
N27250 G1 X2.4587 Y1.8354
N27260 G1 X2.4574 Y1.9094
N27270 G1 X2.4551 Y1.9834
N27280 G1 X2.4514 Y2.0573
N27290 G1 X2.4462 Y2.1311
N27300 G1 X2.4431 Y2.168
N27310 G1 X2.4395 Y2.2048
N27320 G1 X2.4355 Y2.2416
N27330 G1 X2.431 Y2.2784
N27340 G1 X2.4239 Y2.3334
N27350 G1 X2.4253 Y2.3519
N27360 G1 X2.4349 Y2.3876
N27370 G1 X2.4555 Y2.4183
N27380 G1 X2.4829 Y2.4432
N27390 G1 X2.5143 Y2.4629
N27400 G1 X2.548 Y2.478
N27410 G1 X2.5832 Y2.4895
N27420 G1 X2.6191 Y2.4983
N27430 G1 X2.6556 Y2.5048
N27440 G1 X2.6922 Y2.5097
N27450 G1 X2.7291 Y2.5134
N27460 G1 X2.766 Y2.5161
N27470 G1 X2.8029 Y2.5181
N27480 G1 X2.8769 Y2.5207
N27490 G1 X2.9879 Y2.5226
N27500 G1 X3.0249 Y2.5229
N27510 G1 X3.2469 Y2.5237
N27520 G1 X5.023 Y2.5242
N27530 G1 X5.097 Y2.5248
N27540 G1 X5.134 Y2.5256
N27550 G1 X5.171 Y2.5269
N27560 G1 X5.2079 Y2.529
N27570 G1 X5.2448 Y2.532
N27580 G1 X5.2816 Y2.5361
N27590 G1 X5.3182 Y2.5415
N27600 G1 X5.3546 Y2.5483
N27610 G1 X5.3906 Y2.5566
N27620 G1 X5.4262 Y2.5668
N27630 G1 X5.4611 Y2.579
N27640 G1 X5.4953 Y2.5931
N27650 G1 X5.5285 Y2.6094
N27660 G1 X5.5606 Y2.6279
N27670 G1 X5.5912 Y2.6487
N27680 G1 X5.6199 Y2.6716
N27690 G1 X5.6439 Y2.6941
N27700 G1 X5.6641 Y2.7164
N27710 G1 X5.6814 Y2.7388
N27720 G1 X5.6945 Y2.7591
N27730 G1 X5.7044 Y2.7774
N27740 G1 X5.7115 Y2.7934
N27750 G1 X5.7168 Y2.8089
N27760 G1 X5.7186 Y2.8155
N27770 G1 X5.7204 Y2.8286
N27780 G1 X5.7193 Y2.8418
N27790 G1 X5.7152 Y2.8544
N27800 G1 X5.7083 Y2.8658
N27810 G1 X5.6991 Y2.8753
N27820 G1 X5.6845 Y2.8872
N27830 G1 X5.6739 Y2.8947
N27840 G3 X5.6648 Y2.8983 R0.025
N27850 G1 X5.661 Y2.899 Z-0.1997
N27860 G1 X5.6572 Y2.8998 Z-0.1988
N27870 G1 X5.6537 Y2.9004 Z-0.1973
N27880 G1 X5.6504 Y2.901 Z-0.1952
N27890 G1 X5.6475 Y2.9016 Z-0.1927
N27900 G1 X5.645 Y2.9021 Z-0.1897
N27910 G1 X5.6429 Y2.9024 Z-0.1863
N27920 G1 X5.6415 Y2.9027 Z-0.1827
N27930 G1 X5.6406 Y2.9029 Z-0.1789
N27940 G1 X5.6403 Z-0.175
N27950 G0 Z0.2
N27960 G0 X5.3655 Y-0.0475
N27970 G0 Z-0.15
N27980 G1 Z-0.175 F24.
N27990 G1 X5.3657 Y-0.0478 Z-0.1789
N28000 G1 X5.3663 Y-0.0485 Z-0.1827
N28010 G1 X5.3672 Y-0.0497 Z-0.1863
N28020 G1 X5.3685 Y-0.0513 Z-0.1897
N28030 G1 X5.37 Y-0.0533 Z-0.1927
N28040 G1 X5.3719 Y-0.0556 Z-0.1952
N28050 G1 X5.3739 Y-0.0583 Z-0.1973
N28060 G1 X5.3762 Y-0.0611 Z-0.1988
N28070 G1 X5.3785 Y-0.0641 Z-0.1997
N28080 G1 X5.3809 Y-0.0672 Z-0.2
N28090 G3 X5.3905 Y-0.0695 R0.0078
N28100 G1 X5.4241 Y-0.0517
N28110 G1 X5.4252 Y-0.0511
N28120 G1 X5.4248 Y-0.0427
N28130 G1 X5.4237 Y-0.0342
N28140 G1 X5.4216 Y-0.0245
N28150 G1 X5.4187 Y-0.0147
N28160 G1 X5.4145 Y-0.0039
N28170 G1 X5.4091 Y0.0072
N28180 G1 X5.4021 Y0.019
N28190 G1 X5.3935 Y0.0312
N28200 G1 X5.3831 Y0.0438
N28210 G1 X5.3702 Y0.057
N28220 G1 X5.3551 Y0.0702
N28230 G1 X5.3363 Y0.0841
N28240 G1 X5.315 Y0.0973
N28250 G1 X5.2885 Y0.111
N28260 G1 X5.2561 Y0.1245
N28270 G1 X5.2209 Y0.136
N28280 G1 X5.1851 Y0.1451
N28290 G1 X5.1487 Y0.1521
N28300 G1 X5.1122 Y0.1576
N28310 G1 X5.0754 Y0.1619
N28320 G1 X5.0385 Y0.1652
N28330 G1 X5.0016 Y0.1677
N28340 G1 X4.9647 Y0.1696
N28350 G1 X4.8907 Y0.1722
N28360 G1 X4.7797 Y0.1741
N28370 G1 X4.5947 Y0.1752
N28380 G1 X3.5586 Y0.1756
N28390 G1 X3.5216
N28400 G1 X3.3366 Y0.1759
N28410 G1 X3.2626 Y0.1772
N28420 G1 X3.1887 Y0.1798
N28430 G1 X3.1148 Y0.1836
N28440 G1 X3.004 Y0.1911
N28450 G1 X2.8565 Y0.2031
N28460 G1 X2.5616 Y0.2294
N28470 G1 X2.5248 Y0.2327
N28480 G1 X2.5066 Y0.2361
N28490 G1 X2.4899 Y0.2441
N28500 G1 X2.4607 Y0.2668
N28510 G1 X2.4404 Y0.2977
N28520 G1 X2.4275 Y0.3325
N28530 G1 X2.4206 Y0.3688
N28540 G1 X2.418 Y0.4057
N28550 G1 X2.4187 Y0.4427
N28560 G1 X2.4217 Y0.4796
N28570 G1 X2.4263 Y0.5163
N28580 G1 X2.432 Y0.5529
N28590 G1 X2.4383 Y0.5893
N28600 G1 X2.4731 Y0.771
N28610 G1 X2.4861 Y0.8439
N28620 G1 X2.4982 Y0.9169
N28630 G1 X2.509 Y0.9901
N28640 G1 X2.5187 Y1.0635
N28650 G1 X2.5272 Y1.137
N28660 G1 X2.531 Y1.1738
N28670 G1 X2.5378 Y1.2475
N28680 G1 X2.5435 Y1.3213
N28690 G1 X2.5481 Y1.3951
N28700 G1 X2.5518 Y1.4691
N28710 G1 X2.5546 Y1.543
N28720 G1 X2.5573 Y1.654
N28730 G1 X2.5581 Y1.728
N28740 G1 Y1.802
N28750 G1 X2.5572 Y1.876
N28760 G1 X2.5553 Y1.95
N28770 G1 X2.5522 Y2.0239
N28780 G1 X2.5477 Y2.0978
N28790 G1 X2.5417 Y2.1715
N28800 G1 X2.5342 Y2.2452
N28810 G1 X2.5428 Y2.2811
N28820 G1 X2.5623 Y2.3126
N28830 G1 X2.5888 Y2.3383
N28840 G1 X2.6197 Y2.3588
N28850 G1 X2.6531 Y2.3747
N28860 G1 X2.688 Y2.3869
N28870 G1 X2.7238 Y2.3962
N28880 G1 X2.7602 Y2.4032
N28890 G1 X2.7968 Y2.4085
N28900 G1 X2.8336 Y2.4124
N28910 G1 X2.8705 Y2.4153
N28920 G1 X2.9074 Y2.4175
N28930 G1 X2.9444 Y2.4192
N28940 G1 X3.0184 Y2.4213
N28950 G1 X3.1294 Y2.4228
N28960 G1 X3.3514 Y2.4237
N28970 G1 X3.3884 Y2.4238
N28980 G1 X4.2923 Y2.424
N28990 G1 X4.2985 Y2.4244
N29000 G1 X4.3046 Y2.4254
N29010 G1 X4.3106 Y2.427
N29020 G1 X4.3486 Y2.4392
N29030 G1 X4.3654 Y2.444
N29040 G1 X4.441 Y2.4604
N29050 G1 X4.4746 Y2.466
N29060 G1 X4.525 Y2.4717
N29070 G1 X4.5502 Y2.474
N29080 G1 X4.5838 Y2.4751
N29090 G1 X4.6595 Y2.475
N29100 G1 X4.6931 Y2.472
N29110 G1 X4.7435 Y2.4671
N29120 G1 X4.7603 Y2.4632
N29130 G1 X4.7687 Y2.4609
N29140 G1 X4.771 Y2.46
N29150 G1 X4.7868 Y2.4545
N29160 G1 X4.8216 Y2.4453
N29170 G1 X4.858 Y2.4388
N29180 G1 X4.8948 Y2.4343
N29190 G1 X4.9316 Y2.4312
N29200 G1 X4.9686 Y2.4291
N29210 G1 X5.0056 Y2.4278
N29220 G1 X5.0426 Y2.4271
N29230 G1 X5.0796 Y2.4269
N29240 G1 X5.1166 Y2.4274
N29250 G1 X5.1536 Y2.4285
N29260 G1 X5.1905 Y2.4304
N29270 G1 X5.2274 Y2.4332
N29280 G1 X5.2642 Y2.4369
N29290 G1 X5.3009 Y2.4417
N29300 G1 X5.3374 Y2.4476
N29310 G1 X5.3737 Y2.4549
N29320 G1 X5.4097 Y2.4637
N29330 G1 X5.4452 Y2.474
N29340 G1 X5.4802 Y2.486
N29350 G1 X5.5146 Y2.4997
N29360 G1 X5.5482 Y2.5152
N29370 G1 X5.5809 Y2.5325
N29380 G1 X5.6126 Y2.5516
N29390 G1 X5.6429 Y2.5728
N29400 G1 X5.6718 Y2.5959
N29410 G1 X5.699 Y2.621
N29420 G1 X5.7232 Y2.6469
N29430 G1 X5.7432 Y2.6721
N29440 G1 X5.7596 Y2.6965
N29450 G1 X5.7713 Y2.7174
N29460 G1 X5.7794 Y2.7351
N29470 G1 X5.7857 Y2.7524
N29480 G1 X5.7866 Y2.7558
N29490 G1 X5.7887 Y2.7688
N29500 G1 X5.7878 Y2.7818
N29510 G1 X5.784 Y2.7943
N29520 G1 X5.7775 Y2.8057
N29530 G1 X5.7687 Y2.8153
N29540 G1 X5.7098 Y2.8665
N29550 G1 X5.6991 Y2.8753
N29560 G3 X5.6744 Y2.8785 R0.025
N29570 G1 X4.7717 Y2.5059
N29580 G3 X4.771 Y2.46 R0.025
N29590 G1 X4.7855 Y2.4541
N29600 G1 X4.7895 Y2.4521
N29610 G1 X4.8107 Y2.4375
N29620 G1 X4.8191 Y2.4308
N29630 G1 X4.8321 Y2.4158
N29640 G1 X4.8401 Y2.4074
N29650 G1 X4.8485 Y2.3999
N29660 G1 X4.8589 Y2.392
N29670 G1 X4.8723 Y2.3835
N29680 G1 X4.8889 Y2.3747
N29690 G1 X4.9102 Y2.3655
N29700 G1 X4.9378 Y2.3561
N29710 G1 X4.9737 Y2.3471
N29720 G1 X5.0102 Y2.341
N29730 G1 X5.047 Y2.3369
N29740 G1 X5.0839 Y2.3345
N29750 G1 X5.1209 Y2.3335
N29760 G1 X5.1579 Y2.3337
N29770 G1 X5.1949 Y2.335
N29780 G1 X5.2318 Y2.3374
N29790 G1 X5.2686 Y2.3409
N29800 G1 X5.3053 Y2.3455
N29810 G1 X5.3419 Y2.3513
N29820 G1 X5.3782 Y2.3584
N29830 G1 X5.4142 Y2.3667
N29840 G1 X5.4499 Y2.3765
N29850 G1 X5.4852 Y2.3877
N29860 G1 X5.52 Y2.4003
N29870 G1 X5.5542 Y2.4144
N29880 G1 X5.5877 Y2.4301
N29890 G1 X5.6204 Y2.4475
N29900 G1 X5.6521 Y2.4665
N29910 G1 X5.6828 Y2.4872
N29920 G1 X5.7123 Y2.5095
N29930 G1 X5.7405 Y2.5335
N29940 G1 X5.7671 Y2.5592
N29950 G1 X5.7918 Y2.5867
N29960 G1 X5.8133 Y2.6146
N29970 G1 X5.8298 Y2.64
N29980 G1 X5.8412 Y2.6612
N29990 G1 X5.8489 Y2.6786
N30000 G1 X5.8534 Y2.6914
N30010 G1 X5.8563 Y2.7042
N30020 G1 X5.8562 Y2.7173
N30030 G1 X5.8533 Y2.7301
N30040 G1 X5.8475 Y2.7419
N30050 G1 X5.8393 Y2.7521
N30060 G1 X5.8222 Y2.7687
N30070 G1 X5.7687 Y2.8153
N30080 G3 X5.7436 Y2.8191 R0.025
N30090 G1 X4.8422 Y2.4546
N30100 G3 X4.8321 Y2.4158 R0.025
N30110 G1 X4.8391 Y2.4074
N30120 G1 X4.8527 Y2.3821
N30130 G1 X4.857 Y2.3692
N30140 G1 X4.8599 Y2.3614
N30150 G1 X4.8633 Y2.3543
N30160 G1 X4.8675 Y2.3473
N30170 G1 X4.8731 Y2.3392
N30180 G1 X4.8805 Y2.3302
N30190 G1 X4.8889 Y2.3216
N30200 G1 X4.8997 Y2.3121
N30210 G1 X4.9128 Y2.3022
N30220 G1 X4.9288 Y2.2922
N30230 G1 X4.9483 Y2.2821
N30240 G1 X4.9727 Y2.2718
N30250 G1 X5.0025 Y2.2619
N30260 G1 X5.0384 Y2.2532
N30270 G1 X5.0749 Y2.2472
N30280 G1 X5.1013 Y2.2445
N30290 G1 X5.1095 Y2.2442
N30300 G1 X5.1177 Y2.2451
N30310 G1 X5.1256 Y2.2472
N30320 G1 X5.1384 Y2.2514
N30330 G1 X5.1468 Y2.2538
N30340 G1 X5.1636 Y2.2566
N30350 G1 X5.1804
N30360 G1 X5.1932 Y2.2562
N30370 G1 X5.2192 Y2.2527
N30380 G1 X5.2461 Y2.2507
N30390 G1 X5.2731 Y2.25
N30400 G1 X5.3001 Y2.2507
N30410 G1 X5.3324 Y2.2529
N30420 G1 X5.3662 Y2.2568
N30430 G1 X5.4018 Y2.2626
N30440 G1 X5.4314 Y2.2686
N30450 G1 X5.4619 Y2.276
N30460 G1 X5.4932 Y2.2847
N30470 G1 X5.5248 Y2.2948
N30480 G1 X5.5544 Y2.3056
N30490 G1 X5.5827 Y2.317
N30500 G1 X5.6112 Y2.3297
N30510 G1 X5.6446 Y2.3462
N30520 G1 X5.6766 Y2.364
N30530 G1 X5.7062 Y2.3821
N30540 G1 X5.7295 Y2.3977
N30550 G1 X5.7574 Y2.4181
N30560 G1 X5.7834 Y2.4391
N30570 G1 X5.8036 Y2.4569
N30580 G1 X5.8233 Y2.4757
N30590 G1 X5.8419 Y2.4952
N30600 G1 X5.8597 Y2.5155
N30610 G1 X5.8764 Y2.5367
N30620 G1 X5.8919 Y2.5588
N30630 G1 X5.9032 Y2.5772
N30640 G1 X5.9134 Y2.5962
N30650 G1 X5.9201 Y2.611
N30660 G1 X5.9216 Y2.6147
N30670 G1 X5.9251 Y2.6273
N30680 G1 X5.9256 Y2.6405
N30690 G1 X5.9232 Y2.6534
N30700 G1 X5.918 Y2.6655
N30710 G1 X5.9103 Y2.676
N30720 G1 X5.8442 Y2.7472
N30730 G1 X5.8393 Y2.7521
N30740 G3 X5.831 Y2.7572 R0.025
N30750 G3 X5.8076 Y2.7539 R0.025
N30760 G1 X5.1842 Y2.3007
N30770 G3 X5.1932 Y2.2562 R0.025
N30780 G1 X5.214 Y2.2521
N30790 G1 X5.2392 Y2.2424
N30800 G1 X5.256 Y2.2325
N30810 G1 X5.2664 Y2.2241
N30820 G1 X5.2792 Y2.2139
N30830 G1 X5.2883 Y2.2081
N30840 G1 X5.3027 Y2.2007
N30850 G1 X5.3178 Y2.1948
N30860 G1 X5.3333 Y2.1901
N30870 G1 X5.3491 Y2.1866
N30880 G1 X5.3651 Y2.184
N30890 G1 X5.3866 Y2.182
N30900 G1 X5.4081 Y2.1813
N30910 G1 X5.4297 Y2.1818
N30920 G1 X5.4566 Y2.184
N30930 G1 X5.4834 Y2.1877
N30940 G1 X5.5099 Y2.1926
N30950 G1 X5.5362 Y2.1988
N30960 G1 X5.5674 Y2.2076
N30970 G1 X5.5982 Y2.2179
N30980 G1 X5.6298 Y2.23
N30990 G1 X5.6619 Y2.2439
N31000 G1 X5.694 Y2.2596
N31010 G1 X5.7259 Y2.2769
N31020 G1 X5.7569 Y2.2955
N31030 G1 X5.7865 Y2.3152
N31040 G1 X5.8147 Y2.3357
N31050 G1 X5.8412 Y2.3569
N31060 G1 X5.8657 Y2.3783
N31070 G1 X5.8891 Y2.4007
N31080 G1 X5.9068 Y2.419
N31090 G1 X5.9141 Y2.4246
N31100 G1 X5.9223 Y2.429
N31110 G1 X5.931 Y2.4321
N31120 G1 X5.9401 Y2.4338
N31130 G1 X5.9493 Y2.434
N31140 G1 X5.9585 Y2.4327
N31150 G1 X5.9674 Y2.43
N31160 G1 X5.9757 Y2.4259
N31170 G1 X5.9832 Y2.4206
N31180 G1 X5.9898 Y2.4141
N31190 G1 X5.9954 Y2.4067
N31200 G1 X5.9996 Y2.3985
N31210 G1 X6.0113 Y2.3634
N31220 G1 X6.0132 Y2.2894
N31230 G1 X6.0144 Y2.1784
N31240 G1 X6.015 Y1.8824
N31250 G1 X6.0151 Y1.2533
N31260 G1 X6.0152 Y1.2163
N31270 G1 X6.0179 Y1.1794
N31280 G1 X6.0198 Y1.1425
N31290 G1 X6.022 Y1.0685
N31300 G1 X6.0234 Y0.9575
N31310 G1 X6.0241 Y0.6985
N31320 G1 X6.0242 Y0.5483
N31330 G1 X6.0256 Y0.5397
N31340 G1 X6.0297 Y0.5319
N31350 G1 X6.036 Y0.5259
N31360 G1 X6.0439 Y0.5221
N31370 G1 X6.0526 Y0.5211
N31380 G1 X6.0612 Y0.5228
N31390 G1 X6.0687 Y0.5272
N31400 G1 X6.0745 Y0.5338
N31410 G3 X6.0776 Y0.543 R0.025
N31420 G1 X6.0781 Y0.5469 Z-0.1997
N31430 G1 X6.0786 Y0.5507 Z-0.1988
N31440 G1 X6.0791 Y0.5543 Z-0.1973
N31450 G1 X6.0795 Y0.5576 Z-0.1952
N31460 G1 X6.0799 Y0.5606 Z-0.1927
N31470 G1 X6.0802 Y0.5631 Z-0.1897
N31480 G1 X6.0805 Y0.5651 Z-0.1863
N31490 G1 X6.0806 Y0.5666 Z-0.1827
N31500 G1 X6.0808 Y0.5675 Z-0.1789
N31510 G1 Y0.5678 Z-0.175
N31520 G0 Z0.2
N31530 G0 X5.3991 Y-0.0298
N31540 G0 Z-0.15
N31550 G1 Z-0.175 F24.
N31560 G1 X5.3993 Y-0.03 Z-0.1789
N31570 G1 X5.3999 Y-0.0308 Z-0.1827
N31580 G1 X5.4008 Y-0.0319 Z-0.1863
N31590 G1 X5.4021 Y-0.0336 Z-0.1897
N31600 G1 X5.4036 Y-0.0356 Z-0.1927
N31610 G1 X5.4055 Y-0.0379 Z-0.1952
N31620 G1 X5.4075 Y-0.0406 Z-0.1973
N31630 G1 X5.4098 Y-0.0434 Z-0.1988
N31640 G1 X5.4121 Y-0.0464 Z-0.1997
N31650 G1 X5.4145 Y-0.0495 Z-0.2
N31660 G3 X5.4241 Y-0.0517 R0.0078
N31670 G1 X5.4623 Y-0.0316
N31680 G1 X5.4635 Y-0.0309
N31690 G1 X5.4649 Y-0.0223
N31700 G1 X5.4656 Y-0.0124
N31710 G1 Y-0.0021
N31720 G1 X5.4647 Y0.0091
N31730 G1 X5.4627 Y0.0214
N31740 G1 X5.4596 Y0.0339
N31750 G1 X5.455 Y0.0477
N31760 G1 X5.4491 Y0.0618
N31770 G1 X5.4413 Y0.0766
N31780 G1 X5.4313 Y0.0924
N31790 G1 X5.4198 Y0.1078
N31800 G1 X5.4051 Y0.1244
N31810 G1 X5.3879 Y0.141
N31820 G1 X5.3677 Y0.1575
N31830 G1 X5.343 Y0.1746
N31840 G1 X5.3145 Y0.1912
N31850 G1 X5.2811 Y0.2071
N31860 G1 X5.2466 Y0.2203
N31870 G1 X5.2112 Y0.2312
N31880 G1 X5.1753 Y0.2402
N31890 G1 X5.139 Y0.2474
N31900 G1 X5.1025 Y0.2533
N31910 G1 X5.0658 Y0.258
N31920 G1 X5.029 Y0.2618
N31930 G1 X4.9921 Y0.2648
N31940 G1 X4.9552 Y0.2672
N31950 G1 X4.9182 Y0.2691
N31960 G1 X4.8442 Y0.2717
N31970 G1 X4.7333 Y0.2738
N31980 G1 X4.5853 Y0.275
N31990 G1 X4.1782 Y0.2755
N32000 G1 X3.6232 Y0.2756
N32010 G1 X3.4012 Y0.2758
N32020 G1 X3.3272 Y0.2767
N32030 G1 X3.2532 Y0.2785
N32040 G1 X3.1792 Y0.2814
N32050 G1 X3.1053 Y0.2854
N32060 G1 X2.9946 Y0.2928
N32070 G1 X2.847 Y0.3046
N32080 G1 X2.6627 Y0.3207
N32090 G1 X2.6446 Y0.3244
N32100 G1 X2.6278 Y0.3322
N32110 G1 X2.5979 Y0.3539
N32120 G1 X2.5761 Y0.3838
N32130 G1 X2.5617 Y0.4179
N32140 G1 X2.5529 Y0.4539
N32150 G1 X2.5486 Y0.4906
N32160 G1 X2.5476 Y0.5276
N32170 G1 X2.5489 Y0.5646
N32180 G1 X2.5519 Y0.6015
N32190 G1 X2.5561 Y0.6382
N32200 G1 X2.5611 Y0.6749
N32210 G1 X2.5723 Y0.748
N32220 G1 X2.5954 Y0.8942
N32230 G1 X2.6061 Y0.9675
N32240 G1 X2.6157 Y1.0408
N32250 G1 X2.6243 Y1.1143
N32260 G1 X2.6318 Y1.188
N32270 G1 X2.6383 Y1.2617
N32280 G1 X2.6411 Y1.2986
N32290 G1 X2.646 Y1.3724
N32300 G1 X2.65 Y1.4463
N32310 G1 X2.653 Y1.5203
N32320 G1 X2.6561 Y1.6312
N32330 G1 X2.6572 Y1.7052
N32340 G1 X2.6574 Y1.7792
N32350 G1 X2.6567 Y1.8532
N32360 G1 X2.6551 Y1.9272
N32370 G1 X2.6522 Y2.0012
N32380 G1 X2.6481 Y2.0751
N32390 G1 X2.6444 Y2.1304
N32400 G1 X2.6481 Y2.1673
N32410 G1 X2.6641 Y2.2006
N32420 G1 X2.6884 Y2.2285
N32430 G1 X2.7178 Y2.2509
N32440 G1 X2.7504 Y2.2685
N32450 G1 X2.7848 Y2.2821
N32460 G1 X2.8203 Y2.2925
N32470 G1 X2.8565 Y2.3003
N32480 G1 X2.893 Y2.3063
N32490 G1 X2.9298 Y2.3107
N32500 G1 X2.9666 Y2.3141
N32510 G1 X3.0035 Y2.3166
N32520 G1 X3.0405 Y2.3185
N32530 G1 X3.1144 Y2.3209
N32540 G1 X3.2254 Y2.3227
N32550 G1 X3.4104 Y2.3236
N32560 G1 X3.7065 Y2.3239
N32570 G1 X4.0748 Y2.324
N32580 G1 X4.0851 Y2.3249
N32590 G1 X4.0951 Y2.3276
N32600 G1 X4.1044 Y2.3321
N32610 G1 X4.1469 Y2.357
N32620 G1 X4.1721 Y2.3707
N32630 G1 X4.2531 Y2.4074
N32640 G1 X4.2898 Y2.4201
N32650 G1 X4.3106 Y2.427
N32660 G3 X4.3189 Y2.4321 R0.025
N32670 G1 X4.3218 Y2.4348 Z-0.1997
N32680 G1 X4.3246 Y2.4373 Z-0.1988
N32690 G1 X4.3272 Y2.4398 Z-0.1973
N32700 G1 X4.3297 Y2.4421 Z-0.1952
N32710 G1 X4.3319 Y2.4441 Z-0.1927
N32720 G1 X4.3337 Y2.4458 Z-0.1897
N32730 G1 X4.3352 Y2.4472 Z-0.1863
N32740 G1 X4.3363 Y2.4483 Z-0.1827
N32750 G1 X4.337 Y2.4489 Z-0.1789
N32760 G1 X4.3372 Y2.4491 Z-0.175
N32770 G0 Z0.2
N32780 G0 X4.8827 Y2.3901
N32790 G0 Z-0.15
N32800 G1 Z-0.175 F24.
N32810 G1 X4.8825 Y2.39 Z-0.1789
N32820 G1 X4.8817 Y2.3895 Z-0.1827
N32830 G1 X4.8803 Y2.3888 Z-0.1863
N32840 G1 X4.8785 Y2.3878 Z-0.1897
N32850 G1 X4.8763 Y2.3866 Z-0.1927
N32860 G1 X4.8737 Y2.3852 Z-0.1952
N32870 G1 X4.8707 Y2.3836 Z-0.1973
N32880 G1 X4.8675 Y2.3819 Z-0.1988
N32890 G1 X4.8642 Y2.3801 Z-0.1997
N32900 G1 X4.8607 Y2.3782 Z-0.2
N32910 G3 X4.857 Y2.3692 R0.0078
N32920 G1 X4.8611 Y2.3556
N32930 G1 X4.8633 Y2.3402
N32940 G1 X4.8642 Y2.3318
N32950 G1 X4.8644 Y2.322
N32960 G1 Y2.3166
N32970 G1 X4.8651 Y2.3104
N32980 G1 X4.8664 Y2.3039
N32990 G1 X4.8685 Y2.2965
N33000 G1 X4.8714 Y2.2884
N33010 G1 X4.8753 Y2.28
N33020 G1 X4.8808 Y2.2703
N33030 G1 X4.8871 Y2.2609
N33040 G1 X4.8956 Y2.2503
N33050 G1 X4.9056 Y2.2396
N33060 G1 X4.918 Y2.2284
N33070 G1 X4.9331 Y2.2168
N33080 G1 X4.9507 Y2.2054
N33090 G1 X4.972 Y2.1939
N33100 G1 X4.9973 Y2.1828
N33110 G1 X5.0087 Y2.1801
N33120 G1 X5.0204 Y2.1797
N33130 G1 X5.032 Y2.1817
N33140 G1 X5.0429 Y2.1859
N33150 G1 X5.0527 Y2.1922
N33160 G1 X5.0611 Y2.2004
N33170 G1 X5.0712 Y2.2119
N33180 G1 X5.0796 Y2.2195
N33190 G3 X5.0851 Y2.2276 R0.025
N33200 G3 X5.0729 Y2.26 R0.025
N33210 G1 X4.9001 Y2.3427
N33220 G3 X4.8644 Y2.322 R0.025
N33230 G1 X4.8641 Y2.315
N33240 G1 X4.8622 Y2.2982
N33250 G1 X4.8608 Y2.2898
N33260 G1 X4.8573 Y2.2767
N33270 G1 X4.856 Y2.2715
N33280 G1 X4.8553 Y2.2659
N33290 G1 X4.8549 Y2.2594
N33300 G1 X4.8551 Y2.2524
N33310 G1 X4.856 Y2.2445
N33320 G1 X4.8577 Y2.2359
N33330 G1 X4.8602 Y2.2266
N33340 G1 X4.8639 Y2.2165
N33350 G1 X4.8687 Y2.206
N33360 G1 X4.8751 Y2.1946
N33370 G1 X4.883 Y2.1829
N33380 G1 X4.8928 Y2.1706
N33390 G1 X4.9025 Y2.1603
N33400 G1 X4.9131 Y2.1506
N33410 G1 X4.9233 Y2.1427
N33420 G1 X4.9344 Y2.1355
N33430 G1 X4.9448 Y2.1298
N33440 G1 X4.9562 Y2.1248
N33450 G1 X4.9613 Y2.123
N33460 G1 X4.9732 Y2.1202
N33470 G1 X4.9855 Y2.1199
N33480 G1 X4.9975 Y2.1222
N33490 G1 X5.0088 Y2.127
N33500 G1 X5.0188 Y2.134
N33510 G1 X5.0272 Y2.1429
N33520 G1 X5.0335 Y2.1534
N33530 G1 X5.0428 Y2.1721
N33540 G3 X5.0334 Y2.204 R0.025
N33550 G1 X4.8941 Y2.2901
N33560 G3 X4.8621 Y2.2852 R0.025
N33570 G3 X4.8573 Y2.2767 R0.025
N33580 G1 X4.8527 Y2.2634
N33590 G1 X4.8379 Y2.231
N33600 G1 X4.8359 Y2.226
N33610 G1 X4.8342 Y2.22
N33620 G1 X4.8328 Y2.2135
N33630 G1 X4.8319 Y2.206
N33640 G1 X4.8316 Y2.1979
N33650 G1 X4.832 Y2.1892
N33660 G1 X4.8331 Y2.1796
N33670 G1 X4.8351 Y2.1698
N33680 G1 X4.8381 Y2.1594
N33690 G1 X4.8422 Y2.1486
N33700 G1 X4.8473 Y2.1378
N33710 G1 X4.8535 Y2.127
N33720 G1 X4.8609 Y2.1162
N33730 G1 X4.8689 Y2.1064
N33740 G1 X4.878 Y2.097
N33750 G1 X4.8869 Y2.089
N33760 G1 X4.8965 Y2.0818
N33770 G1 X4.9063 Y2.0755
N33780 G1 X4.9161 Y2.0703
N33790 G1 X4.9267 Y2.0658
N33800 G1 X4.9387 Y2.0619
N33810 G1 X4.95 Y2.0602
N33820 G1 X4.9615 Y2.0608
N33830 G1 X4.9726 Y2.0636
N33840 G1 X4.983 Y2.0686
N33850 G1 X4.9922 Y2.0754
N33860 G1 X4.9998 Y2.084
N33870 G1 X5.0057 Y2.0938
N33880 G1 X5.0335 Y2.1534
N33890 G3 X5.0192 Y2.1866 R0.025
N33900 G1 X4.869 Y2.243
N33910 G3 X4.8379 Y2.231 R0.025
N33920 G1 X4.8107 Y2.1726
N33930 G1 X4.8087 Y2.1676
N33940 G1 X4.8068 Y2.1614
N33950 G1 X4.8054 Y2.1545
N33960 G1 X4.8044 Y2.1468
N33970 G1 X4.804 Y2.1387
N33980 G1 X4.8043 Y2.1297
N33990 G1 X4.8053 Y2.1203
N34000 G1 X4.8072 Y2.1105
N34010 G1 X4.8101 Y2.1001
N34020 G1 X4.814 Y2.0895
N34030 G1 X4.8189 Y2.0789
N34040 G1 X4.8249 Y2.0684
N34050 G1 X4.832 Y2.0578
N34060 G1 X4.8402 Y2.0476
N34070 G1 X4.8486 Y2.0386
N34080 G1 X4.8581 Y2.0301
N34090 G1 X4.8673 Y2.023
N34100 G1 X4.8773 Y2.0165
N34110 G1 X4.8873 Y2.0111
N34120 G1 X4.8975 Y2.0066
N34130 G1 X4.9104 Y2.0024
N34140 G1 X4.9218 Y2.0006
N34150 G1 X4.9333 Y2.0011
N34160 G1 X4.9445 Y2.0039
N34170 G1 X4.955 Y2.0088
N34180 G1 X4.9643 Y2.0157
N34190 G1 X4.972 Y2.0243
N34200 G1 X4.9779 Y2.0342
N34210 G1 X5.0057 Y2.0938
N34220 G3 X4.9917 Y2.1269 R0.025
N34230 G1 X4.842 Y2.1846
N34240 G3 X4.8107 Y2.1726 R0.025
N34250 G1 X4.7831 Y2.1133
N34260 G1 X4.781 Y2.1083
N34270 G1 X4.7792 Y2.1022
N34280 G1 X4.7777 Y2.0955
N34290 G1 X4.7766 Y2.0878
N34300 G1 X4.7762 Y2.0798
N34310 G1 X4.7764 Y2.0709
N34320 G1 X4.7773 Y2.0615
N34330 G1 X4.7791 Y2.0518
N34340 G1 X4.7819 Y2.0415
N34350 G1 X4.7857 Y2.0309
N34360 G1 X4.7905 Y2.0204
N34370 G1 X4.7963 Y2.0098
N34380 G1 X4.8033 Y1.9993
N34390 G1 X4.8114 Y1.989
N34400 G1 X4.8198 Y1.9799
N34410 G1 X4.8292 Y1.9713
N34420 G1 X4.8385 Y1.964
N34430 G1 X4.8484 Y1.9575
N34440 G1 X4.8584 Y1.952
N34450 G1 X4.8685 Y1.9474
N34460 G1 X4.8821 Y1.9429
N34470 G1 X4.8936 Y1.941
N34480 G1 X4.9052 Y1.9414
N34490 G1 X4.9165 Y1.9441
N34500 G1 X4.927 Y1.949
N34510 G1 X4.9363 Y1.9559
N34520 G1 X4.9441 Y1.9646
N34530 G1 X4.9501 Y1.9745
N34540 G1 X4.9779 Y2.0342
N34550 G3 X4.9799 Y2.0437 R0.025
N34560 G3 X4.9639 Y2.0673 R0.025
N34570 G1 X4.8144 Y2.1253
N34580 G3 X4.7831 Y2.1133 R0.025
N34590 G1 X4.7557 Y2.0545
N34600 G1 X4.7535 Y2.0491
N34610 G1 X4.7515 Y2.0431
N34620 G1 X4.75 Y2.0364
N34630 G1 X4.7489 Y2.0288
N34640 G1 X4.7484 Y2.0209
N34650 G1 X4.7485 Y2.0121
N34660 G1 X4.7494 Y2.0027
N34670 G1 X4.7511 Y1.9931
N34680 G1 X4.7538 Y1.9828
N34690 G1 X4.7575 Y1.9723
N34700 G1 X4.7622 Y1.9617
N34710 G1 X4.7679 Y1.9512
N34720 G1 X4.7748 Y1.9407
N34730 G1 X4.7828 Y1.9303
N34740 G1 X4.7911 Y1.9212
N34750 G1 X4.8005 Y1.9124
N34760 G1 X4.8097 Y1.9051
N34770 G1 X4.8196 Y1.8984
N34780 G1 X4.8296 Y1.8928
N34790 G1 X4.8397 Y1.8882
N34800 G1 X4.8503 Y1.8843
N34810 G1 X4.8538 Y1.8833
N34820 G1 X4.8654 Y1.8814
N34830 G1 X4.877 Y1.8817
N34840 G1 X4.8884 Y1.8844
N34850 G1 X4.899 Y1.8893
N34860 G1 X4.9084 Y1.8962
N34870 G1 X4.9163 Y1.9049
N34880 G1 X4.9223 Y1.9149
N34890 G1 X4.9501 Y1.9745
N34900 G3 X4.9362 Y2.0076 R0.025
N34910 G1 X4.7871 Y2.0664
N34920 G3 X4.7617 Y2.0622 R0.025
N34930 G3 X4.7557 Y2.0545 R0.025
N34940 G1 X4.7282 Y1.9957
N34950 G1 X4.7257 Y1.9895
N34960 G1 X4.7238 Y1.9833
N34970 G1 X4.7222 Y1.9768
N34980 G1 X4.7211 Y1.9691
N34990 G1 X4.7206 Y1.9612
N35000 G1 X4.7207 Y1.9525
N35010 G1 X4.7217 Y1.943
N35020 G1 X4.7234 Y1.9334
N35030 G1 X4.726 Y1.9232
N35040 G1 X4.7297 Y1.9126
N35050 G1 X4.7344 Y1.902
N35060 G1 X4.7402 Y1.8915
N35070 G1 X4.747 Y1.881
N35080 G1 X4.755 Y1.8707
N35090 G1 X4.7633 Y1.8616
N35100 G1 X4.7727 Y1.8528
N35110 G1 X4.7819 Y1.8455
N35120 G1 X4.7918 Y1.8388
N35130 G1 X4.8018 Y1.8332
N35140 G1 X4.8119 Y1.8286
N35150 G1 X4.8224 Y1.8247
N35160 G1 X4.826 Y1.8237
N35170 G1 X4.8376 Y1.8217
N35180 G1 X4.8492 Y1.8221
N35190 G1 X4.8606 Y1.8248
N35200 G1 X4.8712 Y1.8297
N35210 G1 X4.8806 Y1.8366
N35220 G1 X4.8885 Y1.8452
N35230 G1 X4.8945 Y1.8553
N35240 G1 X4.9223 Y1.9149
N35250 G3 X4.9086 Y1.9479 R0.025
N35260 G1 X4.7598 Y2.0076
N35270 G3 X4.7282 Y1.9957 R0.025
N35280 G1 X4.7008 Y1.9369
N35290 G1 X4.6979 Y1.9298
N35300 G1 X4.696 Y1.9236
N35310 G1 X4.6945 Y1.9171
N35320 G1 X4.6934 Y1.9095
N35330 G1 X4.6928 Y1.9015
N35340 G1 X4.693 Y1.8928
N35350 G1 X4.6939 Y1.8834
N35360 G1 X4.6956 Y1.8737
N35370 G1 X4.6983 Y1.8636
N35380 G1 X4.702 Y1.853
N35390 G1 X4.7067 Y1.8424
N35400 G1 X4.7124 Y1.8319
N35410 G1 X4.7192 Y1.8214
N35420 G1 X4.7272 Y1.8111
N35430 G1 X4.7355 Y1.8019
N35440 G1 X4.7449 Y1.7931
N35450 G1 X4.7541 Y1.7858
N35460 G1 X4.764 Y1.7792
N35470 G1 X4.774 Y1.7736
N35480 G1 X4.7841 Y1.7689
N35490 G1 X4.7946 Y1.7651
N35500 G1 X4.7982 Y1.7641
N35510 G1 X4.8098 Y1.7621
N35520 G1 X4.8215 Y1.7625
N35530 G1 X4.8329 Y1.7652
N35540 G1 X4.8435 Y1.7701
N35550 G1 X4.8529 Y1.777
N35560 G1 X4.8608 Y1.7857
N35570 G1 X4.8667 Y1.7958
N35580 G1 X4.8945 Y1.8553
N35590 G3 X4.8964 Y1.8648 R0.025
N35600 G3 X4.8809 Y1.8882 R0.025
N35610 G1 X4.7325 Y1.9487
N35620 G3 X4.7008 Y1.9369 R0.025
N35630 G1 X4.6734 Y1.8781
N35640 G1 X4.6702 Y1.8701
N35650 G1 X4.6682 Y1.864
N35660 G1 X4.6667 Y1.8574
N35670 G1 X4.6656 Y1.8498
N35680 G1 X4.6651 Y1.8418
N35690 G1 X4.6652 Y1.8331
N35700 G1 X4.6661 Y1.8237
N35710 G1 X4.6678 Y1.8141
N35720 G1 X4.6705 Y1.8039
N35730 G1 X4.6742 Y1.7933
N35740 G1 X4.6789 Y1.7827
N35750 G1 X4.6846 Y1.7722
N35760 G1 X4.6914 Y1.7617
N35770 G1 X4.6994 Y1.7514
N35780 G1 X4.7077 Y1.7423
N35790 G1 X4.7171 Y1.7335
N35800 G1 X4.7263 Y1.7262
N35810 G1 X4.7362 Y1.7195
N35820 G1 X4.7462 Y1.714
N35830 G1 X4.7563 Y1.7093
N35840 G1 X4.7669 Y1.7055
N35850 G1 X4.7801 Y1.7021
N35860 G1 X4.7926 Y1.701
N35870 G1 X4.8051 Y1.7027
N35880 G1 X4.8169 Y1.7071
N35890 G1 X4.8276 Y1.7138
N35900 G1 X4.8365 Y1.7227
N35910 G1 X4.8433 Y1.7333
N35920 G1 X4.8477 Y1.7451
N35930 G1 X4.8527 Y1.7633
N35940 G1 X4.8551 Y1.7703
N35950 G1 X4.8667 Y1.7958
N35960 G3 X4.8533 Y1.8286 R0.025
N35970 G1 X4.7052 Y1.8898
N35980 G3 X4.6734 Y1.8781 R0.025
N35990 G1 X4.6679 Y1.8664
N36000 G1 X4.6595 Y1.8511
N36010 G1 X4.655 Y1.8445
N36020 G1 X4.6486 Y1.8361
N36030 G1 X4.6455 Y1.8317
N36040 G1 X4.6427 Y1.827
N36050 G1 X4.6403 Y1.822
N36060 G1 X4.6379 Y1.816
N36070 G1 X4.636 Y1.8095
N36080 G1 X4.6344 Y1.8022
N36090 G1 X4.6333 Y1.7942
N36100 G1 X4.6329 Y1.7856
N36110 G1 X4.6331 Y1.7762
N36120 G1 X4.6342 Y1.7664
N36130 G1 X4.6362 Y1.7562
N36140 G1 X4.6391 Y1.7454
N36150 G1 X4.6431 Y1.7344
N36160 G1 X4.6482 Y1.7234
N36170 G1 X4.6543 Y1.7125
N36180 G1 X4.6615 Y1.7017
N36190 G1 X4.6699 Y1.6911
N36200 G1 X4.6794 Y1.681
N36210 G1 X4.689 Y1.6722
N36220 G1 X4.6996 Y1.664
N36230 G1 X4.71 Y1.6572
N36240 G1 X4.7205 Y1.6515
N36250 G1 X4.7316 Y1.6465
N36260 G1 X4.742 Y1.6429
N36270 G1 X4.7535 Y1.6399
N36280 G1 X4.7641 Y1.638
N36290 G1 X4.775 Y1.6369
N36300 G1 X4.7859 Y1.6367
N36310 G1 X4.7971 Y1.6376
N36320 G1 X4.8093 Y1.6408
N36330 G1 X4.8206 Y1.6466
N36340 G1 X4.8303 Y1.6548
N36350 G1 X4.8379 Y1.665
N36360 G1 X4.8431 Y1.6765
N36370 G1 X4.8456 Y1.689
N36380 G1 X4.8452 Y1.7016
N36390 G1 X4.8449 Y1.71
N36400 G3 X4.8348 Y1.7284 R0.025
N36410 G1 X4.6825 Y1.8401
N36420 G3 X4.6486 Y1.8361 R0.025
N36430 G1 X4.6419 Y1.8277
N36440 G1 X4.6326 Y1.8193
N36450 G1 X4.6198 Y1.8087
N36460 G1 X4.6156 Y1.8053
N36470 G1 X4.6119 Y1.8013
N36480 G1 X4.6085 Y1.797
N36490 G1 X4.6052 Y1.7921
N36500 G1 X4.6019 Y1.7863
N36510 G1 X4.599 Y1.7799
N36520 G1 X4.5964 Y1.7727
N36530 G1 X4.5942 Y1.7646
N36540 G1 X4.5925 Y1.7561
N36550 G1 X4.5915 Y1.7465
N36560 G1 X4.5912 Y1.7363
N36570 G1 X4.5917 Y1.7256
N36580 G1 X4.5933 Y1.714
N36590 G1 X4.5959 Y1.7021
N36600 G1 X4.5995 Y1.69
N36610 G1 X4.6044 Y1.6775
N36620 G1 X4.6105 Y1.6649
N36630 G1 X4.6179 Y1.6525
N36640 G1 X4.6264 Y1.6404
N36650 G1 X4.6361 Y1.6288
N36660 G1 X4.6468 Y1.6179
N36670 G1 X4.6585 Y1.6077
N36680 G1 X4.6712 Y1.5983
N36690 G1 X4.6847 Y1.59
N36700 G1 X4.699 Y1.5826
N36710 G1 X4.7134 Y1.5767
N36720 G1 X4.7269 Y1.5723
N36730 G1 X4.7408 Y1.569
N36740 G1 X4.7532 Y1.5671
N36750 G1 X4.7664 Y1.5661
N36760 G1 X4.7782 Y1.5662
N36770 G1 X4.7903 Y1.5673
N36780 G1 X4.8017 Y1.5692
N36790 G1 X4.8123 Y1.5719
N36800 G1 X4.8233 Y1.5756
N36810 G1 X4.8328 Y1.5798
N36820 G1 X4.8429 Y1.5866
N36830 G1 X4.8514 Y1.5955
N36840 G1 X4.8577 Y1.606
N36850 G1 X4.8617 Y1.6175
N36860 G1 X4.8632 Y1.6297
N36870 G1 X4.862 Y1.6418
N36880 G1 X4.8583 Y1.6535
N36890 G1 X4.8524 Y1.668
N36900 G1 X4.8496 Y1.6778
N36910 G1 X4.8464 Y1.6932
N36920 G1 X4.8452 Y1.7016
N36930 G3 X4.8316 Y1.7198 R0.025
N36940 G1 X4.645 Y1.8107
N36950 G3 X4.6198 Y1.8087 R0.025
N36960 G1 X4.609 Y1.8016
N36970 G1 X4.5942 Y1.7941
N36980 G1 X4.5897 Y1.7923
N36990 G1 X4.5848 Y1.79
N37000 G1 X4.5801 Y1.7873
N37010 G1 X4.5758 Y1.7841
N37020 G1 X4.5714 Y1.7804
N37030 G1 X4.5671 Y1.776
N37040 G1 X4.5629 Y1.7709
N37050 G1 X4.5586 Y1.7649
N37060 G1 X4.5546 Y1.7583
N37070 G1 X4.5508 Y1.7506
N37080 G1 X4.5475 Y1.7422
N37090 G1 X4.5447 Y1.7329
N37100 G1 X4.5424 Y1.7225
N37110 G1 X4.5409 Y1.7116
N37120 G1 X4.5403 Y1.6998
N37130 G1 X4.5406 Y1.687
N37140 G1 X4.542 Y1.6738
N37150 G1 X4.5446 Y1.6601
N37160 G1 X4.5485 Y1.6457
N37170 G1 X4.5538 Y1.6309
N37180 G1 X4.5605 Y1.6161
N37190 G1 X4.5687 Y1.6014
N37200 G1 X4.5784 Y1.5868
N37210 G1 X4.5898 Y1.5724
N37220 G1 X4.6026 Y1.5586
N37230 G1 X4.6167 Y1.5457
N37240 G1 X4.6319 Y1.5338
N37250 G1 X4.648 Y1.5232
N37260 G1 X4.6649 Y1.514
N37270 G1 X4.6823 Y1.5062
N37280 G1 X4.7002 Y1.4999
N37290 G1 X4.7183 Y1.495
