%
(CUSTOMHANGER)
(T2  D=0.25 CR=0. - ZMIN=-0.5091 - FLAT END MILL)
N10 G90 G54 G64 G50 G17 G40 G80 G94 G91.1 G49
N20 G20
N30 G28 G91 Z0.
N40 G90

(ADAPTIVE1)
N50 M9
N60 M998
N70 T2 G43 H2 M6
N80 S4000 M3
N90 G54
N100 G0 X4.7635 Y4.2062
N110 M8
N120 G4 P2.
N130 G0 Z0.6
N140 G0 Z0.2
N150 G0 Z-0.15
N160 G1 Z-0.175 F12.
N170 G1 X4.7632 Y4.2061 Z-0.1789
N180 G1 X4.7624 Y4.2057 Z-0.1827
N190 G1 X4.7611 Y4.205 Z-0.1863
N200 G1 X4.7592 Y4.2042 Z-0.1897
N210 G1 X4.7569 Y4.2031 Z-0.1927
N220 G1 X4.7542 Y4.2019 Z-0.1952
N230 G1 X4.7511 Y4.2005 Z-0.1973
N240 G1 X4.7478 Y4.1989 Z-0.1988
N250 G1 X4.7444 Y4.1973 Z-0.1997
N260 G1 X4.7408 Y4.1957 Z-0.2
N270 G3 X4.623 Y4.1248 R0.6382
N280 G1 X4.6137 Y4.1164
N290 G1 X4.6007 Y4.1025
N300 G1 X4.6001 Y4.1017
N310 G1 X4.6064 Y4.0956
N320 G1 X4.6147 Y4.0889
N330 G1 X4.6253 Y4.0816
N340 G1 X4.6389 Y4.0738
N350 G1 X4.6565 Y4.0656
N360 G1 X4.6797 Y4.0569
N370 G1 X4.7114 Y4.0478
N380 G1 X4.7477 Y4.0405
N390 G1 X4.7843 Y4.0355
N400 G1 X4.8212 Y4.032
N410 G1 X4.8581 Y4.0296
N420 G1 X4.8951 Y4.0279
N430 G1 X4.969 Y4.026
N440 G1 X5.08 Y4.0248
N450 G1 X5.3786 Y4.0242
N460 G1 X5.3887 Y4.0255
N470 G1 X5.3982 Y4.0294
N480 G1 X5.4064 Y4.0355
N490 G1 X5.4128 Y4.0436
N500 G1 X5.4169 Y4.053
N510 G1 X5.4184 Y4.0631
N520 G1 X5.4174 Y4.0733
N530 G1 X5.4137 Y4.0829
N540 G1 X5.4078 Y4.0912
N550 G3 X5.3997 Y4.0966 R0.025
N560 G3 X5.3904 Y4.0985 R0.025
N570 G1 X4.6187 Y4.1098
N580 G3 X4.6007 Y4.1025 R0.025
N590 G1 X4.5846 Y4.0828
N600 G1 X4.5838 Y4.0817
N610 G1 X4.5858 Y4.075
N620 G1 X4.5883 Y4.0681
N630 G1 X4.592 Y4.0603
N640 G1 X4.5968 Y4.0519
N650 G1 X4.6027 Y4.0433
N660 G1 X4.6105 Y4.0336
N670 G1 X4.6197 Y4.024
N680 G1 X4.631 Y4.0138
N690 G1 X4.6451 Y4.0031
N700 G1 X4.6618 Y3.9924
N710 G1 X4.6825 Y3.9814
N720 G1 X4.7086 Y3.9702
N730 G1 X4.7416 Y3.9589
N740 G1 X4.7775 Y3.9498
N750 G1 X4.8139 Y3.9431
N760 G1 X4.8505 Y3.9381
N770 G1 X4.8874 Y3.9344
N780 G1 X4.9243 Y3.9317
N790 G1 X4.9612 Y3.9296
N800 G1 X5.0352 Y3.9271
N810 G1 X5.1462 Y3.9253
N820 G1 X5.2942 Y3.9245
N830 G1 X5.3238 Y3.9255
N840 G1 X5.3456 Y3.9281
N850 G1 X5.3636 Y3.9317
N860 G1 X5.3788 Y3.936
N870 G1 X5.3925 Y3.9411
N880 G1 X5.4048 Y3.9468
N890 G1 X5.4305 Y3.9615
N900 G1 X5.4409 Y3.9691
N910 G1 X5.4492 Y3.9789
N920 G1 X5.4551 Y3.9904
N930 G1 X5.4582 Y4.0029
N940 G1 X5.4583 Y4.0158
N950 G1 X5.4554 Y4.0284
N960 G1 X5.4498 Y4.04
N970 G3 X5.4304 Y4.0507 R0.025
N980 G1 X4.6047 Y4.0913
N990 G3 X4.5846 Y4.0828 R0.025
N1000 G1 X4.5625 Y4.0555
N1010 G1 X4.5617 Y4.0544
N1020 G1 X4.5616 Y4.0475
N1030 G1 X4.5621 Y4.0395
N1040 G1 X4.5633 Y4.0311
N1050 G1 X4.5654 Y4.0219
N1060 G1 X4.5685 Y4.0121
N1070 G1 X4.5727 Y4.0016
N1080 G1 X4.5783 Y3.9906
N1090 G1 X4.5853 Y3.979
N1100 G1 X4.5941 Y3.9668
N1110 G1 X4.6049 Y3.9542
N1120 G1 X4.618 Y3.941
N1130 G1 X4.6338 Y3.9277
N1140 G1 X4.6528 Y3.9139
N1150 G1 X4.6749 Y3.9006
N1160 G1 X4.7024 Y3.8869
N1170 G1 X4.736 Y3.8733
N1180 G1 X4.7713 Y3.8623
N1190 G1 X4.8073 Y3.8536
N1200 G1 X4.8437 Y3.8468
N1210 G1 X4.8803 Y3.8415
N1220 G1 X4.9171 Y3.8374
N1230 G1 X4.9539 Y3.8342
N1240 G1 X4.9909 Y3.8318
N1250 G1 X5.0278 Y3.8299
N1260 G1 X5.1018 Y3.8274
N1270 G1 X5.2128 Y3.8255
N1280 G1 X5.2498 Y3.8257
N1290 G1 X5.2867 Y3.8273
N1300 G1 X5.323 Y3.8311
N1310 G1 X5.3534 Y3.8368
N1320 G1 X5.3839 Y3.8451
N1330 G1 X5.4084 Y3.8539
N1340 G1 X5.4266 Y3.8622
N1350 G1 X5.4425 Y3.8709
N1360 G1 X5.4559 Y3.8799
N1370 G1 X5.4679 Y3.8893
N1380 G1 X5.478 Y3.8986
N1390 G1 X5.4827 Y3.9038
N1400 G1 X5.49 Y3.9136
N1410 G1 X5.4951 Y3.9247
N1420 G1 X5.4977 Y3.9365
N1430 G1 X5.4979 Y3.9487
N1440 G1 X5.4955 Y3.9607
N1450 G1 X5.4907 Y3.9718
N1460 G3 X5.4841 Y3.979 R0.025
N1470 G3 X5.4716 Y3.9838 R0.025
N1480 G1 X4.5837 Y4.0641
N1490 G3 X4.5702 Y4.0615 R0.025
N1500 G3 X4.5625 Y4.0555 R0.025
N1510 G1 X4.5418 Y4.0291
N1520 G1 X4.5359 Y4.0194
N1530 G1 X4.5333 Y4.0147
N1540 G1 X4.5321 Y4.0068
N1550 G1 X4.5315 Y3.9983
N1560 G1 Y3.9889
N1570 G1 X4.5325 Y3.9787
N1580 G1 X4.5343 Y3.9678
N1590 G1 X4.5374 Y3.9558
N1600 G1 X4.5416 Y3.9435
N1610 G1 X4.5476 Y3.9299
N1620 G1 X4.5548 Y3.9163
N1630 G1 X4.5644 Y3.9014
N1640 G1 X4.5757 Y3.8866
N1650 G1 X4.5898 Y3.871
N1660 G1 X4.6068 Y3.8548
N1670 G1 X4.6265 Y3.8389
N1680 G1 X4.6508 Y3.8224
N1690 G1 X4.6793 Y3.8062
N1700 G1 X4.7128 Y3.7905
N1710 G1 X4.7475 Y3.7776
N1720 G1 X4.7829 Y3.767
N1730 G1 X4.8189 Y3.7583
N1740 G1 X4.8552 Y3.7513
N1750 G1 X4.8918 Y3.7456
N1760 G1 X4.9285 Y3.741
N1770 G1 X4.9653 Y3.7374
N1780 G1 X5.0022 Y3.7345
N1790 G1 X5.0392 Y3.7322
N1800 G1 X5.1131 Y3.729
N1810 G1 X5.1501 Y3.728
N1820 G1 X5.1871 Y3.7275
N1830 G1 X5.2241 Y3.728
N1840 G1 X5.2611 Y3.7297
N1850 G1 X5.2979 Y3.733
N1860 G1 X5.3345 Y3.7385
N1870 G1 X5.3707 Y3.7463
N1880 G1 X5.4038 Y3.7561
N1890 G1 X5.4319 Y3.767
N1900 G1 X5.4566 Y3.7789
N1910 G1 X5.4768 Y3.7908
N1920 G1 X5.4931 Y3.8022
N1930 G1 X5.507 Y3.8137
N1940 G1 X5.5117 Y3.8183
N1950 G1 X5.52 Y3.8284
N1960 G1 X5.5258 Y3.84
N1970 G1 X5.5289 Y3.8527
N1980 G1 X5.5291 Y3.8657
N1990 G1 X5.5265 Y3.8785
N2000 G1 X5.5059 Y3.94
N2010 G1 X5.4987 Y3.9568
N2020 G1 X5.4907 Y3.9718
N2030 G3 X5.4841 Y3.979 R0.025
N2040 G3 X5.4706 Y3.9838 R0.025
N2050 G1 X4.558 Y4.0306
N2060 G3 X4.5359 Y4.0194 R0.025
N2070 G1 X4.5286 Y4.0072
N2080 G1 X4.5098 Y3.9699
N2090 G1 X4.5076 Y3.965
N2100 G1 X4.5054 Y3.9585
N2110 G1 X4.5035 Y3.951
N2120 G1 X4.5022 Y3.9428
N2130 G1 X4.5014 Y3.9335
N2140 G1 Y3.9235
N2150 G1 X4.5023 Y3.9122
N2160 G1 X4.5041 Y3.9004
N2170 G1 X4.5074 Y3.8871
N2180 G1 X4.5118 Y3.8736
N2190 G1 X4.5183 Y3.8583
N2200 G1 X4.5261 Y3.8433
N2210 G1 X4.5366 Y3.8265
N2220 G1 X4.5492 Y3.8097
N2230 G1 X4.5646 Y3.792
N2240 G1 X4.584 Y3.7733
N2250 G1 X4.6053 Y3.7557
N2260 G1 X4.6317 Y3.7373
N2270 G1 X4.6631 Y3.7189
N2280 G1 X4.6964 Y3.7029
N2290 G1 X4.7308 Y3.6892
N2300 G1 X4.7659 Y3.6777
N2310 G1 X4.8016 Y3.668
N2320 G1 X4.8377 Y3.6598
N2330 G1 X4.8741 Y3.6531
N2340 G1 X4.9107 Y3.6475
N2350 G1 X4.9474 Y3.6429
N2360 G1 X4.9842 Y3.6392
N2370 G1 X5.0211 Y3.6362
N2380 G1 X5.058 Y3.6337
N2390 G1 X5.095 Y3.6319
N2400 G1 X5.132 Y3.6307
N2410 G1 X5.169 Y3.6302
N2420 G1 X5.206 Y3.6308
N2430 G1 X5.2429 Y3.6324
N2440 G1 X5.2798 Y3.6355
N2450 G1 X5.3165 Y3.6401
N2460 G1 X5.353 Y3.6466
N2470 G1 X5.389 Y3.6552
N2480 G1 X5.4243 Y3.6661
N2490 G1 X5.4572 Y3.6791
N2500 G1 X5.486 Y3.6932
N2510 G1 X5.5077 Y3.706
N2520 G1 X5.5257 Y3.719
N2530 G1 X5.5337 Y3.7271
N2540 G1 X5.54 Y3.7366
N2550 G1 X5.5443 Y3.7472
N2560 G1 X5.5464 Y3.7584
N2570 G1 X5.5463 Y3.7699
N2580 G1 X5.5407 Y3.8224
N2590 G1 X5.5338 Y3.8558
N2600 G1 X5.5265 Y3.8785
N2610 G3 X5.5213 Y3.8868 R0.025
N2620 G3 X5.5053 Y3.8947 R0.025
N2630 G1 X4.5339 Y3.9827
N2640 G3 X4.516 Y3.9774 R0.025
N2650 G3 X4.5098 Y3.9699 R0.025
N2660 G1 X4.4948 Y3.94
N2670 G1 X4.483 Y3.9124
N2680 G1 X4.4746 Y3.882
N2690 G1 X4.4731 Y3.8747
N2700 G1 X4.472 Y3.8659
N2710 G1 X4.4715 Y3.8554
N2720 G1 X4.4719 Y3.8446
N2730 G1 X4.4734 Y3.832
N2740 G1 X4.476 Y3.8191
N2750 G1 X4.4803 Y3.8043
N2760 G1 X4.4858 Y3.7894
N2770 G1 X4.4937 Y3.7726
N2780 G1 X4.5033 Y3.7558
N2790 G1 X4.5159 Y3.7375
N2800 G1 X4.5313 Y3.7184
N2810 G1 X4.5495 Y3.6993
N2820 G1 X4.5721 Y3.679
N2830 G1 X4.599 Y3.6586
N2840 G1 X4.6301 Y3.6387
N2850 G1 X4.6628 Y3.6213
N2860 G1 X4.6966 Y3.6062
N2870 G1 X4.7312 Y3.5932
N2880 G1 X4.7665 Y3.582
N2890 G1 X4.8022 Y3.5723
N2900 G1 X4.8383 Y3.5642
N2910 G1 X4.8746 Y3.5572
N2920 G1 X4.9112 Y3.5514
N2930 G1 X4.9479 Y3.5465
N2940 G1 X4.9846 Y3.5424
N2950 G1 X5.0215 Y3.5391
N2960 G1 X5.0584 Y3.5365
N2970 G1 X5.0953 Y3.5346
N2980 G1 X5.1323 Y3.5336
N2990 G1 X5.1693 Y3.5334
N3000 G1 X5.2063 Y3.5342
N3010 G1 X5.2433 Y3.5362
N3020 G1 X5.2801 Y3.5395
N3030 G1 X5.3168 Y3.5442
N3040 G1 X5.3533 Y3.5506
N3050 G1 X5.3894 Y3.5587
N3060 G1 X5.425 Y3.5687
N3070 G1 X5.46 Y3.5808
N3080 G1 X5.493 Y3.5949
N3090 G1 X5.5162 Y3.607
N3100 G1 X5.5228 Y3.6112
N3110 G1 X5.5321 Y3.6184
N3120 G1 X5.5397 Y3.6274
N3130 G1 X5.5453 Y3.6377
N3140 G1 X5.5488 Y3.6489
N3150 G1 X5.55 Y3.6605
N3160 G1 X5.5497 Y3.7301
N3170 G1 X5.5495 Y3.7385
N3180 G1 X5.5463 Y3.7699
N3190 G3 X5.5431 Y3.7791 R0.025
N3200 G3 X5.5242 Y3.7912 R0.025
N3210 G1 X4.5011 Y3.8994
N3220 G3 X4.4746 Y3.882 R0.025
N3230 G1 X4.4594 Y3.8224
N3240 G1 X4.4551 Y3.7973
N3250 G1 X4.4529 Y3.7721
N3260 G1 X4.4527 Y3.7628
N3270 G1 X4.4533 Y3.7523
N3280 G1 X4.455 Y3.7402
N3290 G1 X4.4578 Y3.7273
N3300 G1 X4.4621 Y3.7131
N3310 G1 X4.4682 Y3.6978
N3320 G1 X4.4763 Y3.6814
N3330 G1 X4.4868 Y3.6639
N3340 G1 X4.5001 Y3.6451
N3350 G1 X4.5161 Y3.6261
N3360 G1 X4.5364 Y3.6056
N3370 G1 X4.5602 Y3.585
N3380 G1 X4.5887 Y3.5643
N3390 G1 X4.6202 Y3.5449
N3400 G1 X4.6531 Y3.5279
N3410 G1 X4.6869 Y3.5129
N3420 G1 X4.7216 Y3.4999
N3430 G1 X4.7568 Y3.4885
N3440 G1 X4.7924 Y3.4786
N3450 G1 X4.8284 Y3.4701
N3460 G1 X4.8647 Y3.4627
N3470 G1 X4.9012 Y3.4564
N3480 G1 X4.9378 Y3.451
N3490 G1 X4.9745 Y3.4466
N3500 G1 X5.0113 Y3.4429
N3510 G1 X5.0482 Y3.4401
N3520 G1 X5.0852 Y3.438
N3530 G1 X5.1221 Y3.4369
N3540 G1 X5.1591 Y3.4366
N3550 G1 X5.1961 Y3.4374
N3560 G1 X5.2331 Y3.4392
N3570 G1 X5.27 Y3.4423
N3580 G1 X5.3067 Y3.4466
N3590 G1 X5.3433 Y3.4523
N3600 G1 X5.3796 Y3.4594
N3610 G1 X5.4156 Y3.4682
N3620 G1 X5.451 Y3.4787
N3630 G1 X5.4859 Y3.4912
N3640 G1 X5.5097 Y3.502
N3650 G1 X5.5199 Y3.5077
N3660 G1 X5.5301 Y3.5148
N3670 G1 X5.5385 Y3.5239
N3680 G1 X5.5448 Y3.5346
N3690 G1 X5.5487 Y3.5464
N3700 G1 X5.55 Y3.5587
N3710 G1 Y3.6605
N3720 G3 X5.5478 Y3.67 R0.025
N3730 G3 X5.5276 Y3.6845 R0.025
N3740 G1 X4.4804 Y3.7942
N3750 G3 X4.4559 Y3.7814 R0.025
N3760 G3 X4.4529 Y3.7721 R0.025
N3770 G1 X4.4505 Y3.7385
N3780 G1 X4.45 Y3.6881
N3790 G1 Y3.6629
N3800 G1 X4.4507 Y3.6481
N3810 G1 X4.4522 Y3.6371
N3820 G1 X4.4546 Y3.6259
N3830 G1 X4.4586 Y3.6126
N3840 G1 X4.4638 Y3.5992
N3850 G1 X4.4712 Y3.5838
N3860 G1 X4.4807 Y3.5678
N3870 G1 X4.4929 Y3.5504
N3880 G1 X4.5078 Y3.5324
N3890 G1 X4.527 Y3.5128
N3900 G1 X4.5498 Y3.4929
N3910 G1 X4.5777 Y3.4723
N3920 G1 X4.6091 Y3.4527
N3930 G1 X4.6418 Y3.4355
N3940 G1 X4.6756 Y3.4203
N3950 G1 X4.7101 Y3.407
N3960 G1 X4.7452 Y3.3953
N3970 G1 X4.7808 Y3.385
N3980 G1 X4.8167 Y3.3761
N3990 G1 X4.8528 Y3.3683
N4000 G1 X4.8892 Y3.3616
N4010 G1 X4.9258 Y3.3559
N4020 G1 X4.9625 Y3.351
N4030 G1 X4.9993 Y3.3471
N4040 G1 X5.0361 Y3.344
N4050 G1 X5.0731 Y3.3417
N4060 G1 X5.1101 Y3.3404
N4070 G1 X5.1471 Y3.34
N4080 G1 X5.1841 Y3.3406
N4090 G1 X5.221 Y3.3421
N4100 G1 X5.2579 Y3.3448
N4110 G1 X5.2947 Y3.3486
N4120 G1 X5.3314 Y3.3537
N4130 G1 X5.3679 Y3.36
N4140 G1 X5.4041 Y3.3676
N4150 G1 X5.4399 Y3.3768
N4160 G1 X5.4752 Y3.3879
N4170 G1 X5.5011 Y3.3982
N4180 G1 X5.521 Y3.408
N4190 G1 X5.5364 Y3.4173
N4200 G1 X5.5438 Y3.4225
N4210 G1 X5.5526 Y3.4302
N4220 G1 X5.5597 Y3.4396
N4230 G1 X5.5648 Y3.4502
N4240 G1 X5.5676 Y3.4616
N4250 G1 X5.5681 Y3.4733
N4260 G1 X5.5663 Y3.4849
N4270 G1 X5.5621 Y3.4959
N4280 G3 X5.5559 Y3.5034 R0.025
N4290 G3 X5.5443 Y3.5087 R0.025
N4300 G1 X4.4791 Y3.6867
N4310 G3 X4.45 Y3.6629 R0.025
N4320 G1 Y3.5537
N4330 G1 X4.4504 Y3.5463
N4340 G1 X4.4516 Y3.5366
N4350 G1 X4.4541 Y3.5252
N4360 G1 X4.4577 Y3.5131
N4370 G1 X4.4628 Y3.4999
N4380 G1 X4.4701 Y3.4849
N4390 G1 X4.4789 Y3.47
N4400 G1 X4.491 Y3.4528
N4410 G1 X4.5052 Y3.4357
N4420 G1 X4.5235 Y3.4169
N4430 G1 X4.5465 Y3.3969
N4440 G1 X4.5741 Y3.3764
N4450 G1 X4.6056 Y3.3568
N4460 G1 X4.6383 Y3.3396
N4470 G1 X4.6721 Y3.3245
N4480 G1 X4.7066 Y3.3112
N4490 G1 X4.7417 Y3.2995
N4500 G1 X4.7772 Y3.2891
N4510 G1 X4.8131 Y3.2801
N4520 G1 X4.8493 Y3.2722
N4530 G1 X4.8856 Y3.2654
N4540 G1 X4.9222 Y3.2595
N4550 G1 X4.9589 Y3.2546
N4560 G1 X4.9956 Y3.2506
N4570 G1 X5.0325 Y3.2475
N4580 G1 X5.0695 Y3.2452
N4590 G1 X5.1064 Y3.2439
N4600 G1 X5.1434 Y3.2434
N4610 G1 X5.1804 Y3.2439
N4620 G1 X5.2174 Y3.2454
N4630 G1 X5.2543 Y3.248
N4640 G1 X5.2911 Y3.2515
N4650 G1 X5.3278 Y3.2563
N4660 G1 X5.3644 Y3.2621
N4670 G1 X5.4007 Y3.2693
N4680 G1 X5.4367 Y3.2779
N4690 G1 X5.4722 Y3.2883
N4700 G1 X5.5051 Y3.3004
N4710 G1 X5.5294 Y3.3116
N4720 G1 X5.5478 Y3.322
N4730 G1 X5.5626 Y3.332
N4740 G1 X5.5761 Y3.3428
N4750 G1 X5.587 Y3.3529
N4760 G1 X5.5901 Y3.3563
N4770 G1 X5.597 Y3.3657
N4780 G1 X5.6019 Y3.3762
N4790 G1 X5.6046 Y3.3875
N4800 G1 X5.6051 Y3.3991
N4810 G1 X5.6032 Y3.4106
N4820 G1 X5.5991 Y3.4215
N4830 G1 X5.5621 Y3.4959
N4840 G3 X5.5418 Y3.509 R0.025
N4850 G1 X4.4766 Y3.5778
N4860 G3 X4.45 Y3.5537 R0.025
N4870 G1 X4.4499 Y3.5201
N4880 G1 X4.4434 Y3.5071
N4890 G1 X4.4412 Y3.5021
N4900 G1 X4.4394 Y3.4965
N4910 G1 X4.4379 Y3.49
N4920 G1 X4.4369 Y3.4828
N4930 G1 X4.4363 Y3.4743
N4940 G1 X4.4364 Y3.4653
N4950 G1 X4.4374 Y3.4548
N4960 G1 X4.4393 Y3.4436
N4970 G1 X4.4426 Y3.4311
N4980 G1 X4.4473 Y3.4174
N4990 G1 X4.4537 Y3.403
N5000 G1 X4.4625 Y3.3867
N5010 G1 X4.473 Y3.3703
N5020 G1 X4.4871 Y3.352
N5030 G1 X4.5041 Y3.3332
N5040 G1 X4.5249 Y3.3136
N5050 G1 X4.551 Y3.2928
N5060 G1 X4.5817 Y3.2721
N5070 G1 X4.6138 Y3.2537
N5080 G1 X4.6471 Y3.2375
N5090 G1 X4.6812 Y3.2232
N5100 G1 X4.716 Y3.2105
N5110 G1 X4.7512 Y3.1993
N5120 G1 X4.7869 Y3.1894
N5130 G1 X4.8229 Y3.1808
N5140 G1 X4.8591 Y3.1732
N5150 G1 X4.8955 Y3.1667
N5160 G1 X4.9321 Y3.1612
N5170 G1 X4.9688 Y3.1566
N5180 G1 X5.0056 Y3.1529
N5190 G1 X5.0425 Y3.1501
N5200 G1 X5.0795 Y3.1481
N5210 G1 X5.1165 Y3.1471
N5220 G1 X5.1535 Y3.1469
N5230 G1 X5.1905 Y3.1477
N5240 G1 X5.2274 Y3.1494
N5250 G1 X5.2643 Y3.1521
N5260 G1 X5.3012 Y3.1558
N5270 G1 X5.3379 Y3.1606
N5280 G1 X5.3744 Y3.1666
N5290 G1 X5.4107 Y3.1738
N5300 G1 X5.4466 Y3.1826
N5310 G1 X5.4821 Y3.193
N5320 G1 X5.5169 Y3.2056
N5330 G1 X5.5472 Y3.2192
N5340 G1 X5.5728 Y3.2333
N5350 G1 X5.5926 Y3.2463
N5360 G1 X5.6077 Y3.2581
N5370 G1 X5.6208 Y3.2701
N5380 G1 X5.6283 Y3.2782
N5390 G1 X5.6353 Y3.2875
N5400 G1 X5.6404 Y3.2981
N5410 G1 X5.6432 Y3.3095
N5420 G1 X5.6437 Y3.3212
N5430 G1 X5.6418 Y3.3328
N5440 G1 X5.6377 Y3.3438
N5450 G1 X5.5991 Y3.4215
N5460 G3 X5.579 Y3.4345 R0.025
N5470 G1 X4.4673 Y3.5201
N5480 G3 X4.4434 Y3.5071 R0.025
N5490 G1 X4.4157 Y3.4514
N5500 G1 X4.4118 Y3.4425
N5510 G1 X4.4094 Y3.4355
N5520 G1 X4.4075 Y3.428
N5530 G1 X4.406 Y3.4191
N5540 G1 X4.4052 Y3.4097
N5550 G1 X4.4051 Y3.3987
N5560 G1 X4.4059 Y3.3872
N5570 G1 X4.4079 Y3.374
N5580 G1 X4.4111 Y3.3603
N5590 G1 X4.4162 Y3.3447
N5600 G1 X4.4227 Y3.329
N5610 G1 X4.4319 Y3.3109
N5620 G1 X4.4429 Y3.2931
N5630 G1 X4.4579 Y3.2728
N5640 G1 X4.4752 Y3.2527
N5650 G1 X4.4969 Y3.2314
N5660 G1 X4.5237 Y3.209
N5670 G1 X4.5539 Y3.1876
N5680 G1 X4.5856 Y3.1685
N5690 G1 X4.6184 Y3.1515
N5700 G1 X4.6522 Y3.1363
N5710 G1 X4.6866 Y3.1227
N5720 G1 X4.7216 Y3.1106
N5730 G1 X4.757 Y3.0999
N5740 G1 X4.7928 Y3.0905
N5750 G1 X4.8288 Y3.0822
N5760 G1 X4.8651 Y3.0749
N5770 G1 X4.9016 Y3.0687
N5780 G1 X4.9382 Y3.0634
N5790 G1 X4.975 Y3.0591
N5800 G1 X5.0118 Y3.0556
N5810 G1 X5.0487 Y3.053
N5820 G1 X5.0857 Y3.0512
N5830 G1 X5.1227 Y3.0504
N5840 G1 X5.1597
N5850 G1 X5.1967 Y3.0513
N5860 G1 X5.2336 Y3.0531
N5870 G1 X5.2705 Y3.0558
N5880 G1 X5.3073 Y3.0595
N5890 G1 X5.344 Y3.0643
N5900 G1 X5.3806 Y3.0703
N5910 G1 X5.4168 Y3.0775
N5920 G1 X5.4528 Y3.0861
N5930 G1 X5.4884 Y3.0963
N5940 G1 X5.5234 Y3.1083
N5950 G1 X5.5576 Y3.1224
N5960 G1 X5.5901 Y3.1386
N5970 G1 X5.6158 Y3.1541
N5980 G1 X5.6362 Y3.1687
N5990 G1 X5.6516 Y3.1818
N6000 G1 X5.6639 Y3.1941
N6010 G1 X5.6693 Y3.2004
N6020 G1 X5.6758 Y3.2097
N6030 G1 X5.6804 Y3.2201
N6040 G1 X5.6828 Y3.2312
N6050 G1 X5.6831 Y3.2425
N6060 G1 X5.6812 Y3.2537
N6070 G1 X5.6772 Y3.2643
N6080 G1 X5.6377 Y3.3438
N6090 G3 X5.618 Y3.3568 R0.025
N6100 G1 X4.44 Y3.4644
N6110 G3 X4.4157 Y3.4514 R0.025
N6120 G1 X4.3821 Y3.3837
N6130 G1 X4.3778 Y3.3739
N6140 G1 X4.3752 Y3.3663
N6150 G1 X4.3731 Y3.3581
N6160 G1 X4.3715 Y3.3486
N6170 G1 X4.3706 Y3.3382
N6180 G1 X4.3705 Y3.3266
N6190 G1 X4.3714 Y3.3137
N6200 G1 X4.3735 Y3.2997
N6210 G1 X4.3771 Y3.2845
N6220 G1 X4.3824 Y3.268
N6230 G1 X4.3897 Y3.2505
N6240 G1 X4.3996 Y3.2312
N6250 G1 X4.4117 Y3.2116
N6260 G1 X4.4278 Y3.1897
N6270 G1 X4.4466 Y3.1679
N6280 G1 X4.47 Y3.145
N6290 G1 X4.4984 Y3.1212
N6300 G1 X4.5286 Y3.0998
N6310 G1 X4.5601 Y3.0805
N6320 G1 X4.5928 Y3.0631
N6330 G1 X4.6263 Y3.0475
N6340 G1 X4.6605 Y3.0334
N6350 G1 X4.6953 Y3.0208
N6360 G1 X4.7305 Y3.0095
N6370 G1 X4.7662 Y2.9994
N6380 G1 X4.8021 Y2.9905
N6390 G1 X4.8382 Y2.9827
N6400 G1 X4.8746 Y2.9759
N6410 G1 X4.9112 Y2.9701
N6420 G1 X4.9478 Y2.9652
N6430 G1 X4.9846 Y2.9612
N6440 G1 X5.0215 Y2.958
N6450 G1 X5.0584 Y2.9557
N6460 G1 X5.0954 Y2.9542
N6470 G1 X5.1324 Y2.9536
N6480 G1 X5.1694 Y2.9538
N6490 G1 X5.2064 Y2.9549
N6500 G1 X5.2433 Y2.9569
N6510 G1 X5.2802 Y2.9597
N6520 G1 X5.317 Y2.9636
N6530 G1 X5.3537 Y2.9685
N6540 G1 X5.3902 Y2.9745
N6550 G1 X5.4265 Y2.9817
N6560 G1 X5.4625 Y2.9903
N6570 G1 X5.4981 Y3.0003
N6580 G1 X5.5332 Y3.0119
N6590 G1 X5.5678 Y3.0252
N6600 G1 X5.6014 Y3.0406
N6610 G1 X5.634 Y3.0582
N6620 G1 X5.6603 Y3.0752
N6630 G1 X5.6802 Y3.0905
N6640 G1 X5.6953 Y3.1042
N6650 G1 X5.7073 Y3.1169
N6660 G1 X5.7106 Y3.1211
N6670 G1 X5.7177 Y3.1323
N6680 G1 X5.722 Y3.1448
N6690 G1 X5.7234 Y3.1579
N6700 G1 X5.7218 Y3.171
N6710 G1 X5.7173 Y3.1835
N6720 G1 X5.6772 Y3.2643
N6730 G3 X5.671 Y3.2718 R0.025
N6740 G1 X5.6679 Y3.2742 Z-0.1997
N6750 G1 X5.665 Y3.2766 Z-0.1988
N6760 G1 X5.6622 Y3.2789 Z-0.1973
N6770 G1 X5.6596 Y3.281 Z-0.1952
N6780 G1 X5.6572 Y3.2829 Z-0.1927
N6790 G1 X5.6553 Y3.2845 Z-0.1897
N6800 G1 X5.6537 Y3.2858 Z-0.1863
N6810 G1 X5.6525 Y3.2868 Z-0.1827
N6820 G1 X5.6518 Y3.2873 Z-0.1789
N6830 G1 X5.6516 Y3.2875 Z-0.175
N6840 G0 Z0.2
N6850 G0 X4.4152 Y3.3805
N6860 G0 Z-0.15
N6870 G1 Z-0.175 F12.
N6880 G1 X4.4149 Z-0.1789
N6890 G1 X4.414 Y3.3808 Z-0.1827
N6900 G1 X4.4126 Y3.3812 Z-0.1863
N6910 G1 X4.4106 Y3.3818 Z-0.1897
N6920 G1 X4.4081 Y3.3825 Z-0.1927
N6930 G1 X4.4053 Y3.3833 Z-0.1952
N6940 G1 X4.4021 Y3.3843 Z-0.1973
N6950 G1 X4.3986 Y3.3853 Z-0.1988
N6960 G1 X4.3949 Y3.3864 Z-0.1997
N6970 G1 X4.3912 Y3.3875 Z-0.2
N6980 G3 X4.3821 Y3.3837 R0.0078
N6990 G1 X4.3456 Y3.3101
N7000 G1 X4.3418 Y3.3014
N7010 G1 X4.3392 Y3.2939
N7020 G1 X4.3369 Y3.2848
N7030 G1 X4.3352 Y3.2753
N7040 G1 X4.3342 Y3.2639
N7050 G1 X4.3341 Y3.2521
N7060 G1 X4.3351 Y3.2381
N7070 G1 X4.3373 Y3.2238
N7080 G1 X4.3412 Y3.2071
N7090 G1 X4.3466 Y3.1903
N7100 G1 X4.3547 Y3.1708
N7110 G1 X4.3646 Y3.1515
N7120 G1 X4.3781 Y3.1297
N7130 G1 X4.3948 Y3.1069
N7140 G1 X4.4148 Y3.0838
N7150 G1 X4.44 Y3.0591
N7160 G1 X4.4684 Y3.0354
N7170 G1 X4.4984 Y3.0138
N7180 G1 X4.5298 Y2.9942
N7190 G1 X4.5622 Y2.9763
N7200 G1 X4.5955 Y2.9602
N7210 G1 X4.6295 Y2.9455
N7220 G1 X4.664 Y2.9323
N7230 G1 X4.6991 Y2.9204
N7240 G1 X4.7345 Y2.9097
N7250 G1 X4.7703 Y2.9002
N7260 G1 X4.8063 Y2.8918
N7270 G1 X4.8425 Y2.8843
N7280 G1 X4.879 Y2.8778
N7290 G1 X4.9156 Y2.8723
N7300 G1 X4.9523 Y2.8676
N7310 G1 X4.9891 Y2.8638
N7320 G1 X5.0259 Y2.8608
N7330 G1 X5.0629 Y2.8586
N7340 G1 X5.0999 Y2.8573
N7350 G1 X5.1369 Y2.8567
N7360 G1 X5.1739 Y2.857
N7370 G1 X5.2108 Y2.8582
N7380 G1 X5.2478 Y2.8602
N7390 G1 X5.2847 Y2.8631
N7400 G1 X5.3215 Y2.8669
N7410 G1 X5.3582 Y2.8718
N7420 G1 X5.3947 Y2.8777
N7430 G1 X5.431 Y2.8848
N7440 G1 X5.4671 Y2.893
N7450 G1 X5.5028 Y2.9026
N7460 G1 X5.5382 Y2.9135
N7470 G1 X5.573 Y2.926
N7480 G1 X5.6072 Y2.9401
N7490 G1 X5.6406 Y2.9561
N7500 G1 X5.6729 Y2.9741
N7510 G1 X5.7009 Y2.9927
N7520 G1 X5.7212 Y3.0087
N7530 G1 X5.736 Y3.0224
N7540 G1 X5.7489 Y3.0365
N7550 G1 X5.7516 Y3.0399
N7560 G1 X5.7585 Y3.0511
N7570 G1 X5.7626 Y3.0635
N7580 G1 X5.764 Y3.0765
N7590 G1 X5.7623 Y3.0895
N7600 G1 X5.7579 Y3.1018
N7610 G1 X5.7173 Y3.1835
N7620 G3 X5.7111 Y3.191 R0.025
N7630 G1 X5.708 Y3.1935 Z-0.1997
N7640 G1 X5.7051 Y3.1959 Z-0.1988
N7650 G1 X5.7023 Y3.1981 Z-0.1973
N7660 G1 X5.6997 Y3.2003 Z-0.1952
N7670 G1 X5.6974 Y3.2021 Z-0.1927
N7680 G1 X5.6954 Y3.2037 Z-0.1897
N7690 G1 X5.6938 Y3.205 Z-0.1863
N7700 G1 X5.6926 Y3.206 Z-0.1827
N7710 G1 X5.6919 Y3.2066 Z-0.1789
N7720 G1 X5.6917 Y3.2067 Z-0.175
N7730 G0 Z0.2
N7740 G0 X4.3787 Y3.3069
N7750 G0 Z-0.15
N7760 G1 Z-0.175 F12.
N7770 G1 X4.3784 Y3.307 Z-0.1789
N7780 G1 X4.3775 Y3.3073 Z-0.1827
N7790 G1 X4.376 Y3.3077 Z-0.1863
N7800 G1 X4.3741 Y3.3083 Z-0.1897
N7810 G1 X4.3716 Y3.309 Z-0.1927
N7820 G1 X4.3688 Y3.3098 Z-0.1952
N7830 G1 X4.3656 Y3.3108 Z-0.1973
N7840 G1 X4.3621 Y3.3118 Z-0.1988
N7850 G1 X4.3584 Y3.3128 Z-0.1997
N7860 G1 X4.3547 Y3.3139 Z-0.2
N7870 G3 X4.3456 Y3.3101 R0.0078
N7880 G1 X4.3081 Y3.2346
N7890 G1 X4.3045 Y3.2264
N7900 G1 X4.3019 Y3.2187
N7910 G1 X4.2995 Y3.2094
N7920 G1 X4.2978 Y3.1996
N7930 G1 X4.2968 Y3.188
N7940 G1 X4.2967 Y3.1754
N7950 G1 X4.2977 Y3.1613
N7960 G1 X4.3 Y3.146
N7970 G1 X4.304 Y3.1291
N7980 G1 X4.3098 Y3.1112
N7990 G1 X4.3181 Y3.0911
N8000 G1 X4.3285 Y3.0707
N8010 G1 X4.3428 Y3.0475
N8020 G1 X4.3599 Y3.0243
N8030 G1 X4.3813 Y2.9996
N8040 G1 X4.4077 Y2.9736
N8050 G1 X4.4361 Y2.9499
N8060 G1 X4.466 Y2.9281
N8070 G1 X4.4972 Y2.9082
N8080 G1 X4.5294 Y2.89
N8090 G1 X4.5625 Y2.8734
N8100 G1 X4.5962 Y2.8582
N8110 G1 X4.6306 Y2.8445
N8120 G1 X4.6654 Y2.832
N8130 G1 X4.7006 Y2.8207
N8140 G1 X4.7362 Y2.8105
N8150 G1 X4.7721 Y2.8015
N8160 G1 X4.8082 Y2.7934
N8170 G1 X4.8445 Y2.7862
N8180 G1 X4.881 Y2.78
N8190 G1 X4.9176 Y2.7747
N8200 G1 X4.9543 Y2.7702
N8210 G1 X4.9912 Y2.7665
N8220 G1 X5.028 Y2.7636
N8230 G1 X5.065 Y2.7616
N8240 G1 X5.102 Y2.7603
N8250 G1 X5.139 Y2.7598
N8260 G1 X5.176 Y2.7601
N8270 G1 X5.213 Y2.7613
N8280 G1 X5.2499 Y2.7632
N8290 G1 X5.2868 Y2.7661
N8300 G1 X5.3236 Y2.7699
N8310 G1 X5.3603 Y2.7746
N8320 G1 X5.3969 Y2.7804
N8330 G1 X5.4332 Y2.7872
N8340 G1 X5.4694 Y2.7951
N8350 G1 X5.5053 Y2.8041
N8360 G1 X5.5408 Y2.8144
N8370 G1 X5.5759 Y2.826
N8380 G1 X5.6106 Y2.8391
N8390 G1 X5.6446 Y2.8537
N8400 G1 X5.6777 Y2.8701
N8410 G1 X5.7099 Y2.8884
N8420 G1 X5.7393 Y2.9079
N8430 G1 X5.7604 Y2.9246
N8440 G1 X5.7761 Y2.9391
N8450 G1 X5.7892 Y2.9534
N8460 G1 X5.7925 Y2.9576
N8470 G1 X5.7993 Y2.9688
N8480 G1 X5.8035 Y2.9812
N8490 G1 X5.8048 Y2.9942
N8500 G1 X5.8032 Y3.0072
N8510 G1 X5.7988 Y3.0195
N8520 G1 X5.7579 Y3.1018
N8530 G3 X5.7517 Y3.1093 R0.025
N8540 G1 X5.7486 Y3.1118 Z-0.1997
N8550 G1 X5.7457 Y3.1142 Z-0.1988
N8560 G1 X5.7428 Y3.1164 Z-0.1973
N8570 G1 X5.7402 Y3.1186 Z-0.1952
N8580 G1 X5.7379 Y3.1204 Z-0.1927
N8590 G1 X5.736 Y3.122 Z-0.1897
N8600 G1 X5.7344 Y3.1233 Z-0.1863
N8610 G1 X5.7332 Y3.1243 Z-0.1827
N8620 G1 X5.7325 Y3.1249 Z-0.1789
N8630 G1 X5.7323 Y3.1251 Z-0.175
N8640 G0 Z0.2
N8650 G0 X4.3411 Y3.2314
N8660 G0 Z-0.15
N8670 G1 Z-0.175 F12.
N8680 G1 X4.3408 Z-0.1789
N8690 G1 X4.3399 Y3.2317 Z-0.1827
N8700 G1 X4.3385 Y3.2321 Z-0.1863
N8710 G1 X4.3365 Y3.2327 Z-0.1897
N8720 G1 X4.3341 Y3.2334 Z-0.1927
N8730 G1 X4.3312 Y3.2342 Z-0.1952
N8740 G1 X4.328 Y3.2352 Z-0.1973
N8750 G1 X4.3245 Y3.2362 Z-0.1988
N8760 G1 X4.3209 Y3.2373 Z-0.1997
N8770 G1 X4.3171 Y3.2383 Z-0.2
N8780 G3 X4.3081 Y3.2346 R0.0078
N8790 G1 X4.2705 Y3.159
N8800 G1 X4.2665 Y3.1498
N8810 G1 X4.2638 Y3.1419
N8820 G1 X4.2614 Y3.1325
N8830 G1 X4.2596 Y3.1221
N8840 G1 X4.2586 Y3.1106
N8850 G1 X4.2585 Y3.0973
N8860 G1 X4.2595 Y3.0832
N8870 G1 X4.2619 Y3.067
N8880 G1 X4.2659 Y3.0501
N8890 G1 X4.2721 Y3.031
N8900 G1 X4.2804 Y3.011
N8910 G1 X4.2916 Y2.9891
N8920 G1 X4.3063 Y2.9652
N8930 G1 X4.324 Y2.9412
N8940 G1 X4.3465 Y2.9152
N8950 G1 X4.3729 Y2.8893
N8960 G1 X4.4012 Y2.8654
N8970 G1 X4.4309 Y2.8434
N8980 G1 X4.4619 Y2.8232
N8990 G1 X4.4939 Y2.8046
N9000 G1 X4.5267 Y2.7875
N9010 G1 X4.5602 Y2.7718
N9020 G1 X4.5944 Y2.7575
N9030 G1 X4.629 Y2.7444
N9040 G1 X4.664 Y2.7325
N9050 G1 X4.6994 Y2.7218
N9060 G1 X4.7351 Y2.712
N9070 G1 X4.7711 Y2.7033
N9080 G1 X4.8072 Y2.6955
N9090 G1 X4.8436 Y2.6886
N9100 G1 X4.8801 Y2.6825
N9110 G1 X4.9167 Y2.6774
N9120 G1 X4.9535 Y2.673
N9130 G1 X4.9903 Y2.6694
N9140 G1 X5.0272 Y2.6666
N9150 G1 X5.0642 Y2.6645
N9160 G1 X5.1011 Y2.6633
N9170 G1 X5.1381 Y2.6628
N9180 G1 X5.1751 Y2.6631
N9190 G1 X5.2121 Y2.6641
N9200 G1 X5.2491 Y2.666
N9210 G1 X5.286 Y2.6688
N9220 G1 X5.3228 Y2.6724
N9230 G1 X5.3595 Y2.677
N9240 G1 X5.3961 Y2.6824
N9250 G1 X5.4326 Y2.6889
N9260 G1 X5.4688 Y2.6964
N9270 G1 X5.5048 Y2.7049
N9280 G1 X5.5405 Y2.7145
N9290 G1 X5.5759 Y2.7253
N9300 G1 X5.6109 Y2.7374
N9310 G1 X5.6454 Y2.7508
N9320 G1 X5.6792 Y2.7657
N9330 G1 X5.7123 Y2.7823
N9340 G1 X5.7445 Y2.8006
N9350 G1 X5.7754 Y2.8209
N9360 G1 X5.7981 Y2.8385
N9370 G1 X5.8152 Y2.8541
N9380 G1 X5.8286 Y2.8685
N9390 G1 X5.8334 Y2.8745
N9400 G1 X5.8403 Y2.8856
N9410 G1 X5.8446 Y2.8981
N9420 G1 X5.846 Y2.9112
N9430 G1 X5.8444 Y2.9243
N9440 G1 X5.8399 Y2.9366
N9450 G1 X5.7988 Y3.0195
N9460 G3 X5.7925 Y3.027 R0.025
N9470 G1 X5.7895 Y3.0294 Z-0.1997
N9480 G1 X5.7865 Y3.0318 Z-0.1988
N9490 G1 X5.7837 Y3.0341 Z-0.1973
N9500 G1 X5.7811 Y3.0362 Z-0.1952
N9510 G1 X5.7788 Y3.0381 Z-0.1927
N9520 G1 X5.7768 Y3.0397 Z-0.1897
N9530 G1 X5.7753 Y3.041 Z-0.1863
N9540 G1 X5.7741 Y3.042 Z-0.1827
N9550 G1 X5.7734 Y3.0425 Z-0.1789
N9560 G1 X5.7731 Y3.0427 Z-0.175
N9570 G0 Z0.2
N9580 G0 X4.3036 Y3.1558
N9590 G0 Z-0.15
N9600 G1 Z-0.175 F12.
N9610 G1 X4.3033 Y3.1559 Z-0.1789
N9620 G1 X4.3024 Y3.1561 Z-0.1827
N9630 G1 X4.301 Y3.1565 Z-0.1863
N9640 G1 X4.299 Y3.1571 Z-0.1897
N9650 G1 X4.2966 Y3.1578 Z-0.1927
N9660 G1 X4.2937 Y3.1586 Z-0.1952
N9670 G1 X4.2905 Y3.1596 Z-0.1973
N9680 G1 X4.287 Y3.1606 Z-0.1988
N9690 G1 X4.2833 Y3.1617 Z-0.1997
N9700 G1 X4.2796 Y3.1628 Z-0.2
N9710 G3 X4.2705 Y3.159 R0.0078
N9720 G1 X4.2308 Y3.079
N9730 G1 X4.2278 Y3.0721
N9740 G1 X4.225 Y3.0639
N9750 G1 X4.2226 Y3.0546
N9760 G1 X4.2207 Y3.0437
N9770 G1 X4.2197 Y3.0321
N9780 G1 X4.2196 Y3.0183
N9790 G1 X4.2206 Y3.0041
N9800 G1 X4.2232 Y2.9873
N9810 G1 X4.2272 Y2.9703
N9820 G1 X4.2336 Y2.9503
N9830 G1 X4.242 Y2.9302
N9840 G1 X4.2536 Y2.9073
N9850 G1 X4.2687 Y2.8829
N9860 G1 X4.2871 Y2.8579
N9870 G1 X4.3106 Y2.8307
N9880 G1 X4.337 Y2.8048
N9890 G1 X4.3652 Y2.7808
N9900 G1 X4.3948 Y2.7586
N9910 G1 X4.4256 Y2.7381
N9920 G1 X4.4574 Y2.7192
N9930 G1 X4.49 Y2.7017
N9940 G1 X4.5233 Y2.6856
N9950 G1 X4.5572 Y2.6708
N9960 G1 X4.5917 Y2.6572
N9970 G1 X4.6265 Y2.6447
N9980 G1 X4.6617 Y2.6334
N9990 G1 X4.6972 Y2.623
N10000 G1 X4.733 Y2.6137
N10010 G1 X4.7691 Y2.6052
N10020 G1 X4.8053 Y2.5977
N10030 G1 X4.8417 Y2.591
N10040 G1 X4.8782 Y2.5851
N10050 G1 X4.9149 Y2.58
N10060 G1 X4.9516 Y2.5758
N10070 G1 X4.9885 Y2.5722
N10080 G1 X5.0254 Y2.5695
N10090 G1 X5.0623 Y2.5675
N10100 G1 X5.0993 Y2.5662
N10110 G1 X5.1363 Y2.5657
N10120 G1 X5.1733 Y2.5659
N10130 G1 X5.2103 Y2.5669
N10140 G1 X5.2472 Y2.5687
N10150 G1 X5.2841 Y2.5713
N10160 G1 X5.321 Y2.5748
N10170 G1 X5.3577 Y2.5791
N10180 G1 X5.3944 Y2.5843
N10190 G1 X5.4309 Y2.5904
N10200 G1 X5.4672 Y2.5975
N10210 G1 X5.5033 Y2.6055
N10220 G1 X5.5392 Y2.6145
N10230 G1 X5.5748 Y2.6246
N10240 G1 X5.6101 Y2.6358
N10250 G1 X5.6449 Y2.6482
N10260 G1 X5.6793 Y2.6619
N10270 G1 X5.7131 Y2.677
N10280 G1 X5.7461 Y2.6936
N10290 G1 X5.7783 Y2.7119
N10300 G1 X5.8094 Y2.732
N10310 G1 X5.8344 Y2.7508
N10320 G1 X5.8534 Y2.7676
N10330 G1 X5.8673 Y2.7821
N10340 G1 X5.8785 Y2.7959
N10350 G1 X5.8878 Y2.8094
N10360 G1 X5.8954 Y2.8225
N10370 G1 X5.8959 Y2.8244
N10380 G1 X5.8958 Y2.8263
N10390 G1 X5.8951 Y2.8281
N10400 G1 X5.8869 Y2.8427
N10410 G1 X5.8399 Y2.9366
N10420 G3 X5.8337 Y2.9442 R0.025
N10430 G1 X5.8306 Y2.9466 Z-0.1997
N10440 G1 X5.8277 Y2.949 Z-0.1988
N10450 G1 X5.8249 Y2.9513 Z-0.1973
N10460 G1 X5.8223 Y2.9534 Z-0.1952
N10470 G1 X5.8199 Y2.9553 Z-0.1927
N10480 G1 X5.818 Y2.9569 Z-0.1897
N10490 G1 X5.8164 Y2.9582 Z-0.1863
N10500 G1 X5.8152 Y2.9592 Z-0.1827
N10510 G1 X5.8145 Y2.9597 Z-0.1789
N10520 G1 X5.8143 Y2.9599 Z-0.175
N10530 G0 Z0.2
N10540 G0 X4.2638 Y3.0757
N10550 G0 Z-0.15
N10560 G1 Z-0.175 F12.
N10570 G1 X4.2635 Y3.0758 Z-0.1789
N10580 G1 X4.2627 Y3.0761 Z-0.1827
N10590 G1 X4.2612 Y3.0765 Z-0.1863
N10600 G1 X4.2593 Y3.0771 Z-0.1897
N10610 G1 X4.2568 Y3.0778 Z-0.1927
N10620 G1 X4.254 Y3.0786 Z-0.1952
N10630 G1 X4.2507 Y3.0796 Z-0.1973
N10640 G1 X4.2473 Y3.0806 Z-0.1988
N10650 G1 X4.2436 Y3.0816 Z-0.1997
N10660 G1 X4.2398 Y3.0827 Z-0.2
N10670 G3 X4.2308 Y3.079 R0.0078
N10680 G1 X4.1913 Y2.9994
N10690 G1 X4.1886 Y2.9932
N10700 G1 X4.1857 Y2.9848
N10710 G1 X4.1833 Y2.9755
N10720 G1 X4.1814 Y2.9643
N10730 G1 X4.1803 Y2.9527
N10740 G1 X4.1802 Y2.9386
N10750 G1 X4.1812 Y2.9242
N10760 G1 X4.1839 Y2.9071
N10770 G1 X4.188 Y2.8897
N10780 G1 X4.1946 Y2.8691
N10790 G1 X4.2031 Y2.8486
N10800 G1 X4.2151 Y2.8251
N10810 G1 X4.2304 Y2.8003
N10820 G1 X4.2495 Y2.7743
N10830 G1 X4.2738 Y2.7464
N10840 G1 X4.3001 Y2.7204
N10850 G1 X4.3282 Y2.6963
N10860 G1 X4.3577 Y2.674
N10870 G1 X4.3883 Y2.6532
N10880 G1 X4.4199 Y2.634
N10890 G1 X4.4524 Y2.6161
N10900 G1 X4.4855 Y2.5996
N10910 G1 X4.5192 Y2.5843
N10920 G1 X4.5534 Y2.5702
N10930 G1 X4.588 Y2.5572
N10940 G1 X4.6231 Y2.5453
N10950 G1 X4.6584 Y2.5344
N10960 G1 X4.6941 Y2.5245
N10970 G1 X4.7299 Y2.5154
N10980 G1 X4.766 Y2.5073
N10990 G1 X4.8023 Y2.4999
N11000 G1 X4.8387 Y2.4934
N11010 G1 X4.8753 Y2.4877
N11020 G1 X4.912 Y2.4828
N11030 G1 X4.9487 Y2.4786
N11040 G1 X4.9856 Y2.4751
N11050 G1 X5.0225 Y2.4723
N11060 G1 X5.0594 Y2.4703
N11070 G1 X5.0964 Y2.469
N11080 G1 X5.1334 Y2.4685
N11090 G1 X5.1704 Y2.4686
N11100 G1 X5.2074 Y2.4695
N11110 G1 X5.2444 Y2.4712
N11120 G1 X5.2813 Y2.4737
N11130 G1 X5.3181 Y2.477
N11140 G1 X5.3549 Y2.4811
N11150 G1 X5.3916 Y2.486
N11160 G1 X5.4281 Y2.4917
N11170 G1 X5.4645 Y2.4984
N11180 G1 X5.5008 Y2.5059
N11190 G1 X5.5368 Y2.5144
N11200 G1 X5.5726 Y2.5238
N11210 G1 X5.6081 Y2.5343
N11220 G1 X5.6432 Y2.5458
N11230 G1 X5.678 Y2.5585
N11240 G1 X5.7123 Y2.5723
N11250 G1 X5.746 Y2.5875
N11260 G1 X5.7791 Y2.6041
N11270 G1 X5.8114 Y2.6223
N11280 G1 X5.8426 Y2.6421
N11290 G1 X5.8724 Y2.664
N11300 G1 X5.8967 Y2.6849
N11310 G1 X5.9157 Y2.7042
N11320 G1 X5.9214 Y2.711
N11330 G1 X5.9283 Y2.7212
N11340 G1 X5.9329 Y2.7326
N11350 G1 X5.9349 Y2.7448
N11360 G1 X5.9344 Y2.7571
N11370 G1 X5.9313 Y2.769
N11380 G1 X5.9258 Y2.78
N11390 G1 X5.8951 Y2.8281
N11400 G3 X5.8883 Y2.8351 R0.025
N11410 G1 X5.8851 Y2.8374 Z-0.1997
N11420 G1 X5.882 Y2.8395 Z-0.1988
N11430 G1 X5.879 Y2.8416 Z-0.1973
N11440 G1 X5.8763 Y2.8435 Z-0.1952
N11450 G1 X5.8738 Y2.8452 Z-0.1927
N11460 G1 X5.8717 Y2.8467 Z-0.1897
N11470 G1 X5.8701 Y2.8478 Z-0.1863
N11480 G1 X5.8688 Y2.8487 Z-0.1827
N11490 G1 X5.8681 Y2.8492 Z-0.1789
N11500 G1 X5.8678 Y2.8494 Z-0.175
N11510 G0 Z0.2
N11520 G0 X4.2243 Y2.9962
N11530 G0 Z-0.15
N11540 G1 Z-0.175 F12.
N11550 G1 X4.224 Y2.9963 Z-0.1789
N11560 G1 X4.2232 Y2.9965 Z-0.1827
N11570 G1 X4.2217 Y2.997 Z-0.1863
N11580 G1 X4.2198 Y2.9975 Z-0.1897
N11590 G1 X4.2173 Y2.9982 Z-0.1927
N11600 G1 X4.2144 Y2.9991 Z-0.1952
N11610 G1 X4.2112 Y3. Z-0.1973
N11620 G1 X4.2078 Y3.001 Z-0.1988
N11630 G1 X4.2041 Y3.0021 Z-0.1997
N11640 G1 X4.2003 Y3.0032 Z-0.2
N11650 G3 X4.1913 Y2.9994 R0.0078
N11660 G1 X4.1537 Y2.9238
N11670 G1 X4.1491 Y2.9131
N11680 G1 X4.1462 Y2.9046
N11690 G1 X4.1438 Y2.8953
N11700 G1 X4.1418 Y2.8839
N11710 G1 X4.1408 Y2.8721
N11720 G1 X4.1406 Y2.858
N11730 G1 X4.1417 Y2.8433
N11740 G1 X4.1443 Y2.8262
N11750 G1 X4.1485 Y2.8083
N11760 G1 X4.1552 Y2.7876
N11770 G1 X4.164 Y2.7665
N11780 G1 X4.1763 Y2.7423
N11790 G1 X4.1918 Y2.7173
N11800 G1 X4.2115 Y2.6904
N11810 G1 X4.2357 Y2.6624
N11820 G1 X4.262 Y2.6364
N11830 G1 X4.29 Y2.6122
N11840 G1 X4.3194 Y2.5897
N11850 G1 X4.3498 Y2.5686
N11860 G1 X4.3812 Y2.5491
N11870 G1 X4.4134 Y2.5309
N11880 G1 X4.4463 Y2.514
N11890 G1 X4.4798 Y2.4982
N11900 G1 X4.5139 Y2.4837
N11910 G1 X4.5483 Y2.4702
N11920 G1 X4.5832 Y2.4578
N11930 G1 X4.6184 Y2.4463
N11940 G1 X4.6538 Y2.4358
N11950 G1 X4.6896 Y2.4262
N11960 G1 X4.7255 Y2.4174
N11970 G1 X4.7617 Y2.4095
N11980 G1 X4.798 Y2.4024
N11990 G1 X4.8344 Y2.396
N12000 G1 X4.871 Y2.3904
N12010 G1 X4.9077 Y2.3855
N12020 G1 X4.9445 Y2.3814
N12030 G1 X4.9813 Y2.3779
N12040 G1 X5.0182 Y2.3752
N12050 G1 X5.0551 Y2.3732
N12060 G1 X5.0921 Y2.3718
N12070 G1 X5.1291 Y2.3712
N12080 G1 X5.1661 Y2.3713
N12090 G1 X5.2031 Y2.3721
N12100 G1 X5.2401 Y2.3736
N12110 G1 X5.277 Y2.3759
N12120 G1 X5.3139 Y2.379
N12130 G1 X5.3507 Y2.3828
N12140 G1 X5.3874 Y2.3874
N12150 G1 X5.424 Y2.3928
N12160 G1 X5.4605 Y2.3991
N12170 G1 X5.4968 Y2.4062
N12180 G1 X5.5329 Y2.4141
N12190 G1 X5.5689 Y2.4229
N12200 G1 X5.6046 Y2.4327
N12210 G1 X5.64 Y2.4434
N12220 G1 X5.6751 Y2.4552
N12230 G1 X5.7098 Y2.468
N12240 G1 X5.744 Y2.482
N12250 G1 X5.7778 Y2.4972
N12260 G1 X5.8109 Y2.5137
N12270 G1 X5.8432 Y2.5317
N12280 G1 X5.8747 Y2.5512
N12290 G1 X5.905 Y2.5724
N12300 G1 X5.9301 Y2.5925
N12310 G1 X5.9468 Y2.6082
N12320 G1 X5.9605 Y2.6235
N12330 G1 X5.9712 Y2.6373
N12340 G1 X5.9801 Y2.6513
N12350 G1 X5.9846 Y2.662
N12360 G1 X5.9868 Y2.6734
N12370 G1 Y2.685
N12380 G1 X5.9844 Y2.6964
N12390 G1 X5.9798 Y2.7071
N12400 G1 X5.9732 Y2.7167
N12410 G1 X5.9458 Y2.7492
N12420 G1 X5.9258 Y2.78
N12430 G3 X5.9188 Y2.7868 R0.025
N12440 G1 X5.9155 Y2.7889 Z-0.1997
N12450 G1 X5.9123 Y2.791 Z-0.1988
N12460 G1 X5.9093 Y2.7929 Z-0.1973
N12470 G1 X5.9065 Y2.7947 Z-0.1952
N12480 G1 X5.904 Y2.7963 Z-0.1927
N12490 G1 X5.9018 Y2.7977 Z-0.1897
N12500 G1 X5.9001 Y2.7988 Z-0.1863
N12510 G1 X5.8988 Y2.7997 Z-0.1827
N12520 G1 X5.8981 Y2.8001 Z-0.1789
N12530 G1 X5.8978 Y2.8003 Z-0.175
N12540 G0 Z0.2
N12550 G0 X4.1868 Y2.9206
N12560 G0 Z-0.15
N12570 G1 Z-0.175 F12.
N12580 G1 X4.1865 Y2.9207 Z-0.1789
N12590 G1 X4.1856 Y2.921 Z-0.1827
N12600 G1 X4.1842 Y2.9214 Z-0.1863
N12610 G1 X4.1822 Y2.9219 Z-0.1897
N12620 G1 X4.1798 Y2.9227 Z-0.1927
N12630 G1 X4.1769 Y2.9235 Z-0.1952
N12640 G1 X4.1737 Y2.9244 Z-0.1973
N12650 G1 X4.1702 Y2.9254 Z-0.1988
N12660 G1 X4.1666 Y2.9265 Z-0.1997
N12670 G1 X4.1628 Y2.9276 Z-0.2
N12680 G3 X4.1537 Y2.9238 R0.0078
N12690 G1 X4.1286 Y2.8734
N12700 G1 X4.1152 Y2.8482
N12710 G1 X4.1112 Y2.8405
N12720 G1 X4.108 Y2.8329
N12730 G1 X4.1051 Y2.8239
N12740 G1 X4.1027 Y2.8143
N12750 G1 X4.1009 Y2.8025
N12760 G1 X4.0999 Y2.7902
N12770 G1 X4.1 Y2.7756
N12780 G1 X4.1013 Y2.7603
N12790 G1 X4.1043 Y2.7426
N12800 G1 X4.1089 Y2.724
N12810 G1 X4.1162 Y2.7025
N12820 G1 X4.1256 Y2.6807
N12830 G1 X4.1387 Y2.6559
N12840 G1 X4.1557 Y2.6293
N12850 G1 X4.1767 Y2.6014
N12860 G1 X4.2013 Y2.5738
N12870 G1 X4.2279 Y2.548
N12880 G1 X4.256 Y2.524
N12890 G1 X4.2854 Y2.5015
N12900 G1 X4.3159 Y2.4806
N12910 G1 X4.3473 Y2.461
N12920 G1 X4.3795 Y2.4427
N12930 G1 X4.4123 Y2.4256
N12940 G1 X4.4457 Y2.4097
N12950 G1 X4.4796 Y2.3949
N12960 G1 X4.514 Y2.3811
N12970 G1 X4.5487 Y2.3684
N12980 G1 X4.5838 Y2.3566
N12990 G1 X4.6191 Y2.3457
N13000 G1 X4.6548 Y2.3356
N13010 G1 X4.6906 Y2.3265
N13020 G1 X4.7267 Y2.3181
N13030 G1 X4.7629 Y2.3105
N13040 G1 X4.7992 Y2.3036
N13050 G1 X4.8357 Y2.2975
N13060 G1 X4.8723 Y2.2922
N13070 G1 X4.909 Y2.2875
N13080 G1 X4.9458 Y2.2835
N13090 G1 X4.9827 Y2.2802
N13100 G1 X5.0196 Y2.2776
N13110 G1 X5.0566 Y2.2757
N13120 G1 X5.0935 Y2.2744
N13130 G1 X5.1305 Y2.2738
N13140 G1 X5.1675 Y2.2739
N13150 G1 X5.2045 Y2.2747
N13160 G1 X5.2415 Y2.2763
N13170 G1 X5.2784 Y2.2785
N13180 G1 X5.3153 Y2.2814
N13190 G1 X5.3521 Y2.2851
N13200 G1 X5.3889 Y2.2896
N13210 G1 X5.4255 Y2.2948
N13220 G1 X5.462 Y2.3008
N13230 G1 X5.4984 Y2.3076
N13240 G1 X5.5346 Y2.3152
N13250 G1 X5.5706 Y2.3236
N13260 G1 X5.6065 Y2.3329
N13270 G1 X5.642 Y2.3431
N13280 G1 X5.6773 Y2.3542
N13290 G1 X5.7123 Y2.3663
N13300 G1 X5.7469 Y2.3794
N13310 G1 X5.781 Y2.3936
N13320 G1 X5.8147 Y2.409
N13330 G1 X5.8478 Y2.4256
N13340 G1 X5.8801 Y2.4436
N13350 G1 X5.9117 Y2.4629
N13360 G1 X5.9421 Y2.4839
N13370 G1 X5.9707 Y2.5065
N13380 G1 X5.9934 Y2.5275
N13390 G1 X6.0094 Y2.545
N13400 G1 X6.0213 Y2.5603
N13410 G1 X6.0311 Y2.5752
N13420 G1 X6.0388 Y2.5893
N13430 G1 X6.0404 Y2.5928
N13440 G1 X6.0442 Y2.6044
N13450 G1 X6.0454 Y2.6165
N13460 G1 X6.0442 Y2.6287
N13470 G1 X6.0404 Y2.6403
N13480 G1 X6.0343 Y2.6509
N13490 G1 X6.0262 Y2.6599
N13500 G1 X6.0129 Y2.6719
N13510 G1 X5.997 Y2.6887
N13520 G1 X5.9732 Y2.7167
N13530 G3 X5.9654 Y2.7225 R0.025
N13540 G1 X5.9618 Y2.7241 Z-0.1997
N13550 G1 X5.9584 Y2.7257 Z-0.1988
N13560 G1 X5.9551 Y2.7273 Z-0.1973
N13570 G1 X5.9521 Y2.7287 Z-0.1952
N13580 G1 X5.9494 Y2.73 Z-0.1927
N13590 G1 X5.9471 Y2.7311 Z-0.1897
N13600 G1 X5.9452 Y2.7319 Z-0.1863
N13610 G1 X5.9439 Y2.7326 Z-0.1827
N13620 G1 X5.943 Y2.733 Z-0.1789
N13630 G1 X5.9427 Y2.7331 Z-0.175
N13640 G0 Z0.2
N13650 G0 X4.148 Y2.8428
N13660 G0 Z-0.15
N13670 G1 Z-0.175 F12.
N13680 G1 X4.1477 Y2.8429 Z-0.1789
N13690 G1 X4.1468 Y2.8433 Z-0.1827
N13700 G1 X4.1454 Y2.8438 Z-0.1863
N13710 G1 X4.1435 Y2.8445 Z-0.1897
N13720 G1 X4.1411 Y2.8453 Z-0.1927
N13730 G1 X4.1383 Y2.8464 Z-0.1952
N13740 G1 X4.1351 Y2.8475 Z-0.1973
N13750 G1 X4.1317 Y2.8488 Z-0.1988
N13760 G1 X4.1281 Y2.8501 Z-0.1997
N13770 G1 X4.1245 Y2.8514 Z-0.2
N13780 G3 X4.1152 Y2.8482 R0.0078
N13790 G1 X4.0795 Y2.7872
N13800 G1 X4.0731 Y2.7769
N13810 G1 X4.069 Y2.7693
N13820 G1 X4.0654 Y2.7614
N13830 G1 X4.0624 Y2.7529
N13840 G1 X4.0596 Y2.7425
N13850 G1 X4.0576 Y2.7316
N13860 G1 X4.0563 Y2.7184
N13870 G1 X4.056 Y2.7045
N13880 G1 X4.057 Y2.6883
N13890 G1 X4.0594 Y2.6712
N13900 G1 X4.0638 Y2.6515
N13910 G1 X4.0701 Y2.631
N13920 G1 X4.0796 Y2.6074
N13930 G1 X4.0915 Y2.5836
N13940 G1 X4.1075 Y2.557
N13950 G1 X4.1282 Y2.5281
N13960 G1 X4.1521 Y2.4999
N13970 G1 X4.178 Y2.4734
N13980 G1 X4.2055 Y2.4487
N13990 G1 X4.2343 Y2.4255
N14000 G1 X4.2643 Y2.4038
N14010 G1 X4.2952 Y2.3835
N14020 G1 X4.3269 Y2.3644
N14030 G1 X4.3594 Y2.3466
N14040 G1 X4.3924 Y2.33
N14050 G1 X4.426 Y2.3144
N14060 G1 X4.46 Y2.2998
N14070 G1 X4.4944 Y2.2862
N14080 G1 X4.5292 Y2.2736
N14090 G1 X4.5643 Y2.2619
N14100 G1 X4.5996 Y2.251
N14110 G1 X4.6353 Y2.241
N14120 G1 X4.6711 Y2.2317
N14130 G1 X4.7071 Y2.2232
N14140 G1 X4.7433 Y2.2155
N14150 G1 X4.7796 Y2.2085
N14160 G1 X4.8161 Y2.2023
N14170 G1 X4.8527 Y2.1967
N14180 G1 X4.8894 Y2.1918
N14190 G1 X4.9261 Y2.1876
N14200 G1 X4.963 Y2.1841
N14210 G1 X4.9999 Y2.1812
N14220 G1 X5.0368 Y2.179
N14230 G1 X5.0738 Y2.1775
N14240 G1 X5.1108 Y2.1766
N14250 G1 X5.1478 Y2.1763
N14260 G1 X5.1848 Y2.1768
N14270 G1 X5.2217 Y2.1779
N14280 G1 X5.2587 Y2.1797
N14290 G1 X5.2956 Y2.1821
N14300 G1 X5.3325 Y2.1853
N14310 G1 X5.3693 Y2.1892
N14320 G1 X5.406 Y2.1938
N14330 G1 X5.4426 Y2.1991
N14340 G1 X5.4791 Y2.2052
N14350 G1 X5.5155 Y2.212
N14360 G1 X5.5517 Y2.2196
N14370 G1 X5.5878 Y2.228
N14380 G1 X5.6236 Y2.2372
N14390 G1 X5.6592 Y2.2473
N14400 G1 X5.6945 Y2.2582
N14410 G1 X5.7296 Y2.2701
N14420 G1 X5.7643 Y2.2829
N14430 G1 X5.7986 Y2.2968
N14440 G1 X5.8325 Y2.3117
N14450 G1 X5.8658 Y2.3277
N14460 G1 X5.8986 Y2.3448
N14470 G1 X5.9307 Y2.3632
N14480 G1 X5.9619 Y2.3831
N14490 G1 X5.9921 Y2.4046
N14500 G1 X6.0208 Y2.4278
N14510 G1 X6.0457 Y2.4513
N14520 G1 X6.0651 Y2.4728
N14530 G1 X6.0794 Y2.4915
N14540 G1 X6.0897 Y2.5074
N14550 G1 X6.0981 Y2.523
N14560 G1 X6.1045 Y2.5375
N14570 G1 X6.1062 Y2.5425
N14580 G1 X6.109 Y2.5549
N14590 G1 X6.1091 Y2.5675
N14600 G1 X6.1065 Y2.5799
N14610 G1 X6.1012 Y2.5914
N14620 G1 X6.0936 Y2.6015
N14630 G1 X6.084 Y2.6097
N14640 G1 X6.0793 Y2.6131
N14650 G1 X6.0466 Y2.6415
N14660 G1 X6.0262 Y2.6599
N14670 G3 X6.0176 Y2.6646 R0.025
N14680 G1 X6.0139 Y2.6658 Z-0.1997
N14690 G1 X6.0102 Y2.667 Z-0.1988
N14700 G1 X6.0068 Y2.6681 Z-0.1973
N14710 G1 X6.0036 Y2.6691 Z-0.1952
N14720 G1 X6.0008 Y2.67 Z-0.1927
N14730 G1 X5.9983 Y2.6707 Z-0.1897
N14740 G1 X5.9964 Y2.6713 Z-0.1863
N14750 G1 X5.9949 Y2.6718 Z-0.1827
N14760 G1 X5.9941 Y2.6721 Z-0.1789
N14770 G1 X5.9938 Y2.6722 Z-0.175
N14780 G0 Z0.2
N14790 G0 X4.1058 Y2.7707
N14800 G0 Z-0.15
N14810 G1 Z-0.175 F12.
N14820 G1 X4.1055 Y2.7708 Z-0.1789
N14830 G1 X4.1046 Y2.7711 Z-0.1827
N14840 G1 X4.1032 Y2.7717 Z-0.1863
N14850 G1 X4.1013 Y2.7724 Z-0.1897
N14860 G1 X4.099 Y2.7734 Z-0.1927
N14870 G1 X4.0962 Y2.7745 Z-0.1952
N14880 G1 X4.0931 Y2.7757 Z-0.1973
N14890 G1 X4.0897 Y2.777 Z-0.1988
N14900 G1 X4.0862 Y2.7784 Z-0.1997
N14910 G1 X4.0825 Y2.7798 Z-0.2
N14920 G3 X4.0731 Y2.7769 R0.0078
N14930 G1 X4.0705 Y2.7727
N14940 G1 X4.0542 Y2.7512
N14950 G1 X4.0317 Y2.7223
N14960 G1 X4.0261 Y2.7142
N14970 G1 X4.0222 Y2.7075
N14980 G1 X4.0183 Y2.6994
N14990 G1 X4.0148 Y2.6904
N15000 G1 X4.0117 Y2.68
N15010 G1 X4.0091 Y2.6681
N15020 G1 X4.0075 Y2.6551
N15030 G1 X4.0067 Y2.6402
N15040 G1 X4.0072 Y2.6241
N15050 G1 X4.0093 Y2.6059
N15060 G1 X4.0131 Y2.5863
N15070 G1 X4.0192 Y2.5646
N15080 G1 X4.028 Y2.5406
N15090 G1 X4.0395 Y2.5159
N15100 G1 X4.055 Y2.4883
N15110 G1 X4.0752 Y2.4585
N15120 G1 X4.0983 Y2.4296
N15130 G1 X4.1234 Y2.4025
N15140 G1 X4.1502 Y2.377
N15150 G1 X4.1784 Y2.353
N15160 G1 X4.2077 Y2.3305
N15170 G1 X4.2381 Y2.3093
N15180 G1 X4.2693 Y2.2894
N15190 G1 X4.3013 Y2.2708
N15200 G1 X4.3338 Y2.2532
N15210 G1 X4.367 Y2.2368
N15220 G1 X4.4006 Y2.2213
N15230 G1 X4.4347 Y2.2068
N15240 G1 X4.4691 Y2.1933
N15250 G1 X4.5039 Y2.1806
N15260 G1 X4.5389 Y2.1688
N15270 G1 X4.5743 Y2.1578
N15280 G1 X4.6098 Y2.1477
N15290 G1 X4.6456 Y2.1383
N15300 G1 X4.6816 Y2.1296
N15310 G1 X4.7177 Y2.1217
N15320 G1 X4.754 Y2.1145
N15330 G1 X4.7905 Y2.1079
N15340 G1 X4.827 Y2.1021
N15350 G1 X4.8636 Y2.0969
N15360 G1 X4.9004 Y2.0924
N15370 G1 X4.9372 Y2.0886
N15380 G1 X4.974 Y2.0854
N15390 G1 X5.011 Y2.0828
N15400 G1 X5.0479 Y2.0809
N15410 G1 X5.0849 Y2.0796
N15420 G1 X5.1219 Y2.0789
N15430 G1 X5.1589
N15440 G1 X5.1959 Y2.0795
N15450 G1 X5.2329 Y2.0808
N15460 G1 X5.2698 Y2.0827
N15470 G1 X5.3067 Y2.0853
N15480 G1 X5.3436 Y2.0885
N15490 G1 X5.3804 Y2.0924
N15500 G1 X5.4171 Y2.097
N15510 G1 X5.4537 Y2.1023
N15520 G1 X5.4902 Y2.1083
N15530 G1 X5.5266 Y2.115
N15540 G1 X5.5629 Y2.1225
N15550 G1 X5.5989 Y2.1308
N15560 G1 X5.6348 Y2.1398
N15570 G1 X5.6705 Y2.1496
N15580 G1 X5.7059 Y2.1603
N15590 G1 X5.7411 Y2.1718
N15600 G1 X5.7759 Y2.1842
N15610 G1 X5.8105 Y2.1976
N15620 G1 X5.8446 Y2.2119
N15630 G1 X5.8783 Y2.2271
N15640 G1 X5.9115 Y2.2434
N15650 G1 X5.9441 Y2.2609
N15660 G1 X5.9761 Y2.2796
N15670 G1 X6.0072 Y2.2997
N15680 G1 X6.0372 Y2.3212
N15690 G1 X6.0661 Y2.3444
N15700 G1 X6.0934 Y2.3694
N15710 G1 X6.1168 Y2.3941
N15720 G1 X6.136 Y2.4179
N15730 G1 X6.1497 Y2.4382
N15740 G1 X6.1596 Y2.4556
N15750 G1 X6.1675 Y2.4725
N15760 G1 X6.173 Y2.4872
N15770 G1 X6.1776 Y2.5039
N15780 G1 X6.1787 Y2.5156
N15790 G1 X6.1774 Y2.5273
N15800 G1 X6.1739 Y2.5385
N15810 G1 X6.1682 Y2.5487
N15820 G1 X6.1605 Y2.5576
N15830 G1 X6.1512 Y2.5648
N15840 G1 X6.1282 Y2.5795
N15850 G1 X6.084 Y2.6097
N15860 G3 X6.0749 Y2.6133 R0.025
N15870 G1 X6.0711 Y2.6139 Z-0.1997
N15880 G1 X6.0673 Y2.6146 Z-0.1988
N15890 G1 X6.0637 Y2.6152 Z-0.1973
N15900 G1 X6.0604 Y2.6158 Z-0.1952
N15910 G1 X6.0575 Y2.6163 Z-0.1927
N15920 G1 X6.055 Y2.6167 Z-0.1897
N15930 G1 X6.053 Y2.6171 Z-0.1863
N15940 G1 X6.0515 Y2.6173 Z-0.1827
N15950 G1 X6.0506 Y2.6175 Z-0.1789
N15960 G1 X6.0503 Z-0.175
N15970 G0 Z0.2
N15980 G0 X4.0635 Y2.7125
N15990 G0 Z-0.15
N16000 G1 Z-0.175 F12.
N16010 G1 X4.0632 Y2.7127 Z-0.1789
N16020 G1 X4.0624 Y2.7131 Z-0.1827
N16030 G1 X4.0611 Y2.7138 Z-0.1863
N16040 G1 X4.0593 Y2.7148 Z-0.1897
N16050 G1 X4.057 Y2.716 Z-0.1927
N16060 G1 X4.0544 Y2.7173 Z-0.1952
N16070 G1 X4.0514 Y2.7189 Z-0.1973
N16080 G1 X4.0482 Y2.7206 Z-0.1988
N16090 G1 X4.0448 Y2.7224 Z-0.1997
N16100 G1 X4.0414 Y2.7242 Z-0.2
N16110 G3 X4.0317 Y2.7223 R0.0078
N16120 G1 X4.0187 Y2.7055
N16130 G1 X4.0111 Y2.6971
N16140 G1 X3.987 Y2.6731
N16150 G1 X3.9811 Y2.6667
N16160 G1 X3.9768 Y2.6612
N16170 G1 X3.9721 Y2.6542
N16180 G1 X3.9679 Y2.6465
N16190 G1 X3.9637 Y2.6372
N16200 G1 X3.9601 Y2.627
N16210 G1 X3.9569 Y2.615
N16220 G1 X3.9545 Y2.6019
N16230 G1 X3.9529 Y2.5869
N16240 G1 X3.9526 Y2.5707
N16250 G1 X3.9537 Y2.5521
N16260 G1 X3.9564 Y2.5326
N16270 G1 X3.9615 Y2.5098
N16280 G1 X3.9686 Y2.4868
N16290 G1 X3.9791 Y2.4606
N16300 G1 X3.9932 Y2.4321
N16310 G1 X4.011 Y2.4024
N16320 G1 X4.0326 Y2.3724
N16330 G1 X4.0563 Y2.344
N16340 G1 X4.0819 Y2.3172
N16350 G1 X4.1089 Y2.2919
N16360 G1 X4.1372 Y2.2681
N16370 G1 X4.1666 Y2.2456
N16380 G1 X4.1969 Y2.2244
N16390 G1 X4.2281 Y2.2044
N16400 G1 X4.2599 Y2.1856
N16410 G1 X4.2923 Y2.1678
N16420 G1 X4.3253 Y2.151
N16430 G1 X4.3588 Y2.1352
N16440 G1 X4.3927 Y2.1204
N16450 G1 X4.427 Y2.1065
N16460 G1 X4.4616 Y2.0934
N16470 G1 X4.4965 Y2.0812
N16480 G1 X4.5317 Y2.0698
N16490 G1 X4.5672 Y2.0591
N16500 G1 X4.6028 Y2.0492
N16510 G1 X4.6387 Y2.0401
N16520 G1 X4.6747 Y2.0316
N16530 G1 X4.7109 Y2.0239
N16540 G1 X4.7472 Y2.0168
N16550 G1 X4.7836 Y2.0104
N16560 G1 X4.8202 Y2.0047
N16570 G1 X4.8569 Y1.9996
N16580 G1 X4.8936 Y1.9951
N16590 G1 X4.9304 Y1.9913
N16600 G1 X4.9672 Y1.9881
N16610 G1 X5.0042 Y1.9855
N16620 G1 X5.0411 Y1.9835
N16630 G1 X5.0781 Y1.9821
N16640 G1 X5.1151 Y1.9813
N16650 G1 X5.1521 Y1.9812
N16660 G1 X5.1891 Y1.9817
N16670 G1 X5.2261 Y1.9828
N16680 G1 X5.263 Y1.9845
N16690 G1 X5.3 Y1.9869
N16700 G1 X5.3368 Y1.9899
N16710 G1 X5.3737 Y1.9935
N16720 G1 X5.4104 Y1.9978
N16730 G1 X5.4471 Y2.0028
N16740 G1 X5.4836 Y2.0084
N16750 G1 X5.5201 Y2.0148
N16760 G1 X5.5564 Y2.0218
N16770 G1 X5.5926 Y2.0295
N16780 G1 X5.6286 Y2.038
N16790 G1 X5.6645 Y2.0472
N16800 G1 X5.7001 Y2.0572
N16810 G1 X5.7355 Y2.068
N16820 G1 X5.7706 Y2.0796
N16830 G1 X5.8055 Y2.092
N16840 G1 X5.84 Y2.1054
N16850 G1 X5.8742 Y2.1196
N16860 G1 X5.9079 Y2.1347
N16870 G1 X5.9412 Y2.1509
N16880 G1 X5.974 Y2.1681
N16890 G1 X6.0061 Y2.1865
N16900 G1 X6.0375 Y2.206
N16910 G1 X6.0681 Y2.2269
N16920 G1 X6.0977 Y2.2491
N16930 G1 X6.1261 Y2.2728
N16940 G1 X6.1531 Y2.2981
N16950 G1 X6.1783 Y2.3252
N16960 G1 X6.1995 Y2.3518
N16970 G1 X6.2168 Y2.3774
N16980 G1 X6.2288 Y2.399
N16990 G1 X6.2378 Y2.4184
N17000 G1 X6.2441 Y2.4356
N17010 G1 X6.2484 Y2.4511
N17020 G1 X6.2514 Y2.4666
N17030 G1 X6.2518 Y2.4704
N17040 G1 X6.2519 Y2.4822
N17050 G1 X6.2496 Y2.4938
N17060 G1 X6.2451 Y2.5046
N17070 G1 X6.2384 Y2.5144
N17080 G1 X6.23 Y2.5226
N17090 G1 X6.22 Y2.5289
N17100 G1 X6.1629 Y2.5578
N17110 G1 X6.1512 Y2.5648
N17120 G3 X6.142 Y2.5679 R0.025
N17130 G1 X6.1381 Y2.5684 Z-0.1997
N17140 G1 X6.1343 Y2.5689 Z-0.1988
N17150 G1 X6.1308 Y2.5694 Z-0.1973
N17160 G1 X6.1274 Y2.5698 Z-0.1952
N17170 G1 X6.1245 Y2.5702 Z-0.1927
N17180 G1 X6.122 Y2.5705 Z-0.1897
N17190 G1 X6.1199 Y2.5708 Z-0.1863
N17200 G1 X6.1184 Y2.571 Z-0.1827
N17210 G1 X6.1175 Y2.5711 Z-0.1789
N17220 G1 X6.1172 Z-0.175
N17230 G0 Z0.2
N17240 G0 X4.0172 Y2.6593
N17250 G0 Z-0.15
N17260 G1 Z-0.175 F12.
N17270 G1 X4.0169 Y2.6594 Z-0.1789
N17280 G1 X4.0162 Y2.66 Z-0.1827
N17290 G1 X4.015 Y2.6608 Z-0.1863
N17300 G1 X4.0133 Y2.662 Z-0.1897
N17310 G1 X4.0112 Y2.6635 Z-0.1927
N17320 G1 X4.0088 Y2.6652 Z-0.1952
N17330 G1 X4.006 Y2.6672 Z-0.1973
N17340 G1 X4.0031 Y2.6693 Z-0.1988
N17350 G1 X4. Y2.6715 Z-0.1997
N17360 G1 X3.9968 Y2.6737 Z-0.2
N17370 G3 X3.987 Y2.6731 R0.0078
N17380 G1 X3.9515 Y2.6383
N17390 G1 X3.945 Y2.6326
N17400 G1 X3.9365 Y2.6263
N17410 G1 X3.9324 Y2.6228
N17420 G1 X3.9274 Y2.6178
N17430 G1 X3.9226 Y2.6121
N17440 G1 X3.9175 Y2.6049
N17450 G1 X3.9128 Y2.5971
N17460 G1 X3.908 Y2.5876
N17470 G1 X3.9038 Y2.577
N17480 G1 X3.9 Y2.5647
N17490 G1 X3.897 Y2.5513
N17500 G1 X3.8948 Y2.5358
N17510 G1 X3.8939 Y2.5191
N17520 G1 X3.8943 Y2.4996
N17530 G1 X3.8964 Y2.4796
N17540 G1 X3.9007 Y2.4559
N17550 G1 X3.9072 Y2.4319
N17560 G1 X3.9168 Y2.405
N17570 G1 X3.93 Y2.3756
N17580 G1 X3.9473 Y2.3443
N17590 G1 X3.9677 Y2.3134
N17600 G1 X3.9903 Y2.2841
N17610 G1 X4.0149 Y2.2564
N17620 G1 X4.0409 Y2.2302
N17630 G1 X4.0683 Y2.2053
N17640 G1 X4.0969 Y2.1817
N17650 G1 X4.1264 Y2.1594
N17660 G1 X4.1568 Y2.1383
N17670 G1 X4.1879 Y2.1183
N17680 G1 X4.2197 Y2.0993
N17690 G1 X4.252 Y2.0814
N17700 G1 X4.2849 Y2.0644
N17710 G1 X4.3183 Y2.0484
N17720 G1 X4.352 Y2.0333
N17730 G1 X4.3862 Y2.0191
N17740 G1 X4.4207 Y2.0057
N17750 G1 X4.4555 Y1.9931
N17760 G1 X4.4906 Y1.9813
N17770 G1 X4.5259 Y1.9703
N17780 G1 X4.5614 Y1.96
N17790 G1 X4.5972 Y1.9504
N17800 G1 X4.6331 Y1.9415
N17810 G1 X4.6692 Y1.9333
N17820 G1 X4.7054 Y1.9258
N17830 G1 X4.7417 Y1.9189
N17840 G1 X4.7782 Y1.9126
N17850 G1 X4.8148 Y1.907
N17860 G1 X4.8515 Y1.9019
N17870 G1 X4.8882 Y1.8975
N17880 G1 X4.925 Y1.8937
N17890 G1 X4.9619 Y1.8905
N17900 G1 X4.9988 Y1.8879
N17910 G1 X5.0357 Y1.8859
N17920 G1 X5.0727 Y1.8845
N17930 G1 X5.1097 Y1.8837
N17940 G1 X5.1467 Y1.8834
N17950 G1 X5.1837 Y1.8838
N17960 G1 X5.2207 Y1.8848
N17970 G1 X5.2577 Y1.8864
N17980 G1 X5.2946 Y1.8886
N17990 G1 X5.3315 Y1.8914
N18000 G1 X5.3683 Y1.8948
N18010 G1 X5.4051 Y1.8989
N18020 G1 X5.4418 Y1.9035
N18030 G1 X5.4784 Y1.9089
N18040 G1 X5.5149 Y1.9149
N18050 G1 X5.5513 Y1.9215
N18060 G1 X5.5876 Y1.9288
N18070 G1 X5.6237 Y1.9368
N18080 G1 X5.6597 Y1.9455
N18090 G1 X5.6955 Y1.955
N18100 G1 X5.7311 Y1.9651
N18110 G1 X5.7664 Y1.976
N18120 G1 X5.8015 Y1.9877
N18130 G1 X5.8364 Y2.0002
N18140 G1 X5.8709 Y2.0135
N18150 G1 X5.9051 Y2.0277
N18160 G1 X5.9389 Y2.0428
N18170 G1 X5.9722 Y2.0588
N18180 G1 X6.0051 Y2.0759
N18190 G1 X6.0373 Y2.0939
N18200 G1 X6.069 Y2.1131
N18210 G1 X6.1 Y2.1333
N18220 G1 X6.1301 Y2.1548
N18230 G1 X6.1593 Y2.1775
N18240 G1 X6.1873 Y2.2017
N18250 G1 X6.214 Y2.2273
N18260 G1 X6.2391 Y2.2545
N18270 G1 X6.2624 Y2.2832
N18280 G1 X6.282 Y2.3115
N18290 G1 X6.2977 Y2.3384
N18300 G1 X6.3096 Y2.3632
N18310 G1 X6.3177 Y2.3844
N18320 G1 X6.323 Y2.4023
N18330 G1 X6.3265 Y2.4194
N18340 G1 X6.3285 Y2.435
N18350 G1 X6.3289 Y2.4446
N18360 G1 X6.3282 Y2.4571
N18370 G1 X6.3248 Y2.469
N18380 G1 X6.3189 Y2.48
N18390 G1 X6.3109 Y2.4895
N18400 G1 X6.301 Y2.4971
N18410 G1 X6.2897 Y2.5024
N18420 G1 X6.24 Y2.5198
N18430 G1 X6.22 Y2.5289
N18440 G3 X6.2106 Y2.5312 R0.025
N18450 G1 X6.2067 Y2.5314 Z-0.1997
N18460 G1 X6.2028 Y2.5315 Z-0.1988
N18470 G1 X6.1992 Y2.5316 Z-0.1973
N18480 G1 X6.1959 Y2.5318 Z-0.1952
N18490 G1 X6.1929 Y2.5319 Z-0.1927
N18500 G1 X6.1904 Y2.532 Z-0.1897
N18510 G1 X6.1883 Y2.5321 Z-0.1863
N18520 G1 X6.1868 Z-0.1827
N18530 G1 X6.1859 Y2.5322 Z-0.1789
N18540 G1 X6.1856 Z-0.175
N18550 G0 Z0.2
N18560 G0 X3.9646 Y2.6085
N18570 G0 Z-0.15
N18580 G1 Z-0.175 F12.
N18590 G1 X3.9644 Y2.6087 Z-0.1789
N18600 G1 X3.9637 Y2.6094 Z-0.1827
N18610 G1 X3.9626 Y2.6104 Z-0.1863
N18620 G1 X3.9611 Y2.6118 Z-0.1897
N18630 G1 X3.9593 Y2.6135 Z-0.1927
N18640 G1 X3.9571 Y2.6156 Z-0.1952
N18650 G1 X3.9546 Y2.6178 Z-0.1973
N18660 G1 X3.952 Y2.6203 Z-0.1988
N18670 G1 X3.9492 Y2.6229 Z-0.1997
N18680 G1 X3.9463 Y2.6256 Z-0.2
N18690 G3 X3.9365 Y2.6263 R0.0078
N18700 G1 X3.8777 Y2.5822
N18710 G1 X3.8734 Y2.5789
N18720 G1 X3.8678 Y2.5734
N18730 G1 X3.8624 Y2.567
N18740 G1 X3.8568 Y2.5593
N18750 G1 X3.8515 Y2.5506
N18760 G1 X3.8464 Y2.5403
N18770 G1 X3.8417 Y2.5287
N18780 G1 X3.8375 Y2.5154
N18790 G1 X3.8342 Y2.5007
N18800 G1 X3.8317 Y2.4838
N18810 G1 X3.8306 Y2.4658
N18820 G1 X3.8309 Y2.4446
N18830 G1 X3.833 Y2.423
N18840 G1 X3.8376 Y2.3977
N18850 G1 X3.8446 Y2.3709
N18860 G1 X3.8546 Y2.3425
N18870 G1 X3.8685 Y2.3112
N18880 G1 X3.8863 Y2.2787
N18890 G1 X3.9064 Y2.2477
N18900 G1 X3.9286 Y2.2181
N18910 G1 X3.9526 Y2.19
N18920 G1 X3.9781 Y2.1632
N18930 G1 X4.005 Y2.1377
N18940 G1 X4.0329 Y2.1134
N18950 G1 X4.0619 Y2.0904
N18960 G1 X4.0917 Y2.0685
N18970 G1 X4.1223 Y2.0477
N18980 G1 X4.1536 Y2.0279
N18990 G1 X4.1855 Y2.0092
N19000 G1 X4.2179 Y1.9913
N19010 G1 X4.2508 Y1.9744
N19020 G1 X4.2842 Y1.9584
N19030 G1 X4.3179 Y1.9432
N19040 G1 X4.3521 Y1.9289
N19050 G1 X4.3865 Y1.9154
N19060 G1 X4.4212 Y1.9026
N19070 G1 X4.4562 Y1.8906
N19080 G1 X4.4915 Y1.8794
N19090 G1 X4.527 Y1.8688
N19100 G1 X4.5626 Y1.859
N19110 G1 X4.5985 Y1.8498
N19120 G1 X4.6345 Y1.8413
N19130 G1 X4.6706 Y1.8334
N19140 G1 X4.7069 Y1.8262
N19150 G1 X4.7433 Y1.8196
N19160 G1 X4.7798 Y1.8136
N19170 G1 X4.8164 Y1.8081
N19180 G1 X4.8531 Y1.8033
N19190 G1 X4.8899 Y1.7991
N19200 G1 X4.9267 Y1.7955
N19210 G1 X4.9636 Y1.7924
N19220 G1 X5.0005 Y1.7899
N19230 G1 X5.0375 Y1.788
N19240 G1 X5.0744 Y1.7866
N19250 G1 X5.1114 Y1.7859
N19260 G1 X5.1484 Y1.7857
N19270 G1 X5.1854 Y1.7861
N19280 G1 X5.2224 Y1.787
N19290 G1 X5.2594 Y1.7886
N19300 G1 X5.2963 Y1.7907
N19310 G1 X5.3332 Y1.7934
N19320 G1 X5.3701 Y1.7968
N19330 G1 X5.4069 Y1.8007
N19340 G1 X5.4436 Y1.8052
N19350 G1 X5.4803 Y1.8104
N19360 G1 X5.5168 Y1.8162
N19370 G1 X5.5532 Y1.8226
N19380 G1 X5.5896 Y1.8296
N19390 G1 X5.6258 Y1.8374
N19400 G1 X5.6618 Y1.8457
N19410 G1 X5.6977 Y1.8548
N19420 G1 X5.7334 Y1.8645
N19430 G1 X5.7689 Y1.875
N19440 G1 X5.8041 Y1.8862
N19450 G1 X5.8392 Y1.8981
N19460 G1 X5.8739 Y1.9108
N19470 G1 X5.9084 Y1.9242
N19480 G1 X5.9425 Y1.9385
N19490 G1 X5.9763 Y1.9537
N19500 G1 X6.0096 Y1.9698
N19510 G1 X6.0425 Y1.9867
N19520 G1 X6.0748 Y2.0047
N19530 G1 X6.1066 Y2.0237
N19540 G1 X6.1377 Y2.0437
N19550 G1 X6.1681 Y2.0648
N19560 G1 X6.1977 Y2.087
N19570 G1 X6.2264 Y2.1104
N19580 G1 X6.2539 Y2.1351
N19590 G1 X6.2803 Y2.1611
N19600 G1 X6.3051 Y2.1885
N19610 G1 X6.3284 Y2.2173
N19620 G1 X6.3497 Y2.2476
N19630 G1 X6.3683 Y2.2785
N19640 G1 X6.3826 Y2.3071
N19650 G1 X6.3936 Y2.3345
N19660 G1 X6.401 Y2.358
N19670 G1 X6.4053 Y2.3773
N19680 G1 X6.408 Y2.3959
N19690 G1 X6.4089 Y2.4116
N19700 G1 X6.4086 Y2.4274
N19710 G1 X6.4082 Y2.4316
N19720 G1 X6.4057 Y2.4437
N19730 G1 X6.4007 Y2.4549
N19740 G1 X6.3934 Y2.4649
N19750 G1 X6.3842 Y2.4731
N19760 G1 X6.3735 Y2.4792
N19770 G1 X6.3617 Y2.483
N19780 G1 X6.3241 Y2.4906
N19790 G1 X6.2897 Y2.5024
N19800 G3 X6.28 Y2.5034 R0.025
N19810 G1 X6.2762 Y2.503 Z-0.1997
N19820 G1 X6.2724 Y2.5027 Z-0.1988
N19830 G1 X6.2687 Y2.5023 Z-0.1973
N19840 G1 X6.2654 Y2.502 Z-0.1952
N19850 G1 X6.2624 Y2.5017 Z-0.1927
N19860 G1 X6.2599 Y2.5015 Z-0.1897
N19870 G1 X6.2579 Y2.5013 Z-0.1863
N19880 G1 X6.2564 Y2.5011 Z-0.1827
N19890 G1 X6.2555 Z-0.1789
N19900 G1 X6.2552 Y2.501 Z-0.175
N19910 G0 Z0.2
N19920 G0 X3.9049 Y2.5631
N19930 G0 Z-0.15
N19940 G1 Z-0.175 F12.
N19950 G1 X3.9047 Y2.5634 Z-0.1789
N19960 G1 X3.9041 Y2.564 Z-0.1827
N19970 G1 X3.903 Y2.5651 Z-0.1863
N19980 G1 X3.9016 Y2.5666 Z-0.1897
N19990 G1 X3.8998 Y2.5684 Z-0.1927
N20000 G1 X3.8977 Y2.5705 Z-0.1952
N20010 G1 X3.8954 Y2.5729 Z-0.1973
N20020 G1 X3.8929 Y2.5755 Z-0.1988
N20030 G1 X3.8902 Y2.5782 Z-0.1997
N20040 G1 X3.8875 Y2.581 Z-0.2
N20050 G3 X3.8777 Y2.5822 R0.0078
N20060 G1 X3.8693 Y2.5768
N20070 G1 X3.8273 Y2.5532
N20080 G1 X3.8205 Y2.5489
N20090 G1 X3.8149 Y2.5448
N20100 G1 X3.8088 Y2.5394
N20110 G1 X3.803 Y2.5334
N20120 G1 X3.7966 Y2.5257
N20130 G1 X3.7907 Y2.5173
N20140 G1 X3.7847 Y2.5069
N20150 G1 X3.7793 Y2.4957
N20160 G1 X3.774 Y2.4821
N20170 G1 X3.7698 Y2.4677
N20180 G1 X3.7661 Y2.4505
N20190 G1 X3.7638 Y2.4324
N20200 G1 X3.7628 Y2.4115
N20210 G1 X3.7636 Y2.3887
N20220 G1 X3.7664 Y2.3641
N20230 G1 X3.772 Y2.3358
N20240 G1 X3.7802 Y2.3067
N20250 G1 X3.7919 Y2.2752
N20260 G1 X3.8074 Y2.2416
N20270 G1 X3.8256 Y2.2094
N20280 G1 X3.8459 Y2.1785
N20290 G1 X3.8682 Y2.1489
N20300 G1 X3.892 Y2.1206
N20310 G1 X3.9172 Y2.0935
N20320 G1 X3.9437 Y2.0676
N20330 G1 X3.9713 Y2.043
N20340 G1 X3.9998 Y2.0194
N20350 G1 X4.0292 Y1.997
N20360 G1 X4.0594 Y1.9756
N20370 G1 X4.0903 Y1.9552
N20380 G1 X4.1218 Y1.9358
N20390 G1 X4.1538 Y1.9172
N20400 G1 X4.1864 Y1.8996
N20410 G1 X4.2193 Y1.8828
N20420 G1 X4.2527 Y1.8669
N20430 G1 X4.2865 Y1.8518
N20440 G1 X4.3206 Y1.8375
N20450 G1 X4.355 Y1.8239
N20460 G1 X4.3898 Y1.811
N20470 G1 X4.4247 Y1.7989
N20480 G1 X4.4599 Y1.7875
N20490 G1 X4.4953 Y1.7768
N20500 G1 X4.5309 Y1.7668
N20510 G1 X4.5667 Y1.7574
N20520 G1 X4.6027 Y1.7486
N20530 G1 X4.6388 Y1.7405
N20540 G1 X4.675 Y1.733
N20550 G1 X4.7114 Y1.7261
N20560 G1 X4.7478 Y1.7198
N20570 G1 X4.7844 Y1.7141
N20580 G1 X4.821 Y1.7089
N20590 G1 X4.8578 Y1.7043
N20600 G1 X4.8945 Y1.7003
N20610 G1 X4.9314 Y1.6969
N20620 G1 X4.9683 Y1.694
N20630 G1 X5.0052 Y1.6917
N20640 G1 X5.0422 Y1.6899
N20650 G1 X5.0791 Y1.6887
N20660 G1 X5.1161 Y1.688
N20670 G1 X5.1531 Y1.6879
N20680 G1 X5.1901 Y1.6883
N20690 G1 X5.2271 Y1.6893
N20700 G1 X5.2641 Y1.6909
N20710 G1 X5.301 Y1.693
N20720 G1 X5.338 Y1.6957
N20730 G1 X5.3748 Y1.699
N20740 G1 X5.4169 Y1.7034
N20750 G1 X5.422 Y1.7043
N20760 G1 X5.427 Y1.7056
N20770 G1 X5.4319 Y1.7073
N20780 G1 X5.4524 Y1.7145
N20790 G1 X5.4582 Y1.7158
N20800 G1 X5.475 Y1.7185
N20810 G1 X5.4834 Y1.7192
N20820 G1 X5.5203 Y1.7221
N20830 G1 X5.5569 Y1.7271
N20840 G1 X5.5935 Y1.733
N20850 G1 X5.6298 Y1.7399
N20860 G1 X5.666 Y1.7475
N20870 G1 X5.7021 Y1.756
N20880 G1 X5.7379 Y1.7652
N20890 G1 X5.7735 Y1.7751
N20900 G1 X5.809 Y1.7858
N20910 G1 X5.8442 Y1.7972
N20920 G1 X5.8791 Y1.8093
N20930 G1 X5.9138 Y1.8222
N20940 G1 X5.9482 Y1.8358
N20950 G1 X5.9823 Y1.8503
N20960 G1 X6.016 Y1.8655
N20970 G1 X6.0493 Y1.8817
N20980 G1 X6.0822 Y1.8986
N20990 G1 X6.1146 Y1.9165
N21000 G1 X6.1464 Y1.9354
N21010 G1 X6.1777 Y1.9552
N21020 G1 X6.2082 Y1.976
N21030 G1 X6.2381 Y1.9979
N21040 G1 X6.2672 Y2.0208
N21050 G1 X6.2953 Y2.0448
N21060 G1 X6.3225 Y2.0699
N21070 G1 X6.3484 Y2.0963
N21080 G1 X6.3731 Y2.1239
N21090 G1 X6.3962 Y2.1528
N21100 G1 X6.4178 Y2.1829
N21110 G1 X6.4374 Y2.2142
N21120 G1 X6.4548 Y2.2469
N21130 G1 X6.4687 Y2.2785
N21140 G1 X6.4788 Y2.3074
N21150 G1 X6.4859 Y2.3347
N21160 G1 X6.4898 Y2.3573
N21170 G1 X6.4916 Y2.3761
N21180 G1 X6.4918 Y2.3942
N21190 G1 X6.4908 Y2.4094
N21200 G1 X6.4883 Y2.4258
N21210 G1 X6.4842 Y2.4375
N21220 G1 X6.4778 Y2.4481
N21230 G1 X6.4693 Y2.4571
N21240 G1 X6.459 Y2.464
N21250 G1 X6.4476 Y2.4687
N21260 G1 X6.4353 Y2.4708
N21270 G1 X6.4165 Y2.4723
N21280 G1 X6.4081 Y2.4736
N21290 G1 X6.3617 Y2.483
N21300 G3 X6.3418 Y2.4777 R0.025
N21310 G1 X5.468 Y1.7636
N21320 G3 X5.4834 Y1.7192 R0.025
N21330 G1 X5.5338 Y1.7196
N21340 G1 X5.8112 Y1.7195
N21350 G1 X5.8482 Y1.7214
N21360 G1 X5.8666 Y1.7236
N21370 G1 X5.9031 Y1.7295
N21380 G1 X5.9391 Y1.7382
N21390 G1 X5.9745 Y1.7489
N21400 G1 X6.0093 Y1.7614
N21410 G1 X6.0437 Y1.7752
N21420 G1 X6.0775 Y1.7902
N21430 G1 X6.1108 Y1.8063
N21440 G1 X6.1436 Y1.8235
N21450 G1 X6.1758 Y1.8416
N21460 G1 X6.2075 Y1.8608
N21470 G1 X6.2385 Y1.8809
N21480 G1 X6.269 Y1.9019
N21490 G1 X6.2987 Y1.924
N21500 G1 X6.3276 Y1.9471
N21510 G1 X6.3557 Y1.9712
N21520 G1 X6.3828 Y1.9964
N21530 G1 X6.4088 Y2.0226
N21540 G1 X6.4337 Y2.05
N21550 G1 X6.4573 Y2.0785
N21560 G1 X6.4795 Y2.1081
N21570 G1 X6.5002 Y2.1388
N21580 G1 X6.5192 Y2.1706
N21590 G1 X6.5361 Y2.2035
N21600 G1 X6.5507 Y2.2375
N21610 G1 X6.562 Y2.2703
N21620 G1 X6.5701 Y2.3016
N21630 G1 X6.575 Y2.3303
N21640 G1 X6.5771 Y2.3534
N21650 G1 X6.5773 Y2.374
N21660 G1 X6.5761 Y2.3917
N21670 G1 X6.5736 Y2.4076
N21680 G1 X6.5702 Y2.4224
N21690 G1 X6.5693 Y2.4252
N21700 G1 X6.5645 Y2.4361
N21710 G1 X6.5576 Y2.4458
N21720 G1 X6.549 Y2.4538
N21730 G1 X6.5388 Y2.46
N21740 G1 X6.5277 Y2.464
N21750 G1 X6.516 Y2.4656
N21760 G1 X6.4353 Y2.4708
N21770 G3 X6.4257 Y2.4692 R0.025
N21780 G3 X6.4159 Y2.4624 R0.025
N21790 G1 X5.7934 Y1.7611
N21800 G3 X5.8112 Y1.7195 R0.025
N21810 G1 X6.0466
N21820 G1 X6.0756 Y1.721
N21830 G1 X6.0987 Y1.724
N21840 G1 X6.1267 Y1.73
N21850 G1 X6.1605 Y1.7401
N21860 G1 X6.195 Y1.7535
N21870 G1 X6.2285 Y1.7692
N21880 G1 X6.2611 Y1.7867
N21890 G1 X6.2929 Y1.8057
N21900 G1 X6.3238 Y1.8261
N21910 G1 X6.3539 Y1.8476
N21920 G1 X6.3831 Y1.8703
N21930 G1 X6.4114 Y1.8941
N21940 G1 X6.4388 Y1.919
N21950 G1 X6.4652 Y1.9449
N21960 G1 X6.4906 Y1.9718
N21970 G1 X6.5148 Y1.9998
N21980 G1 X6.5379 Y2.0287
N21990 G1 X6.5597 Y2.0586
N22000 G1 X6.58 Y2.0896
N22010 G1 X6.5986 Y2.1215
N22020 G1 X6.6155 Y2.1545
N22030 G1 X6.6303 Y2.1884
N22040 G1 X6.643 Y2.2231
N22050 G1 X6.6532 Y2.2587
N22060 G1 X6.66 Y2.2917
N22070 G1 X6.6637 Y2.3217
N22080 G1 X6.6648 Y2.349
N22090 G1 X6.6639 Y2.3714
N22100 G1 X6.6617 Y2.3897
N22110 G1 X6.6582 Y2.4071
N22120 G1 X6.654 Y2.4218
N22130 G1 X6.6517 Y2.4278
N22140 G1 X6.6465 Y2.4383
N22150 G1 X6.6393 Y2.4476
N22160 G1 X6.6303 Y2.4552
N22170 G1 X6.6201 Y2.4609
N22180 G1 X6.6088 Y2.4644
N22190 G1 X6.5972 Y2.4656
N22200 G1 X6.516
N22210 G3 X6.4951 Y2.4546 R0.025
N22220 G1 X6.0268 Y1.7584
N22230 G3 X6.0466 Y1.7195 R0.025
N22240 G1 X6.2316
N22250 G1 X6.2526 Y1.7205
N22260 G1 X6.2711 Y1.7229
N22270 G1 X6.2917 Y1.7273
N22280 G1 X6.3163 Y1.7347
N22290 G1 X6.3451 Y1.7459
N22300 G1 X6.3784 Y1.762
N22310 G1 X6.4103 Y1.7808
N22320 G1 X6.4409 Y1.8016
N22330 G1 X6.4702 Y1.8241
N22340 G1 X6.4985 Y1.848
N22350 G1 X6.5256 Y1.8732
N22360 G1 X6.5515 Y1.8996
N22370 G1 X6.5764 Y1.927
N22380 G1 X6.6001 Y1.9554
N22390 G1 X6.6226 Y1.9848
N22400 G1 X6.6437 Y2.0152
N22410 G1 X6.6635 Y2.0464
N22420 G1 X6.6818 Y2.0786
N22430 G1 X6.6984 Y2.1116
N22440 G1 X6.7133 Y2.1456
N22450 G1 X6.7262 Y2.1802
N22460 G1 X6.7369 Y2.2156
N22470 G1 X6.7453 Y2.2517
N22480 G1 X6.7511 Y2.2881
N22490 G1 X6.7535 Y2.3202
N22500 G1 X6.7534 Y2.3496
N22510 G1 X6.7514 Y2.3738
N22520 G1 X6.7481 Y2.3934
N22530 G1 X6.7436 Y2.4115
N22540 G1 X6.7385 Y2.4265
N22550 G1 X6.7369 Y2.4302
N22560 G1 X6.7315 Y2.4402
N22570 G1 X6.7242 Y2.4488
N22580 G1 X6.7154 Y2.4559
N22590 G1 X6.7054 Y2.4612
N22600 G1 X6.6946 Y2.4645
N22610 G1 X6.6833 Y2.4656
N22620 G1 X6.5972
N22630 G3 X6.5759 Y2.4522 R0.025
N22640 G1 X6.2103 Y1.7561
N22650 G3 X6.2316 Y1.7195 R0.025
N22660 G1 X6.3913 Y1.7194
N22670 G1 X6.4036 Y1.72
N22680 G1 X6.4191 Y1.7221
N22690 G1 X6.4361 Y1.7257
N22700 G1 X6.4563 Y1.7317
N22710 G1 X6.4783 Y1.7403
N22720 G1 X6.5041 Y1.7528
N22730 G1 X6.5335 Y1.7701
N22740 G1 X6.5638 Y1.7914
N22750 G1 X6.5925 Y1.8148
N22760 G1 X6.6197 Y1.8399
N22770 G1 X6.6455 Y1.8664
N22780 G1 X6.6699 Y1.8942
N22790 G1 X6.693 Y1.9232
N22800 G1 X6.7147 Y1.9531
N22810 G1 X6.7351 Y1.984
N22820 G1 X6.7541 Y2.0157
N22830 G1 X6.7716 Y2.0483
N22840 G1 X6.7876 Y2.0817
N22850 G1 X6.8019 Y2.1158
N22860 G1 X6.8144 Y2.1506
N22870 G1 X6.825 Y2.1861
N22880 G1 X6.8335 Y2.2221
N22890 G1 X6.8396 Y2.2586
N22900 G1 X6.8432 Y2.2954
N22910 G1 X6.8439 Y2.3289
N22920 G1 X6.8421 Y2.3591
N22930 G1 X6.8388 Y2.383
N22940 G1 X6.8345 Y2.4022
N22950 G1 X6.8291 Y2.4197
N22960 G1 X6.8254 Y2.4289
N22970 G1 X6.82 Y2.4391
N22980 G1 X6.8128 Y2.4481
N22990 G1 X6.8039 Y2.4555
N23000 G1 X6.7938 Y2.461
N23010 G1 X6.7827 Y2.4644
N23020 G1 X6.7712 Y2.4656
N23030 G1 X6.6833
N23040 G3 X6.6611 Y2.4502 R0.025
N23050 G1 X6.3691 Y1.7541
N23060 G3 X6.3913 Y1.7194 R0.025
N23070 G1 X6.5258
N23080 G1 X6.5385 Y1.72
N23090 G1 X6.5523 Y1.7218
N23100 G1 X6.5671 Y1.725
N23110 G1 X6.5847 Y1.7303
N23120 G1 X6.6035 Y1.7376
N23130 G1 X6.6253 Y1.7481
N23140 G1 X6.6498 Y1.7626
N23150 G1 X6.6765 Y1.7813
N23160 G1 X6.705 Y1.8049
N23170 G1 X6.7316 Y1.8307
N23180 G1 X6.7565 Y1.858
N23190 G1 X6.7797 Y1.8868
N23200 G1 X6.8015 Y1.9167
N23210 G1 X6.8218 Y1.9477
N23220 G1 X6.8407 Y1.9795
N23230 G1 X6.8581 Y2.0121
N23240 G1 X6.874 Y2.0455
N23250 G1 X6.8883 Y2.0797
N23260 G1 X6.9009 Y2.1145
N23270 G1 X6.9117 Y2.1499
N23280 G1 X6.9206 Y2.1858
N23290 G1 X6.9276 Y2.2221
N23300 G1 X6.9325 Y2.2588
N23310 G1 X6.9349 Y2.2957
N23320 G1 X6.9346 Y2.3316
N23330 G1 X6.9319 Y2.3621
N23340 G1 X6.9277 Y2.387
N23350 G1 X6.9227 Y2.4066
N23360 G1 X6.917 Y2.4232
N23370 G1 X6.9139 Y2.4305
N23380 G1 X6.9084 Y2.4403
N23390 G1 X6.9012 Y2.4489
N23400 G1 X6.8924 Y2.456
N23410 G1 X6.8824 Y2.4612
N23420 G1 X6.8716 Y2.4645
N23430 G1 X6.8604 Y2.4656
N23440 G1 X6.7712
N23450 G3 X6.7485 Y2.4489 R0.025
N23460 G1 X6.5031 Y1.7527
N23470 G3 X6.5258 Y1.7194 R0.025
N23480 G1 X6.6519
N23490 G1 X6.6628 Y1.7199
N23500 G1 X6.6746 Y1.7214
N23510 G1 X6.6886 Y1.7244
N23520 G1 X6.7042 Y1.7291
N23530 G1 X6.7212 Y1.7357
N23540 G1 X6.7404 Y1.745
N23550 G1 X6.7618 Y1.7576
N23560 G1 X6.7847 Y1.7737
N23570 G1 X6.8104 Y1.795
N23580 G1 X6.8369 Y1.8208
N23590 G1 X6.8613 Y1.8486
N23600 G1 X6.884 Y1.8779
N23610 G1 X6.9049 Y1.9084
N23620 G1 X6.9243 Y1.9399
N23630 G1 X6.9421 Y1.9723
N23640 G1 X6.9583 Y2.0056
N23650 G1 X6.9729 Y2.0396
N23660 G1 X6.9859 Y2.0742
N23670 G1 X6.9973 Y2.1094
N23680 G1 X7.007 Y2.1451
N23690 G1 X7.015 Y2.1813
N23700 G1 X7.0211 Y2.2178
N23710 G1 X7.0252 Y2.2545
N23720 G1 X7.027 Y2.2915
N23730 G1 X7.0263 Y2.3285
N23740 G1 X7.023 Y2.3614
N23750 G1 X7.0184 Y2.387
N23760 G1 X7.0131 Y2.4069
N23770 G1 X7.0069 Y2.4242
N23780 G1 X7.0039 Y2.4311
N23790 G1 X6.9983 Y2.4408
N23800 G1 X6.9911 Y2.4492
N23810 G1 X6.9823 Y2.4562
N23820 G1 X6.9724 Y2.4613
N23830 G1 X6.9617 Y2.4645
N23840 G1 X6.9506 Y2.4656
N23850 G1 X6.8604
N23860 G3 X6.8373 Y2.4477 R0.025
N23870 G1 X6.6289 Y1.7515
N23880 G3 X6.6424 Y1.7216 R0.025
N23890 G3 X6.6519 Y1.7194 R0.025
N23900 G1 X6.7696 Y1.7193
N23910 G1 X6.7785 Y1.7198
N23920 G1 X6.79 Y1.7213
N23930 G1 X6.8036 Y1.7242
N23940 G1 X6.8173 Y1.7283
N23950 G1 X6.8337 Y1.7347
N23960 G1 X6.8508 Y1.7429
N23970 G1 X6.8706 Y1.7546
N23980 G1 X6.8911 Y1.769
N23990 G1 X6.9141 Y1.7881
N24000 G1 X6.9392 Y1.8126
N24010 G1 X6.9636 Y1.8404
N24020 G1 X6.9858 Y1.87
N24030 G1 X7.0062 Y1.9009
N24040 G1 X7.0248 Y1.9329
N24050 G1 X7.0417 Y1.9658
N24060 G1 X7.057 Y1.9995
N24070 G1 X7.0706 Y2.0339
N24080 G1 X7.0827 Y2.0689
N24090 G1 X7.0932 Y2.1044
N24100 G1 X7.1021 Y2.1403
N24110 G1 X7.1093 Y2.1766
N24120 G1 X7.1147 Y2.2132
N24130 G1 X7.1182 Y2.25
N24140 G1 X7.1196 Y2.287
N24150 G1 X7.1186 Y2.324
N24160 G1 X7.1151 Y2.3582
N24170 G1 X7.1101 Y2.3851
N24180 G1 X7.1046 Y2.4057
N24190 G1 X7.0982 Y2.4237
N24200 G1 X7.0948 Y2.4312
N24210 G1 X7.0893 Y2.4408
N24220 G1 X7.082 Y2.4493
N24230 G1 X7.0733 Y2.4562
N24240 G1 X7.0634 Y2.4613
N24250 G1 X7.0527 Y2.4645
N24260 G1 X7.0416 Y2.4656
N24270 G1 X6.9506
N24280 G3 X6.9411 Y2.4633 R0.025
N24290 G3 X6.9273 Y2.4469 R0.025
N24300 G1 X6.7463 Y1.7506
N24310 G3 X6.7696 Y1.7193 R0.025
N24320 G1 X6.8789
N24330 G1 X6.8893 Y1.7198
N24340 G1 X6.9009 Y1.7213
N24350 G1 X6.913 Y1.7239
N24360 G1 X6.9265 Y1.728
N24370 G1 X6.9421 Y1.734
N24380 G1 X6.958 Y1.7417
N24390 G1 X6.9764 Y1.7526
N24400 G1 X6.9957 Y1.7661
N24410 G1 X7.0167 Y1.7835
N24420 G1 X7.0397 Y1.8059
N24430 G1 X7.064 Y1.8338
N24440 G1 X7.0861 Y1.8636
N24450 G1 X7.106 Y1.8947
N24460 G1 X7.124 Y1.927
N24470 G1 X7.1403 Y1.9603
N24480 G1 X7.1548 Y1.9943
N24490 G1 X7.1677 Y2.029
N24500 G1 X7.179 Y2.0642
N24510 G1 X7.1888 Y2.0999
N24520 G1 X7.197 Y2.136
N24530 G1 X7.2036 Y2.1724
N24540 G1 X7.2085 Y2.2091
N24550 G1 X7.2115 Y2.246
N24560 G1 X7.2125 Y2.283
N24570 G1 X7.2112 Y2.3199
N24580 G1 X7.2076 Y2.3553
N24590 G1 X7.2023 Y2.3836
N24600 G1 X7.1966 Y2.4048
N24610 G1 X7.19 Y2.4232
N24620 G1 X7.1863 Y2.4313
N24630 G1 X7.1808 Y2.4409
N24640 G1 X7.1735 Y2.4493
N24650 G1 X7.1648 Y2.4562
N24660 G1 X7.1549 Y2.4613
N24670 G1 X7.1443 Y2.4645
N24680 G1 X7.1332 Y2.4656
N24690 G1 X7.0416
N24700 G3 X7.0181 Y2.4463 R0.025
N24710 G1 X6.8554 Y1.75
N24720 G3 X6.8694 Y1.7215 R0.025
N24730 G3 X6.8789 Y1.7193 R0.025
N24740 G1 X6.9882
N24750 G1 X6.9965 Y1.7197
N24760 G1 X7.0076 Y1.7211
N24770 G1 X7.0189 Y1.7236
N24780 G1 X7.0325 Y1.7276
N24790 G1 X7.0469 Y1.7332
N24800 G1 X7.0625 Y1.7408
N24810 G1 X7.0797 Y1.7509
N24820 G1 X7.0981 Y1.7639
N24830 G1 X7.1178 Y1.7801
N24840 G1 X7.1393 Y1.8011
N24850 G1 X7.162 Y1.8272
N24860 G1 X7.184 Y1.8569
N24870 G1 X7.2038 Y1.8882
N24880 G1 X7.2215 Y1.9207
N24890 G1 X7.2373 Y1.9542
N24900 G1 X7.2513 Y1.9884
N24910 G1 X7.2638 Y2.0233
N24920 G1 X7.2746 Y2.0586
N24930 G1 X7.2839 Y2.0945
N24940 G1 X7.2916 Y2.1306
N24950 G1 X7.2977 Y2.1671
N24960 G1 X7.3022 Y2.2039
N24970 G1 X7.305 Y2.2408
N24980 G1 X7.3057 Y2.2778
N24990 G1 X7.3044 Y2.3147
N25000 G1 X7.3006 Y2.3515
N25010 G1 X7.2952 Y2.3811
N25020 G1 X7.2892 Y2.4032
N25030 G1 X7.2825 Y2.4222
N25040 G1 X7.2784 Y2.4312
N25050 G1 X7.2729 Y2.4408
N25060 G1 X7.2657 Y2.4493
N25070 G1 X7.2569 Y2.4562
N25080 G1 X7.247 Y2.4613
N25090 G1 X7.2363 Y2.4645
N25100 G1 X7.2252 Y2.4656
N25110 G1 X7.1332
N25120 G3 X7.1096 Y2.4457 R0.025
N25130 G1 X6.9646 Y1.7493
N25140 G3 X6.9882 Y1.7193 R0.025
N25150 G1 X7.0891 Y1.7192
N25160 G1 X7.1012 Y1.7198
N25170 G1 X7.1114 Y1.7212
N25180 G1 X7.1228 Y1.7236
N25190 G1 X7.1361 Y1.7276
N25200 G1 X7.1495 Y1.7328
N25210 G1 X7.1651 Y1.7403
N25220 G1 X7.1812 Y1.7498
N25230 G1 X7.1993 Y1.7625
N25240 G1 X7.2177 Y1.7778
N25250 G1 X7.238 Y1.7976
N25260 G1 X7.2596 Y1.8224
N25270 G1 X7.2817 Y1.8521
N25280 G1 X7.3012 Y1.8835
N25290 G1 X7.3187 Y1.9162
N25300 G1 X7.3341 Y1.9498
N25310 G1 X7.3478 Y1.9842
N25320 G1 X7.3598 Y2.0192
N25330 G1 X7.3702 Y2.0547
N25340 G1 X7.379 Y2.0906
N25350 G1 X7.3863 Y2.1269
N25360 G1 X7.3921 Y2.1634
N25370 G1 X7.3962 Y2.2002
N25380 G1 X7.3987 Y2.2371
N25390 G1 X7.3992 Y2.2741
N25400 G1 X7.3977 Y2.3111
N25410 G1 X7.3939 Y2.3479
N25420 G1 X7.3884 Y2.3786
N25430 G1 X7.3823 Y2.4016
N25440 G1 X7.3754 Y2.421
N25450 G1 X7.371 Y2.431
N25460 G1 X7.3654 Y2.4407
N25470 G1 X7.3582 Y2.4492
N25480 G1 X7.3494 Y2.4562
N25490 G1 X7.3395 Y2.4613
N25500 G1 X7.3288 Y2.4645
N25510 G1 X7.3177 Y2.4656
N25520 G1 X7.2252
N25530 G3 X7.2016 Y2.4454 R0.025
N25540 G1 X7.0654 Y1.749
N25550 G3 X7.0891 Y1.7192 R0.025
N25560 G1 X7.19
N25570 G1 X7.2034 Y1.7199
N25580 G1 X7.2132 Y1.7211
N25590 G1 X7.2245 Y1.7236
N25600 G1 X7.2372 Y1.7274
N25610 G1 X7.2504 Y1.7325
N25620 G1 X7.2659 Y1.74
N25630 G1 X7.2812 Y1.749
N25640 G1 X7.2989 Y1.7614
N25650 G1 X7.3165 Y1.7761
N25660 G1 X7.3361 Y1.7951
N25670 G1 X7.3569 Y1.819
N25680 G1 X7.3782 Y1.8477
N25690 G1 X7.3978 Y1.8792
N25700 G1 X7.415 Y1.9119
N25710 G1 X7.4303 Y1.9456
N25720 G1 X7.4437 Y1.9801
N25730 G1 X7.4554 Y2.0152
N25740 G1 X7.4654 Y2.0508
N25750 G1 X7.474 Y2.0868
N25760 G1 X7.4809 Y2.1231
N25770 G1 X7.4864 Y2.1597
N25780 G1 X7.4903 Y2.1965
N25790 G1 X7.4925 Y2.2335
N25800 G1 X7.4929 Y2.2705
N25810 G1 X7.4913 Y2.3074
N25820 G1 X7.4875 Y2.3442
N25830 G1 X7.4819 Y2.376
N25840 G1 X7.4756 Y2.4
N25850 G1 X7.4687 Y2.4198
N25860 G1 X7.4638 Y2.4308
N25870 G1 X7.4583 Y2.4406
N25880 G1 X7.451 Y2.4491
N25890 G1 X7.4423 Y2.4561
N25900 G1 X7.4324 Y2.4613
N25910 G1 X7.4216 Y2.4645
N25920 G1 X7.4105 Y2.4656
N25930 G1 X7.3177
N25940 G3 X7.294 Y2.4451 R0.025
N25950 G1 X7.1662 Y1.7487
N25960 G3 X7.1805 Y1.7214 R0.025
N25970 G3 X7.19 Y1.7192 R0.025
N25980 G1 X7.2908
N25990 G1 X7.3038 Y1.7198
N26000 G1 X7.3134 Y1.7211
N26010 G1 X7.3247 Y1.7235
N26020 G1 X7.3369 Y1.7271
N26030 G1 X7.35 Y1.7322
N26040 G1 X7.3651 Y1.7396
N26050 G1 X7.38 Y1.7484
N26060 G1 X7.3974 Y1.7605
N26070 G1 X7.4146 Y1.7748
N26080 G1 X7.4335 Y1.7932
N26090 G1 X7.4537 Y1.8164
N26100 G1 X7.4743 Y1.8442
N26110 G1 X7.4939 Y1.8756
N26120 G1 X7.511 Y1.9084
N26130 G1 X7.5261 Y1.9422
N26140 G1 X7.5393 Y1.9768
N26150 G1 X7.5508 Y2.0119
N26160 G1 X7.5606 Y2.0476
N26170 G1 X7.5688 Y2.0837
N26180 G1 X7.5756 Y2.1201
N26190 G1 X7.5808 Y2.1567
N26200 G1 X7.5844 Y2.1935
N26210 G1 X7.5865 Y2.2305
N26220 G1 X7.5867 Y2.2675
N26230 G1 X7.585 Y2.3044
N26240 G1 X7.5812 Y2.3413
N26250 G1 X7.5755 Y2.374
N26260 G1 X7.5691 Y2.3988
N26270 G1 X7.5621 Y2.4189
N26280 G1 X7.5569 Y2.4307
N26290 G1 X7.5514 Y2.4405
N26300 G1 X7.5442 Y2.4491
N26310 G1 X7.5354 Y2.4561
N26320 G1 X7.5254 Y2.4613
N26330 G1 X7.5147 Y2.4645
N26340 G1 X7.5035 Y2.4656
N26350 G1 X7.4105
N26360 G3 X7.3867 Y2.4448 R0.025
N26370 G1 X7.2671 Y1.7484
N26380 G3 X7.2908 Y1.7192 R0.025
N26390 G1 X7.3917 Y1.7191
N26400 G1 X7.4028 Y1.7197
N26410 G1 X7.4123 Y1.7209
N26420 G1 X7.4237 Y1.7234
N26430 G1 X7.4354 Y1.7269
N26440 G1 X7.4485 Y1.732
N26450 G1 X7.4631 Y1.739
N26460 G1 X7.478 Y1.7478
N26470 G1 X7.4949 Y1.7597
N26480 G1 X7.5119 Y1.7738
N26490 G1 X7.5304 Y1.7918
N26500 G1 X7.5501 Y1.8144
N26510 G1 X7.5702 Y1.8416
N26520 G1 X7.5898 Y1.873
N26530 G1 X7.6069 Y1.9058
N26540 G1 X7.6218 Y1.9396
N26550 G1 X7.6349 Y1.9743
N26560 G1 X7.6461 Y2.0095
N26570 G1 X7.6557 Y2.0452
N26580 G1 X7.6637 Y2.0814
N26590 G1 X7.6702 Y2.1178
N26600 G1 X7.6752 Y2.1545
N26610 G1 X7.6787 Y2.1913
N26620 G1 X7.6805 Y2.2283
N26630 G1 X7.6806 Y2.2653
N26640 G1 X7.6789 Y2.3022
N26650 G1 X7.675 Y2.339
N26660 G1 X7.6692 Y2.3726
N26670 G1 X7.6626 Y2.398
N26680 G1 X7.6556 Y2.4183
N26690 G1 X7.6484 Y2.4348
N26700 G1 X7.6413 Y2.4452
N26710 G1 X7.6321 Y2.4538
N26720 G1 X7.6214 Y2.4602
N26730 G1 X7.6095 Y2.4642
N26740 G1 X7.597 Y2.4656
N26750 G1 X7.5035
N26760 G3 X7.494 Y2.4633 R0.025
N26770 G3 X7.4797 Y2.4445 R0.025
N26780 G1 X7.3679 Y1.7481
N26790 G3 X7.3917 Y1.7191 R0.025
N26800 G1 X7.4926
N26810 G1 X7.5007 Y1.7195
N26820 G1 X7.5103 Y1.7208
N26830 G1 X7.5216 Y1.7232
N26840 G1 X7.5331 Y1.7266
N26850 G1 X7.5462 Y1.7317
N26860 G1 X7.5603 Y1.7386
N26870 G1 X7.5753 Y1.7474
N26880 G1 X7.5918 Y1.759
N26890 G1 X7.6087 Y1.773
N26900 G1 X7.6268 Y1.7906
N26910 G1 X7.6461 Y1.8128
N26920 G1 X7.6659 Y1.8394
N26930 G1 X7.6854 Y1.8708
N26940 G1 X7.7025 Y1.9037
N26950 G1 X7.7173 Y1.9376
N26960 G1 X7.7302 Y1.9723
N26970 G1 X7.7413 Y2.0076
N26980 G1 X7.7507 Y2.0434
N26990 G1 X7.7585 Y2.0795
N27000 G1 X7.7648 Y2.116
N27010 G1 X7.7697 Y2.1527
N27020 G1 X7.7729 Y2.1895
N27030 G1 X7.7747 Y2.2265
N27040 G1 Y2.2635
N27050 G1 X7.7728 Y2.3004
N27060 G1 X7.7689 Y2.3372
N27070 G1 X7.7628 Y2.3728
N27080 G1 X7.7563 Y2.3979
N27090 G1 X7.7496 Y2.4173
N27100 G1 X7.7438 Y2.4306
N27110 G1 X7.7383 Y2.4404
N27120 G1 X7.7311 Y2.449
N27130 G1 X7.7223 Y2.456
N27140 G1 X7.7123 Y2.4613
N27150 G1 X7.7015 Y2.4645
N27160 G1 X7.6904 Y2.4656
N27170 G1 X7.597
N27180 G3 X7.5731 Y2.4443 R0.025
N27190 G1 X7.4687 Y1.7478
N27200 G3 X7.4926 Y1.7191 R0.025
N27210 G1 X7.5851
N27220 G1 X7.5984 Y1.7197
N27230 G1 X7.6079 Y1.721
N27240 G1 X7.6191 Y1.7234
N27250 G1 X7.6304 Y1.7268
N27260 G1 X7.6436 Y1.7319
N27270 G1 X7.6573 Y1.7386
N27280 G1 X7.6723 Y1.7473
N27290 G1 X7.6884 Y1.7587
N27300 G1 X7.7053 Y1.7727
N27310 G1 X7.723 Y1.7899
N27320 G1 X7.742 Y1.8117
N27330 G1 X7.7614 Y1.838
N27340 G1 X7.781 Y1.8694
N27350 G1 X7.798 Y1.9022
N27360 G1 X7.8127 Y1.9362
N27370 G1 X7.8255 Y1.9709
N27380 G1 X7.8364 Y2.0062
N27390 G1 X7.8457 Y2.0421
N27400 G1 X7.8533 Y2.0783
N27410 G1 X7.8595 Y2.1148
N27420 G1 X7.8641 Y2.1515
N27430 G1 X7.8673 Y2.1883
N27440 G1 X7.8688 Y2.2253
N27450 G1 X7.8687 Y2.2623
N27460 G1 X7.8668 Y2.2993
N27470 G1 X7.8629 Y2.3361
N27480 G1 X7.8569 Y2.3707
N27490 G1 X7.8502 Y2.3969
N27500 G1 X7.8431 Y2.4175
N27510 G1 X7.8355 Y2.4348
N27520 G1 X7.8284 Y2.4451
N27530 G1 X7.8193 Y2.4538
N27540 G1 X7.8085 Y2.4602
N27550 G1 X7.7966 Y2.4642
N27560 G1 X7.7841 Y2.4656
N27570 G1 X7.6904
N27580 G3 X7.6665 Y2.4443 R0.025
N27590 G1 X7.5612 Y1.7478
N27600 G3 X7.5756 Y1.7213 R0.025
N27610 G3 X7.5851 Y1.7191 R0.025
N27620 G1 X7.6859
N27630 G1 X7.695 Y1.7195
N27640 G1 X7.7045 Y1.7208
N27650 G1 X7.7156 Y1.7231
N27660 G1 X7.7269 Y1.7265
N27670 G1 X7.74 Y1.7316
N27680 G1 X7.7536 Y1.7382
N27690 G1 X7.7685 Y1.747
N27700 G1 X7.7845 Y1.7582
N27710 G1 X7.8012 Y1.7721
N27720 G1 X7.8187 Y1.7891
N27730 G1 X7.8376 Y1.8107
N27740 G1 X7.8567 Y1.8366
N27750 G1 X7.8762 Y1.8679
N27760 G1 X7.8932 Y1.9007
N27770 G1 X7.9079 Y1.9347
N27780 G1 X7.9205 Y1.9695
N27790 G1 X7.9313 Y2.0049
N27800 G1 X7.9405 Y2.0407
N27810 G1 X7.948 Y2.0769
N27820 G1 X7.954 Y2.1134
N27830 G1 X7.9586 Y2.1502
N27840 G1 X7.9616 Y2.1871
N27850 G1 X7.9631 Y2.224
N27860 G1 X7.9629 Y2.261
N27870 G1 X7.9609 Y2.298
N27880 G1 X7.957 Y2.3348
N27890 G1 X7.9507 Y2.3712
N27900 G1 X7.9441 Y2.397
N27910 G1 X7.9373 Y2.4167
N27920 G1 X7.9294 Y2.4348
N27930 G1 X7.9223 Y2.4452
N27940 G1 X7.9131 Y2.4538
N27950 G1 X7.9023 Y2.4602
N27960 G1 X7.8904 Y2.4642
N27970 G1 X7.878 Y2.4656
N27980 G1 X7.7841
N27990 G3 X7.7746 Y2.4633 R0.025
N28000 G3 X7.7602 Y2.4441 R0.025
N28010 G1 X7.6621 Y1.7475
N28020 G3 X7.6859 Y1.7191 R0.025
N28030 G1 X7.7784 Y1.719
N28040 G1 X7.7916 Y1.7197
N28050 G1 X7.8011 Y1.7209
N28060 G1 X7.8121 Y1.7233
N28070 G1 X7.8233 Y1.7266
N28080 G1 X7.8364 Y1.7318
N28090 G1 X7.8497 Y1.7382
N28100 G1 X7.8647 Y1.747
N28110 G1 X7.8804 Y1.758
N28120 G1 X7.8971 Y1.7719
N28130 G1 X7.9143 Y1.7887
N28140 G1 X7.933 Y1.8101
N28150 G1 X7.9519 Y1.8357
N28160 G1 X7.9712 Y1.8666
N28170 G1 X7.9881 Y1.8995
N28180 G1 X8.0028 Y1.9335
N28190 G1 X8.0154 Y1.9682
N28200 G1 X8.0262 Y2.0036
N28210 G1 X8.0352 Y2.0395
N28220 G1 X8.0427 Y2.0758
N28230 G1 X8.0486 Y2.1123
N28240 G1 X8.053 Y2.149
N28250 G1 X8.0559 Y2.1859
N28260 G1 X8.0574 Y2.2229
N28270 G1 X8.0571 Y2.2599
N28280 G1 X8.0551 Y2.2968
N28290 G1 X8.0512 Y2.3336
N28300 G1 X8.0449 Y2.3701
N28310 G1 X8.0383 Y2.3961
N28320 G1 X8.0314 Y2.4161
N28330 G1 X8.0233 Y2.4347
N28340 G1 X8.0162 Y2.4451
N28350 G1 X8.0071 Y2.4537
N28360 G1 X7.9963 Y2.4602
N28370 G1 X7.9843 Y2.4642
N28380 G1 X7.9718 Y2.4656
N28390 G1 X7.878
N28400 G3 X7.8685 Y2.4633 R0.025
N28410 G3 X7.8541 Y2.4441 R0.025
N28420 G1 X7.7546 Y1.7476
N28430 G3 X7.7784 Y1.719 R0.025
N28440 G1 X7.8793
N28450 G1 X7.8874 Y1.7194
N28460 G1 X7.8969 Y1.7207
N28470 G1 X7.9078 Y1.723
N28480 G1 X7.919 Y1.7264
N28490 G1 X7.9321 Y1.7315
N28500 G1 X7.9453 Y1.7379
N28510 G1 X7.9603 Y1.7467
N28520 G1 X7.9758 Y1.7576
N28530 G1 X7.9926 Y1.7715
N28540 G1 X8.0096 Y1.7882
N28550 G1 X8.0282 Y1.8094
N28560 G1 X8.047 Y1.8349
N28570 G1 X8.066 Y1.8655
N28580 G1 X8.083 Y1.8984
N28590 G1 X8.0976 Y1.9324
N28600 G1 X8.1102 Y1.9672
N28610 G1 X8.1209 Y2.0026
N28620 G1 X8.1299 Y2.0385
N28630 G1 X8.1372 Y2.0747
N28640 G1 X8.1431 Y2.1113
N28650 G1 X8.1474 Y2.148
N28660 G1 X8.1503 Y2.1849
N28670 G1 X8.1516 Y2.2219
N28680 G1 X8.1514 Y2.2589
N28690 G1 X8.1493 Y2.2958
N28700 G1 X8.1454 Y2.3326
N28710 G1 X8.1391 Y2.3691
N28720 G1 X8.1325 Y2.3955
N28730 G1 X8.1256 Y2.4156
N28740 G1 X8.1173 Y2.4346
N28750 G1 X8.1102 Y2.445
N28760 G1 X8.1011 Y2.4537
N28770 G1 X8.0903 Y2.4602
N28780 G1 X8.0783 Y2.4642
N28790 G1 X8.0658 Y2.4656
N28800 G1 X7.9718
N28810 G3 X7.9623 Y2.4633 R0.025
N28820 G3 X7.9479 Y2.4439 R0.025
N28830 G1 X7.8554 Y1.7473
N28840 G3 X7.8793 Y1.719 R0.025
N28850 G1 X7.9718
N28860 G1 X7.9833 Y1.7196
N28870 G1 X7.9928 Y1.7209
N28880 G1 X8.0037 Y1.7232
N28890 G1 X8.0148 Y1.7265
N28900 G1 X8.0279 Y1.7316
N28910 G1 X8.041 Y1.738
N28920 G1 X8.0559 Y1.7468
N28930 G1 X8.0712 Y1.7575
N28940 G1 X8.088 Y1.7714
N28950 G1 X8.1049 Y1.7879
N28960 G1 X8.1232 Y1.809
N28970 G1 X8.142 Y1.8343
N28980 G1 X8.1609 Y1.8646
N28990 G1 X8.1778 Y1.8975
N29000 G1 X8.1924 Y1.9315
N29010 G1 X8.2049 Y1.9663
N29020 G1 X8.2156 Y2.0018
N29030 G1 X8.2245 Y2.0377
N29040 G1 X8.2318 Y2.074
N29050 G1 X8.2376 Y2.1105
N29060 G1 X8.2419 Y2.1473
N29070 G1 X8.2447 Y2.1842
N29080 G1 X8.246 Y2.2212
N29090 G1 X8.2456 Y2.2582
N29100 G1 X8.2436 Y2.2951
N29110 G1 X8.2396 Y2.3319
N29120 G1 X8.2334 Y2.3684
N29130 G1 X8.2267 Y2.395
N29140 G1 X8.2198 Y2.4153
N29150 G1 X8.2113 Y2.4346
N29160 G1 X8.2043 Y2.445
N29170 G1 X8.1951 Y2.4537
N29180 G1 X8.1843 Y2.4602
N29190 G1 X8.1723 Y2.4642
N29200 G1 X8.1598 Y2.4656
N29210 G1 X8.0658
N29220 G3 X8.0419 Y2.4439 R0.025
N29230 G1 X7.9479 Y1.7474
N29240 G3 X7.9718 Y1.719 R0.025
N29250 G1 X8.0727
N29260 G1 X8.0785 Y1.7193
N29270 G1 X8.088 Y1.7206
N29280 G1 X8.0988 Y1.7229
N29290 G1 X8.11 Y1.7262
N29300 G1 X8.1231 Y1.7313
N29310 G1 X8.1361 Y1.7377
N29320 G1 X8.151 Y1.7465
N29330 G1 X8.1663 Y1.7572
N29340 G1 X8.183 Y1.771
N29350 G1 X8.1998 Y1.7875
N29360 G1 X8.2181 Y1.8084
N29370 G1 X8.2368 Y1.8337
N29380 G1 X8.2555 Y1.8638
N29390 G1 X8.2725 Y1.8967
N29400 G1 X8.2871 Y1.9307
N29410 G1 X8.2996 Y1.9655
N29420 G1 X8.3102 Y2.001
N29430 G1 X8.3191 Y2.0369
N29440 G1 X8.3263 Y2.0732
N29450 G1 X8.332 Y2.1097
N29460 G1 X8.3363 Y2.1465
N29470 G1 X8.339 Y2.1834
N29480 G1 X8.3403 Y2.2204
N29490 G1 X8.3399 Y2.2574
N29500 G1 X8.3379 Y2.2943
N29510 G1 X8.3339 Y2.3311
N29520 G1 X8.3277 Y2.3676
N29530 G1 X8.3209 Y2.3945
N29540 G1 X8.314 Y2.415
N29550 G1 X8.3054 Y2.4345
N29560 G1 X8.2984 Y2.445
N29570 G1 X8.2892 Y2.4536
N29580 G1 X8.2784 Y2.4602
N29590 G1 X8.2664 Y2.4642
N29600 G1 X8.2539 Y2.4656
N29610 G1 X8.1598
N29620 G3 X8.1503 Y2.4633 R0.025
N29630 G3 X8.1359 Y2.4437 R0.025
N29640 G1 X8.0487 Y1.7471
N29650 G3 X8.0727 Y1.719 R0.025
N29660 G1 X8.1651 Y1.7191
N29670 G1 X8.174 Y1.7195
N29680 G1 X8.1835 Y1.7207
N29690 G1 X8.1942 Y1.723
N29700 G1 X8.2054 Y1.7264
N29710 G1 X8.2184 Y1.7315
N29720 G1 X8.2314 Y1.7377
N29730 G1 X8.2463 Y1.7465
N29740 G1 X8.2614 Y1.7571
N29750 G1 X8.2781 Y1.771
N29760 G1 X8.2948 Y1.7873
N29770 G1 X8.313 Y1.8082
N29780 G1 X8.3316 Y1.8333
N29790 G1 X8.3502 Y1.8633
N29800 G1 X8.3672 Y1.8961
N29810 G1 X8.3818 Y1.9302
N29820 G1 X8.3942 Y1.965
N29830 G1 X8.4048 Y2.0005
N29840 G1 X8.4136 Y2.0364
N29850 G1 X8.4208 Y2.0727
N29860 G1 X8.4265 Y2.1093
N29870 G1 X8.4307 Y2.146
N29880 G1 X8.4334 Y2.1829
N29890 G1 X8.4346 Y2.2199
N29900 G1 X8.4343 Y2.2569
N29910 G1 X8.4322 Y2.2938
N29920 G1 X8.4282 Y2.3306
N29930 G1 X8.4219 Y2.3671
N29940 G1 X8.4152 Y2.3942
N29950 G1 X8.4082 Y2.4148
N29960 G1 X8.3996 Y2.4345
N29970 G1 X8.3925 Y2.4449
N29980 G1 X8.3833 Y2.4536
N29990 G1 X8.3725 Y2.4601
N30000 G1 X8.3606 Y2.4642
N30010 G1 X8.348 Y2.4656
N30020 G1 X8.2539
N30030 G3 X8.23 Y2.4437 R0.025
N30040 G1 X8.1412 Y1.7472
N30050 G3 X8.1651 Y1.7191 R0.025
N30060 G1 X8.2576
N30070 G1 X8.2692 Y1.7196
N30080 G1 X8.2788 Y1.7209
N30090 G1 X8.2894 Y1.7232
N30100 G1 X8.3005 Y1.7265
N30110 G1 X8.3135 Y1.7316
N30120 G1 X8.3264 Y1.7378
N30130 G1 X8.3414 Y1.7466
N30140 G1 X8.3564 Y1.7572
N30150 G1 X8.3731 Y1.771
N30160 G1 X8.3897 Y1.7872
N30170 G1 X8.4078 Y1.808
N30180 G1 X8.4263 Y1.8331
N30190 G1 X8.4449 Y1.8629
N30200 G1 X8.4618 Y1.8958
N30210 G1 X8.4764 Y1.9298
N30220 G1 X8.4888 Y1.9646
N30230 G1 X8.4994 Y2.0001
N30240 G1 X8.5082 Y2.036
N30250 G1 X8.5153 Y2.0723
N30260 G1 X8.521 Y2.1089
N30270 G1 X8.5251 Y2.1457
N30280 G1 X8.5278 Y2.1826
N30290 G1 X8.529 Y2.2196
N30300 G1 X8.5286 Y2.2566
N30310 G1 X8.5265 Y2.2935
N30320 G1 X8.5225 Y2.3303
N30330 G1 X8.5162 Y2.3668
N30340 G1 X8.5094 Y2.3939
N30350 G1 X8.5024 Y2.4146
N30360 G1 X8.4937 Y2.4345
N30370 G1 X8.4867 Y2.4449
N30380 G1 X8.4775 Y2.4536
N30390 G1 X8.4667 Y2.4601
N30400 G1 X8.4547 Y2.4642
N30410 G1 X8.4422 Y2.4656
N30420 G1 X8.348
N30430 G3 X8.3385 Y2.4633 R0.025
N30440 G3 X8.3241 Y2.4438 R0.025
N30450 G1 X8.2337 Y1.7473
N30460 G3 X8.2576 Y1.7191 R0.025
N30470 G1 X8.3585
N30480 G1 X8.3639 Y1.7193
N30490 G1 X8.3735 Y1.7206
N30500 G1 X8.3841 Y1.7229
N30510 G1 X8.3952 Y1.7262
N30520 G1 X8.4082 Y1.7313
N30530 G1 X8.4212 Y1.7375
N30540 G1 X8.4361 Y1.7463
N30550 G1 X8.4511 Y1.7569
N30560 G1 X8.4678 Y1.7707
N30570 G1 X8.4843 Y1.7869
N30580 G1 X8.5024 Y1.8076
N30590 G1 X8.5209 Y1.8326
N30600 G1 X8.5394 Y1.8624
N30610 G1 X8.5564 Y1.8952
N30620 G1 X8.5709 Y1.9293
N30630 G1 X8.5834 Y1.9641
N30640 G1 X8.5939 Y1.9996
N30650 G1 X8.6027 Y2.0355
N30660 G1 X8.6098 Y2.0719
N30670 G1 X8.6154 Y2.1084
N30680 G1 X8.6195 Y2.1452
N30690 G1 X8.6222 Y2.1821
N30700 G1 X8.6234 Y2.2191
N30710 G1 X8.6229 Y2.2561
N30720 G1 X8.6208 Y2.293
N30730 G1 X8.6168 Y2.3298
N30740 G1 X8.6106 Y2.3663
N30750 G1 X8.6037 Y2.3936
N30760 G1 X8.5967 Y2.4144
N30770 G1 X8.588 Y2.4344
N30780 G1 X8.5809 Y2.4449
N30790 G1 X8.5717 Y2.4536
N30800 G1 X8.5609 Y2.4601
N30810 G1 X8.5489 Y2.4642
N30820 G1 X8.5364 Y2.4656
N30830 G1 X8.4422
N30840 G3 X8.4327 Y2.4633 R0.025
N30850 G3 X8.4182 Y2.4435 R0.025
N30860 G1 X8.3345 Y1.747
N30870 G3 X8.3585 Y1.7191 R0.025
N30880 G1 X8.451
N30890 G1 X8.459 Y1.7195
N30900 G1 X8.4685 Y1.7207
N30910 G1 X8.4791 Y1.723
N30920 G1 X8.4902 Y1.7263
N30930 G1 X8.5032 Y1.7314
N30940 G1 X8.5161 Y1.7376
N30950 G1 X8.531 Y1.7464
N30960 G1 X8.5459 Y1.7569
N30970 G1 X8.5626 Y1.7707
N30980 G1 X8.5791 Y1.7868
N30990 G1 X8.5971 Y1.8075
N31000 G1 X8.6156 Y1.8325
N31010 G1 X8.634 Y1.8621
N31020 G1 X8.651 Y1.895
N31030 G1 X8.6655 Y1.929
N31040 G1 X8.6779 Y1.9638
N31050 G1 X8.6884 Y1.9993
N31060 G1 X8.6972 Y2.0353
N31070 G1 X8.7043 Y2.0716
N31080 G1 X8.7099 Y2.1082
N31090 G1 X8.714 Y2.1449
N31100 G1 X8.7166 Y2.1819
N31110 G1 X8.7177 Y2.2188
N31120 G1 X8.7173 Y2.2558
N31130 G1 X8.7151 Y2.2928
N31140 G1 X8.7111 Y2.3296
N31150 G1 X8.7049 Y2.366
N31160 G1 X8.698 Y2.3935
N31170 G1 X8.691 Y2.4143
N31180 G1 X8.6822 Y2.4344
N31190 G1 X8.6751 Y2.4449
N31200 G1 X8.666 Y2.4536
N31210 G1 X8.6551 Y2.4601
N31220 G1 X8.6432 Y2.4642
N31230 G1 X8.6306 Y2.4656
N31240 G1 X8.5364
N31250 G3 X8.5124 Y2.4436 R0.025
N31260 G1 X8.427 Y1.7471
N31270 G3 X8.451 Y1.7191 R0.025
N31280 G1 X8.5434
N31290 G1 X8.5539 Y1.7196
N31300 G1 X8.5634 Y1.7209
N31310 G1 X8.574 Y1.7231
N31320 G1 X8.5851 Y1.7264
N31330 G1 X8.598 Y1.7315
N31340 G1 X8.6109 Y1.7377
N31350 G1 X8.6258 Y1.7465
N31360 G1 X8.6406 Y1.7569
N31370 G1 X8.6573 Y1.7708
N31380 G1 X8.6738 Y1.7868
N31390 G1 X8.6917 Y1.8074
N31400 G1 X8.7102 Y1.8323
N31410 G1 X8.7286 Y1.8619
N31420 G1 X8.7455 Y1.8948
N31430 G1 X8.7601 Y1.9288
N31440 G1 X8.7725 Y1.9637
N31450 G1 X8.7829 Y1.9991
N31460 G1 X8.7917 Y2.0351
N31470 G1 X8.7987 Y2.0714
N31480 G1 X8.8043 Y2.108
N31490 G1 X8.8084 Y2.1448
N31500 G1 X8.811 Y2.1817
N31510 G1 X8.8121 Y2.2187
N31520 G1 X8.8116 Y2.2557
N31530 G1 X8.8095 Y2.2926
N31540 G1 X8.8054 Y2.3294
N31550 G1 X8.7992 Y2.3659
N31560 G1 X8.7923 Y2.3934
N31570 G1 X8.7853 Y2.4143
N31580 G1 X8.7765 Y2.4344
N31590 G1 X8.7694 Y2.4449
N31600 G1 X8.7602 Y2.4536
N31610 G1 X8.7494 Y2.4601
N31620 G1 X8.7374 Y2.4642
N31630 G1 X8.7249 Y2.4656
N31640 G1 X8.6306
N31650 G3 X8.6211 Y2.4633 R0.025
N31660 G3 X8.6067 Y2.4437 R0.025
N31670 G1 X8.5195 Y1.7472
N31680 G3 X8.5434 Y1.7191 R0.025
N31690 G1 X8.6359
N31700 G1 X8.6487 Y1.7197
N31710 G1 X8.6582 Y1.721
N31720 G1 X8.6687 Y1.7232
N31730 G1 X8.6799 Y1.7266
N31740 G1 X8.6928 Y1.7316
N31750 G1 X8.7056 Y1.7378
N31760 G1 X8.7205 Y1.7466
N31770 G1 X8.7353 Y1.757
N31780 G1 X8.752 Y1.7709
N31790 G1 X8.7684 Y1.7868
N31800 G1 X8.7863 Y1.8074
N31810 G1 X8.8048 Y1.8323
N31820 G1 X8.8231 Y1.8618
N31830 G1 X8.84 Y1.8946
N31840 G1 X8.8546 Y1.9287
N31850 G1 X8.867 Y1.9635
N31860 G1 X8.8774 Y1.999
N31870 G1 X8.8861 Y2.035
N31880 G1 X8.8932 Y2.0713
N31890 G1 X8.8987 Y2.1079
N31900 G1 X8.9028 Y2.1447
N31910 G1 X8.9054 Y2.1816
N31920 G1 X8.9065 Y2.2186
N31930 G1 X8.906 Y2.2556
N31940 G1 X8.9038 Y2.2925
N31950 G1 X8.8998 Y2.3293
N31960 G1 X8.8935 Y2.3658
N31970 G1 X8.8867 Y2.3933
N31980 G1 X8.8796 Y2.4142
N31990 G1 X8.8707 Y2.4344
N32000 G1 X8.8637 Y2.4449
N32010 G1 X8.8545 Y2.4536
N32020 G1 X8.8437 Y2.4601
N32030 G1 X8.8317 Y2.4642
N32040 G1 X8.8192 Y2.4656
N32050 G1 X8.7249
N32060 G3 X8.7009 Y2.4437 R0.025
N32070 G1 X8.612 Y1.7472
N32080 G3 X8.6359 Y1.7191 R0.025
N32090 G1 X8.7368
N32100 G1 X8.743 Y1.7194
N32110 G1 X8.7526 Y1.7207
N32120 G1 X8.7631 Y1.7229
N32130 G1 X8.7742 Y1.7262
N32140 G1 X8.7872 Y1.7313
N32150 G1 X8.8 Y1.7375
N32160 G1 X8.815 Y1.7463
N32170 G1 X8.8298 Y1.7567
N32180 G1 X8.8465 Y1.7706
N32190 G1 X8.8629 Y1.7866
N32200 G1 X8.8808 Y1.8072
N32210 G1 X8.8992 Y1.832
N32220 G1 X8.9175 Y1.8615
N32230 G1 X8.9345 Y1.8943
N32240 G1 X8.949 Y1.9284
N32250 G1 X8.9614 Y1.9632
N32260 G1 X8.9719 Y1.9987
N32270 G1 X8.9806 Y2.0347
N32280 G1 X8.9876 Y2.071
N32290 G1 X8.9932 Y2.1076
N32300 G1 X8.9972 Y2.1444
N32310 G1 X8.9998 Y2.1813
N32320 G1 X9.0009 Y2.2183
N32330 G1 X9.0004 Y2.2553
N32340 G1 X8.9982 Y2.2922
N32350 G1 X8.9941 Y2.329
N32360 G1 X8.9879 Y2.3655
N32370 G1 X8.981 Y2.3931
N32380 G1 X8.974 Y2.4141
N32390 G1 X8.9692 Y2.4253
N32400 G1 X8.9633 Y2.4359
N32410 G1 X8.9553 Y2.445
N32420 G1 X8.9455 Y2.4523
N32430 G1 X8.9345 Y2.4575
N32440 G1 X8.9301 Y2.459
N32450 G1 X8.9133 Y2.4621
N32460 G1 X8.8965 Y2.4648
N32470 G1 X8.8545 Y2.4656
N32480 G1 X8.8192
N32490 G3 X8.8097 Y2.4633 R0.025
N32500 G3 X8.7952 Y2.4435 R0.025
N32510 G1 X8.7128 Y1.747
N32520 G3 X8.7368 Y1.7191 R0.025
N32530 G1 X8.7788
N32540 G1 X8.804 Y1.7168
N32550 G1 X8.8066 Y1.7162
N32560 G1 X8.8119 Y1.7152
N32570 G1 X8.8187 Y1.7145
N32580 G1 X8.827 Y1.7144
N32590 G1 X8.8358 Y1.715
N32600 G1 X8.8457 Y1.7165
N32610 G1 X8.8569 Y1.7191
N32620 G1 X8.8684 Y1.7228
N32630 G1 X8.8819 Y1.7284
N32640 G1 X8.8953 Y1.7352
N32650 G1 X8.9108 Y1.7447
N32660 G1 X8.926 Y1.7558
N32670 G1 X8.9433 Y1.7707
N32680 G1 X8.9601 Y1.7876
N32690 G1 X8.9783 Y1.8093
N32700 G1 X8.9971 Y1.8357
N32710 G1 X9.0159 Y1.8673
N32720 G1 X9.0323 Y1.9005
N32730 G1 X9.0463 Y1.9347
N32740 G1 X9.0582 Y1.9697
N32750 G1 X9.0683 Y2.0054
N32760 G1 X9.0766 Y2.0414
N32770 G1 X9.0791 Y2.0556
N32780 G1 X9.0795 Y2.0627
N32790 G1 X9.0794 Y2.2603
N32800 G1 X9.079 Y2.2771
N32810 G1 X9.0783 Y2.2855
N32820 G1 X9.0742 Y2.3107
N32830 G1 X9.0731 Y2.3158
N32840 G1 X9.0633 Y2.3443
N32850 G1 X9.0551 Y2.3611
N32860 G1 X9.045 Y2.3779
N32870 G1 X9.0247 Y2.4031
N32880 G1 X9.0142 Y2.4131
N32890 G1 X8.9954 Y2.4283
N32900 G1 X8.989 Y2.4328
N32910 G1 X8.9722 Y2.4428
N32920 G1 X8.9638 Y2.4468
N32930 G1 X8.9554 Y2.4503
N32940 G1 X8.9345 Y2.4575
N32950 G3 X8.9026 Y2.4376 R0.025
N32960 G1 X8.7886 Y1.7443
N32970 G3 X8.8066 Y1.7162 R0.025
N32980 G1 X8.8293 Y1.7102
N32990 G1 X8.8393 Y1.7061
N33000 G1 X8.8507 Y1.7002
N33010 G1 X8.8571 Y1.6971
N33020 G1 X8.8626 Y1.695
N33030 G1 X8.8692 Y1.693
N33040 G1 X8.8763 Y1.6915
N33050 G1 X8.8847 Y1.6904
N33060 G1 X8.8936 Y1.69
N33070 G1 X8.9041 Y1.6903
N33080 G1 X8.9149 Y1.6916
N33090 G1 X8.9274 Y1.694
N33100 G1 X8.9401 Y1.6976
N33110 G1 X8.9548 Y1.703
N33120 G1 X8.9694 Y1.7098
N33130 G1 X8.9862 Y1.7193
N33140 G1 X9.0026 Y1.7304
N33150 G1 X9.0214 Y1.7454
N33160 G1 X9.0395 Y1.7625
N33170 G1 X9.0588 Y1.7838
N33180 G1 X9.0787 Y1.8098
N33190 G1 X9.0859 Y1.8209
N33200 G1 X9.0903 Y1.8298
N33210 G1 X9.0925 Y1.8394
N33220 G1 Y1.8493
N33230 G1 X9.0903 Y1.859
N33240 G1 X9.0858 Y1.8678
N33250 G1 X9.0795 Y1.8755
N33260 G1 Y2.0627
N33270 G3 X9.0773 Y2.0721 R0.025
N33280 G3 X9.0327 Y2.074 R0.025
N33290 G1 X8.8416 Y1.7339
N33300 G3 X8.8434 Y1.7067 R0.025
N33310 G3 X8.8507 Y1.7002 R0.025
N33320 G1 X8.8552 Y1.6977
N33330 G1 X8.8674 Y1.6893
N33340 G1 X8.8776 Y1.6809
N33350 G1 X8.8831 Y1.6753
N33360 G1 X8.8874 Y1.6713
N33370 G1 X8.8916 Y1.6679
N33380 G1 X8.8963 Y1.6648
N33390 G1 X8.9021 Y1.6615
N33400 G1 X8.9084 Y1.6586
N33410 G1 X8.9161 Y1.6558
N33420 G1 X8.9242 Y1.6536
N33430 G1 X8.9338 Y1.6517
N33440 G1 X8.9439 Y1.6506
N33450 G1 X8.9556 Y1.6503
N33460 G1 X8.9678 Y1.6509
N33470 G1 X8.9818 Y1.6528
N33480 G1 X8.9962 Y1.6559
N33490 G1 X9.0121 Y1.6607
N33500 G1 X9.0291 Y1.6673
N33510 G1 X9.0466 Y1.6758
N33520 G1 X9.0662 Y1.6874
N33530 G1 X9.0847 Y1.7005
N33540 G1 X9.1006 Y1.7137
N33550 G1 X9.1129 Y1.7257
N33560 G1 X9.1234 Y1.7379
N33570 G1 X9.1317 Y1.7491
N33580 G1 X9.139 Y1.7608
N33590 G1 X9.1447 Y1.7718
N33600 G1 X9.1493 Y1.783
N33610 G1 X9.1529 Y1.7939
N33620 G1 X9.155 Y1.8032
N33630 G1 X9.1566 Y1.8162
N33640 G1 X9.1553 Y1.8293
N33650 G1 X9.151 Y1.8417
N33660 G1 X9.1441 Y1.8528
N33670 G1 X9.1348 Y1.8621
N33680 G1 X9.1237 Y1.8692
N33690 G1 X9.1113 Y1.8735
N33700 G1 X9.0983 Y1.875
N33710 G3 X9.089 Y1.8722 R0.0188
N33720 G3 X9.0869 Y1.8707 R0.0188
N33730 G1 X8.885 Y1.7023
N33740 G3 X8.8786 Y1.6839 R0.0188
N33750 G3 X8.8831 Y1.6753 R0.0188
N33760 G1 X8.8931 Y1.6641
N33770 G1 X8.8992 Y1.6557
N33780 G1 X8.9073 Y1.6423
N33790 G1 X8.9101 Y1.6377
N33800 G1 X8.9134 Y1.6334
N33810 G1 X8.9172 Y1.6294
N33820 G1 X8.9219 Y1.625
N33830 G1 X8.9272 Y1.6208
N33840 G1 X8.9337 Y1.6165
N33850 G1 X8.9408 Y1.6125
N33860 G1 X8.9493 Y1.6087
N33870 G1 X8.9584 Y1.6054
N33880 G1 X8.9689 Y1.6025
N33890 G1 X8.9805 Y1.6004
N33900 G1 X8.9931 Y1.599
N33910 G1 X9.0073 Y1.5987
N33920 G1 X9.0221 Y1.5995
N33930 G1 X9.0388 Y1.6018
N33940 G1 X9.0559 Y1.6055
N33950 G1 X9.0735 Y1.6109
N33960 G1 X9.0915 Y1.618
N33970 G1 X9.1092 Y1.6268
N33980 G1 X9.1263 Y1.637
N33990 G1 X9.1425 Y1.6485
N34000 G1 X9.1576 Y1.6611
N34010 G1 X9.1715 Y1.6748
N34020 G1 X9.184 Y1.6893
N34030 G1 X9.1945 Y1.7037
N34040 G1 X9.2038 Y1.7188
N34050 G1 X9.2105 Y1.732
N34060 G1 X9.2164 Y1.7462
N34070 G1 X9.2204 Y1.7588
N34080 G1 X9.2235 Y1.7721
N34090 G1 X9.2254 Y1.7845
N34100 G1 X9.2262 Y1.7967
N34110 G1 X9.2261 Y1.809
N34120 G1 X9.2251 Y1.82
N34130 G1 X9.2239 Y1.8266
N34140 G1 X9.2208 Y1.8379
N34150 G1 X9.2155 Y1.8482
N34160 G1 X9.2083 Y1.8573
N34170 G1 X9.1994 Y1.8648
N34180 G1 X9.1891 Y1.8704
N34190 G1 X9.178 Y1.8738
N34200 G1 X9.1664 Y1.875
N34210 G3 X9.1514 Y1.8693 R0.025
N34220 G1 X8.9136 Y1.673
N34230 G3 X8.9073 Y1.6423 R0.025
N34240 G1 X8.9092 Y1.6389
N34250 G1 X8.9133 Y1.6295
N34260 G1 X8.9183 Y1.6137
N34270 G1 X8.9208 Y1.6053
N34280 G1 X8.9226 Y1.6002
N34290 G1 X8.9249 Y1.5953
N34300 G1 X8.9277 Y1.5903
N34310 G1 X8.9349 Y1.5816
N34320 G1 X8.9437 Y1.5745
N34330 G1 X8.9538 Y1.5692
N34340 G1 X8.9646 Y1.566
N34350 G1 X8.9759 Y1.5649
N34360 G3 X8.9856 Y1.5661 R0.054
N34370 G3 X9.0108 Y1.6583 R0.054
N34380 G3 X8.9193 Y1.615 R0.0545
N34390 G3 X8.9208 Y1.6053 R0.0545
N34400 G1 X8.9217 Y1.6021
N34410 G1 X8.9245 Y1.5843
N34420 G1 X8.926 Y1.5801
N34430 G1 X8.9277 Y1.5769
N34440 G1 X8.9301 Y1.5737
N34450 G1 X8.9354 Y1.5692
N34460 G1 X8.9407 Y1.5665
N34470 G1 X8.947 Y1.565
N34480 G1 X9.0899 Y1.5649
N34490 G1 X9.1029 Y1.5655
N34500 G1 X9.1165 Y1.5673
N34510 G1 X9.1303 Y1.5702
N34520 G1 X9.1453 Y1.5747
N34530 G1 X9.1609 Y1.5808
N34540 G1 X9.1765 Y1.5884
N34550 G1 X9.1921 Y1.5976
N34560 G1 X9.2078 Y1.6086
N34570 G1 X9.2227 Y1.621
N34580 G1 X9.2369 Y1.6348
N34590 G1 X9.2498 Y1.6497
N34600 G1 X9.2616 Y1.6656
N34610 G1 X9.272 Y1.6822
N34620 G1 X9.2809 Y1.6994
N34630 G1 X9.2883 Y1.7172
N34640 G1 X9.2941 Y1.7352
N34650 G1 X9.2982 Y1.7521
N34660 G1 X9.3008 Y1.7687
N34670 G1 X9.3019 Y1.7836
N34680 G1 X9.3018 Y1.7981
N34690 G1 X9.3007 Y1.8115
N34700 G1 X9.2985 Y1.8245
N34710 G1 X9.2969 Y1.8309
N34720 G1 X9.2924 Y1.843
N34730 G1 X9.2854 Y1.8537
N34740 G1 X9.2762 Y1.8627
N34750 G1 X9.2652 Y1.8694
N34760 G1 X9.2531 Y1.8736
N34770 G1 X9.2403 Y1.875
N34780 G1 X9.2076
N34790 G3 X9.1981 Y1.8728 R0.025
N34800 G3 X9.1857 Y1.8603 R0.025
N34810 G1 X9.068 Y1.6001
N34820 G3 X9.0899 Y1.5649 R0.025
N34830 G1 X9.1992
N34840 G1 X9.2098 Y1.5654
N34850 G1 X9.2193 Y1.5666
N34860 G1 X9.2293 Y1.5688
N34870 G1 X9.2404 Y1.5721
N34880 G1 X9.2515 Y1.5764
N34890 G1 X9.2638 Y1.5824
N34900 G1 X9.276 Y1.5896
N34910 G1 X9.2885 Y1.5984
N34920 G1 X9.3014 Y1.6091
N34930 G1 X9.3138 Y1.6212
N34940 G1 X9.3257 Y1.6348
N34950 G1 X9.337 Y1.6501
N34960 G1 X9.3474 Y1.6668
N34970 G1 X9.3566 Y1.6845
N34980 G1 X9.3643 Y1.7031
N34990 G1 X9.3706 Y1.7221
N35000 G1 X9.3752 Y1.7415
N35010 G1 X9.378 Y1.7595
N35020 G1 X9.3793 Y1.7773
N35030 G1 Y1.7924
N35040 G1 X9.3779 Y1.8077
N35050 G1 X9.3757 Y1.8209
N35060 G1 X9.372 Y1.8354
N35070 G1 X9.3669 Y1.8464
N35080 G1 X9.3597 Y1.8561
N35090 G1 X9.3507 Y1.8641
N35100 G1 X9.3402 Y1.8701
N35110 G1 X9.3287 Y1.8738
N35120 G1 X9.3167 Y1.875
N35130 G1 X9.2403
N35140 G3 X9.2308 Y1.8728 R0.025
N35150 G3 X9.2165 Y1.8539 R0.025
N35160 G1 X9.1753 Y1.5937
N35170 G3 X9.1897 Y1.5671 R0.025
N35180 G3 X9.1992 Y1.5649 R0.025
N35190 G1 X9.2916
N35200 G1 X9.2983 Y1.5652
N35210 G1 X9.3064 Y1.5662
N35220 G1 X9.3156 Y1.5682
N35230 G1 X9.325 Y1.571
N35240 G1 X9.3356 Y1.5752
N35250 G1 X9.3462 Y1.5803
N35260 G1 X9.3576 Y1.587
N35270 G1 X9.3691 Y1.5951
N35280 G1 X9.3807 Y1.6047
N35290 G1 X9.3926 Y1.6163
N35300 G1 X9.4039 Y1.6293
N35310 G1 X9.4147 Y1.6439
N35320 G1 X9.4248 Y1.6602
N35330 G1 X9.434 Y1.678
N35340 G1 X9.4418 Y1.6966
N35350 G1 X9.4482 Y1.7161
N35360 G1 X9.4529 Y1.7359
N35370 G1 X9.4561 Y1.7559
N35380 G1 X9.4574 Y1.7734
N35390 G1 X9.4573 Y1.7905
N35400 G1 X9.456 Y1.8053
N35410 G1 X9.4535 Y1.8198
N35420 G1 X9.4494 Y1.8354
N35430 G1 X9.4443 Y1.8464
N35440 G1 X9.4372 Y1.8561
N35450 G1 X9.4281 Y1.8641
N35460 G1 X9.4176 Y1.8701
N35470 G1 X9.4062 Y1.8738
N35480 G1 X9.3941 Y1.875
N35490 G1 X9.3167
N35500 G3 X9.3072 Y1.8728 R0.025
N35510 G3 X9.2927 Y1.8524 R0.025
N35520 G1 X9.2676 Y1.5922
N35530 G3 X9.2916 Y1.5649 R0.025
N35540 G1 X9.3757
N35550 G1 X9.3811 Y1.5651
N35560 G1 X9.3891 Y1.5662
N35570 G1 X9.3977 Y1.5681
N35580 G1 X9.407 Y1.5709
N35590 G1 X9.4168 Y1.5748
N35600 G1 X9.4274 Y1.58
N35610 G1 X9.438 Y1.5863
N35620 G1 X9.4494 Y1.5944
N35630 G1 X9.4604 Y1.6037
N35640 G1 X9.4718 Y1.6149
N35650 G1 X9.4831 Y1.628
N35660 G1 X9.4936 Y1.6423
N35670 G1 X9.5035 Y1.6585
N35680 G1 X9.5125 Y1.6761
N35690 G1 X9.5203 Y1.695
N35700 G1 X9.5266 Y1.7146
N35710 G1 X9.5313 Y1.7347
N35720 G1 X9.5344 Y1.7549
N35730 G1 X9.5356 Y1.7728
N35740 G1 X9.5354 Y1.7902
N35750 G1 X9.5341 Y1.8052
N35760 G1 X9.5315 Y1.8199
N35770 G1 X9.5272 Y1.8357
N35780 G1 X9.5222 Y1.8466
N35790 G1 X9.515 Y1.8562
N35800 G1 X9.506 Y1.8642
N35810 G1 X9.4955 Y1.8701
N35820 G1 X9.484 Y1.8738
N35830 G1 X9.4721 Y1.875
N35840 G1 X9.3941
N35850 G3 X9.3701 Y1.8518 R0.025
N35860 G1 X9.3516 Y1.5916
N35870 G3 X9.3662 Y1.5671 R0.025
N35880 G3 X9.3757 Y1.5649 R0.025
N35890 G1 X9.4514
N35900 G1 X9.461 Y1.5653
N35910 G1 X9.4688 Y1.5664
N35920 G1 X9.4771 Y1.5681
N35930 G1 X9.4862 Y1.5709
N35940 G1 X9.4958 Y1.5746
N35950 G1 X9.5061 Y1.5796
N35960 G1 X9.5165 Y1.5857
N35970 G1 X9.5277 Y1.5936
N35980 G1 X9.5385 Y1.6026
N35990 G1 X9.5497 Y1.6135
N36000 G1 X9.5609 Y1.6263
N36010 G1 X9.5713 Y1.6403
N36020 G1 X9.5812 Y1.6563
N36030 G1 X9.5903 Y1.6739
N36040 G1 X9.5982 Y1.6927
N36050 G1 X9.6045 Y1.7123
N36060 G1 X9.6094 Y1.7324
N36070 G1 X9.6125 Y1.7527
N36080 G1 X9.6139 Y1.7709
N36090 G1 X9.6138 Y1.7886
N36100 G1 X9.6125 Y1.8038
N36110 G1 X9.61 Y1.8188
N36120 G1 X9.6067 Y1.8318
N36130 G1 X9.6055 Y1.8354
N36140 G1 X9.6004 Y1.8464
N36150 G1 X9.5932 Y1.8561
N36160 G1 X9.5842 Y1.8641
N36170 G1 X9.5737 Y1.8701
N36180 G1 X9.5622 Y1.8738
N36190 G1 X9.5502 Y1.875
N36200 G1 X9.4721
N36210 G3 X9.448 Y1.852 R0.025
N36220 G1 X9.4273 Y1.5918
N36230 G3 X9.4514 Y1.5649 R0.025
N36240 G1 X9.5354
N36250 G1 X9.5408 Y1.5651
N36260 G1 X9.5488 Y1.5663
N36270 G1 X9.557 Y1.5681
N36280 G1 X9.5664 Y1.571
N36290 G1 X9.5758 Y1.5748
N36300 G1 X9.5862 Y1.58
N36310 G1 X9.5965 Y1.5863
N36320 G1 X9.6076 Y1.5942
N36330 G1 X9.6187 Y1.6036
N36340 G1 X9.6296 Y1.6145
N36350 G1 X9.6407 Y1.6276
N36360 G1 X9.6512 Y1.642
N36370 G1 X9.6609 Y1.658
N36380 G1 X9.6697 Y1.6756
N36390 G1 X9.6774 Y1.6946
N36400 G1 X9.6836 Y1.7142
N36410 G1 X9.6882 Y1.7345
N36420 G1 X9.6911 Y1.7549
N36430 G1 X9.6923 Y1.7731
N36440 G1 X9.692 Y1.7906
N36450 G1 X9.6905 Y1.8058
N36460 G1 X9.6879 Y1.8205
N36470 G1 X9.6836 Y1.836
N36480 G1 X9.6784 Y1.8468
N36490 G1 X9.6712 Y1.8564
N36500 G1 X9.6622 Y1.8643
N36510 G1 X9.6518 Y1.8701
N36520 G1 X9.6404 Y1.8738
N36530 G1 X9.6285 Y1.875
N36540 G1 X9.5502
N36550 G3 X9.5407 Y1.8728 R0.025
N36560 G3 X9.5261 Y1.8514 R0.025
N36570 G1 X9.5113 Y1.5913
N36580 G3 X9.5259 Y1.5671 R0.025
N36590 G3 X9.5354 Y1.5649 R0.025
N36600 G1 X9.6111
N36610 G1 X9.6188 Y1.5652
N36620 G1 X9.6265 Y1.5662
N36630 G1 X9.6348 Y1.568
N36640 G1 X9.6438 Y1.5707
N36650 G1 X9.6532 Y1.5744
N36660 G1 X9.6634 Y1.5793
N36670 G1 X9.6737 Y1.5854
N36680 G1 X9.6848 Y1.5932
N36690 G1 X9.6955 Y1.6021
N36700 G1 X9.7066 Y1.6129
N36710 G1 X9.7176 Y1.6256
N36720 G1 X9.7279 Y1.6395
N36730 G1 X9.7379 Y1.6555
N36740 G1 X9.7469 Y1.673
N36750 G1 X9.7548 Y1.6919
N36760 G1 X9.7612 Y1.7114
N36770 G1 X9.766 Y1.7316
N36780 G1 X9.7692 Y1.752
N36790 G1 X9.7706 Y1.7704
N36800 G1 X9.7705 Y1.7882
N36810 G1 X9.7692 Y1.8034
N36820 G1 X9.7666 Y1.8186
N36830 G1 X9.7634 Y1.8316
N36840 G1 X9.7621 Y1.8354
N36850 G1 X9.757 Y1.8464
N36860 G1 X9.7498 Y1.8561
N36870 G1 X9.7408 Y1.8641
N36880 G1 X9.7303 Y1.8701
N36890 G1 X9.7188 Y1.8738
N36900 G1 X9.7068 Y1.875
N36910 G1 X9.6285
N36920 G3 X9.6045 Y1.8517 R0.025
N36930 G1 X9.587 Y1.5915
N36940 G3 X9.6111 Y1.5649 R0.025
N36950 G1 X9.6867
N36960 G1 X9.6974 Y1.5654
N36970 G1 X9.7052 Y1.5664
N36980 G1 X9.7132 Y1.5681
N36990 G1 X9.7224 Y1.5709
N37000 G1 X9.7316 Y1.5745
N37010 G1 X9.7419 Y1.5795
N37020 G1 X9.7521 Y1.5855
N37030 G1 X9.7631 Y1.5932
N37040 G1 X9.774 Y1.6022
N37050 G1 X9.785 Y1.6129
N37060 G1 X9.7961 Y1.6257
N37070 G1 X9.8064 Y1.6397
N37080 G1 X9.8163 Y1.6554
N37090 G1 X9.8253 Y1.6729
N37100 G1 X9.8331 Y1.6917
N37110 G1 X9.8395 Y1.7113
N37120 G1 X9.8444 Y1.7315
N37130 G1 X9.8475 Y1.7519
N37140 G1 X9.8489 Y1.7703
N37150 G1 X9.8488 Y1.7882
N37160 G1 X9.8475 Y1.8034
N37170 G1 X9.845 Y1.8185
N37180 G1 X9.8417 Y1.8316
N37190 G1 X9.8404 Y1.8354
N37200 G1 X9.8353 Y1.8464
N37210 G1 X9.8281 Y1.8561
N37220 G1 X9.8191 Y1.8641
N37230 G1 X9.8086 Y1.8701
N37240 G1 X9.7971 Y1.8738
N37250 G1 X9.7851 Y1.875
N37260 G1 X9.7068
N37270 G3 X9.6973 Y1.8728 R0.025
N37280 G3 X9.6828 Y1.8519 R0.025
N37290 G1 X9.6627 Y1.5918
N37300 G3 X9.6867 Y1.5649 R0.025
N37310 G1 X9.7708
N37320 G1 X9.7816 Y1.5655
N37330 G1 X9.7923 Y1.5671
N37340 G1 X9.8027 Y1.5698
N37350 G1 X9.8129 Y1.5735
N37360 G1 X9.8227 Y1.5781
N37370 G1 X9.8321 Y1.5833
N37380 G1 X9.8455 Y1.5924
N37390 G1 X9.8579 Y1.6028
N37400 G1 X9.8694 Y1.6142
N37410 G1 X9.88 Y1.6265
N37420 G1 X9.8895 Y1.6396
N37430 G1 X9.8981 Y1.6533
N37440 G1 X9.9058 Y1.6676
N37450 G1 X9.9125 Y1.6823
N37460 G1 X9.9182 Y1.6975
N37470 G1 X9.923 Y1.7129
N37480 G1 X9.9268 Y1.7287
N37490 G1 X9.9296 Y1.7446
N37500 G1 X9.9314 Y1.7607
N37510 G1 X9.9321 Y1.7769
N37520 G1 X9.9317 Y1.7931
N37530 G1 X9.93 Y1.8092
N37540 G1 X9.9269 Y1.8251
N37550 G1 X9.9248 Y1.833
N37560 G1 X9.92 Y1.8445
N37570 G1 X9.9129 Y1.8548
N37580 G1 X9.9038 Y1.8633
N37590 G1 X9.8931 Y1.8697
N37600 G1 X9.8812 Y1.8737
N37610 G1 X9.8688 Y1.875
N37620 G1 X9.7851
N37630 G3 X9.761 Y1.8514 R0.025
N37640 G1 X9.7467 Y1.5912
N37650 G3 X9.7708 Y1.5649 R0.025
N37660 G1 X9.8465 Y1.5647
N37670 G1 X9.8479 Y1.5645
N37680 G1 X9.8533 Y1.5642
N37690 G1 X9.8604 Y1.5647
N37700 G1 X9.8682 Y1.5659
N37710 G1 X9.8772 Y1.568
N37720 G1 X9.8865 Y1.5687
N37730 G1 X9.8957 Y1.5679
N37740 G1 X9.9047 Y1.5657
N37750 G1 X9.9217 Y1.5584
N37760 G1 X9.95 Y1.5345
N37770 G1 X9.971 Y1.5041
N37780 G1 X9.9864 Y1.4705
N37790 G1 X9.9975 Y1.4352
N37800 G1 X10.0054 Y1.399
N37810 G1 X10.011 Y1.3624
N37820 G1 X10.0149 Y1.3256
N37830 G1 X10.0177 Y1.2887
N37840 G1 X10.0197 Y1.2518
N37850 G1 X10.0211 Y1.2148
N37860 G1 X10.0227 Y1.1408
N37870 G1 X10.0238 Y1.0298
N37880 G1 X10.0244 Y0.6592
N37890 G1 X10.0257 Y0.6493
N37900 G1 X10.0295 Y0.64
N37910 G1 X10.0355 Y0.632
N37920 G1 X10.0434 Y0.6259
N37930 G1 X10.0525 Y0.6219
N37940 G1 X10.0624 Y0.6204
N37950 G1 X10.0724 Y0.6216
N37960 G1 X10.0817 Y0.6252
N37970 G1 X10.0898 Y0.6311
N37980 G3 X10.0943 Y0.6397 R0.025
N37990 G3 X10.0954 Y0.6473 R0.025
N38000 G1 X10.0693 Y1.8177
N38010 G3 X10.0665 Y1.8286 R0.025
N38020 G3 X10.0604 Y1.8363 R0.025
N38030 G1 X10.0547 Y1.8404
N38040 G1 X10.0314 Y1.8541
N38050 G1 X10.023 Y1.858
N38060 G1 X9.9978 Y1.8669
N38070 G1 X9.9894 Y1.8692
N38080 G1 X9.9621 Y1.874
N38090 G1 X9.9305 Y1.875
N38100 G1 X9.8688
N38110 G3 X9.8447 Y1.8517 R0.025
N38120 G1 X9.8266 Y1.591
N38130 G3 X9.8387 Y1.5678 R0.025
N38140 G3 X9.8479 Y1.5645 R0.025
N38150 G1 X9.8717 Y1.5615
N38160 G1 X9.891 Y1.556
N38170 G1 X9.9137 Y1.5445
N38180 G1 X9.9235 Y1.5381
N38190 G1 X9.9305 Y1.5329
