%
(LARGEGEAR5HOLES)
(T1  D=0.152 CR=0. TAPER=118DEG - ZMIN=-0.7087 - DRILL)
(T2  D=0.31 CR=0. TAPER=118DEG - ZMIN=-0.2087 - CENTER DRILL)
N10 G90 G54 G64 G50 G17 G40 G80 G94 G91.1 G49
N20 G20
N30 G28 G91 Z0.
N40 G90

(DRILL1)
N50 M9
N60 M998
N70 T2 G43 H2 M6
N80 S5140 M3
N90 G4 P2.
N100 G54
N110 G0 X0.3668 Y-0.5048
N120 M8
N130 G4 P2.
N140 G0 Z0.5906
N160 G0 Z0.1969
N170 G98 G81 X0.3668 Y-0.5048 Z-0.2087 R0.1969 F8.
N180 X-0.3668
N190 X-0.5935 Y0.1928
N200 X0. Y0.624
N210 X0.5935 Y0.1928
N220 G80
N230 G0 Z0.5906
N250 M5
N260 G28 G91 Z0.
N270 G90

(DRILL3)
N280 M9
N290 M1
N300 M998
N310 T1 G43 H1 M6
N320 S5140 M3
N330 G4 P2.
N340 G54
N350 G0 X0.3668 Y-0.5048
N360 M8
N370 G4 P2.
N380 G0 Z0.6
N400 G0 Z0.2
N410 G81 X0.3668 Y-0.5048 Z-0.7087 R0.2 F8.
N420 X-0.3668
N430 X-0.5935 Y0.1928
N440 X0. Y0.624
N450 X0.5935 Y0.1928
N460 G80
N470 G0 Z0.6

N490 M9
N500 G28 G91 Z0.
N510 G28 X0. Y0.
N520 M30
