;START_OF_HEADER
;HEADER_VERSION:0.1
;TARGET_MACHINE.NAME:Ultimaker 3
;GENERATOR.NAME:Simplify3D
;GENERATOR.VERSION:3.1.0
;GENERATOR.BUILD_DATE:2016-10-03
;FLAVOR:Griffin
;BUILD_PLATE.INITIAL_TEMPERATURE:60
;PRINT.TIME:634
;PRINT.SIZE.MIN.X:0
;PRINT.SIZE.MIN.Y:0
;PRINT.SIZE.MIN.Z:0
;PRINT.SIZE.MAX.X:215
;PRINT.SIZE.MAX.Y:215
;PRINT.SIZE.MAX.Z:200
;END_OF_HEADER
; G-Code generated by Simplify3D(R) Version 3.1.1
; Oct 4, 2017 at 3:59:24 PM
; Settings Summary
;   processName,Process1
;   applyToModels,batterySpacer3DPrint1_125CapEndV2
;   profileName,Ultimaker 3 (modified)
;   profileVersion,2017-01-09 08:00:00
;   baseProfile,
;   printMaterial,PLA
;   printQuality,High
;   printExtruders,Right Extruder Only
;   extruderName,Right Extruder,Left Extruder
;   extruderToolheadNumber,1,0
;   extruderDiameter,0.4,0.4
;   extruderAutoWidth,0,0
;   extruderWidth,0.4,0.4
;   extrusionMultiplier,0.9,0.9
;   extruderUseRetract,1,1
;   extruderRetractionDistance,6.25,6.25
;   extruderExtraRestartDistance,0,0
;   extruderRetractionZLift,0,0
;   extruderRetractionSpeed,1500,1500
;   extruderUseCoasting,1,1
;   extruderCoastingDistance,1,1
;   extruderUseWipe,0,0
;   extruderWipeDistance,5,5
;   primaryExtruder,0
;   layerHeight,0.1
;   topSolidLayers,5
;   bottomSolidLayers,4
;   perimeterOutlines,2
;   printPerimetersInsideOut,1
;   startPointOption,2
;   startPointOriginX,0
;   startPointOriginY,0
;   startPointOriginZ,0
;   sequentialIslands,0
;   spiralVaseMode,0
;   firstLayerHeightPercentage,100
;   firstLayerWidthPercentage,100
;   firstLayerUnderspeed,0.3
;   useRaft,0
;   raftExtruder,0
;   raftLayers,3
;   raftOffset,3
;   raftSeparationDistance,0.14
;   raftInfill,85
;   disableRaftBaseLayers,0
;   useSkirt,1
;   skirtExtruder,0
;   skirtLayers,2
;   skirtOutlines,2
;   skirtOffset,4
;   usePrimePillar,0
;   primePillarExtruder,999
;   primePillarWidth,12
;   primePillarLocation,1
;   primePillarSpeedMultiplier,1
;   useOozeShield,0
;   oozeShieldExtruder,999
;   oozeShieldOffset,2
;   oozeShieldOutlines,1
;   oozeShieldSidewallShape,1
;   oozeShieldSidewallAngle,30
;   oozeShieldSpeedMultiplier,1
;   infillExtruder,0
;   internalInfillPattern,Rectilinear
;   externalInfillPattern,Rectilinear
;   infillPercentage,35
;   outlineOverlapPercentage,35
;   infillExtrusionWidthPercentage,150
;   minInfillLength,5
;   infillLayerInterval,1
;   infillAngles,45,-45
;   overlapInfillAngles,0
;   generateSupport,1
;   supportExtruder,0
;   supportInfillPercentage,50
;   supportExtraInflation,0
;   denseSupportLayers,0
;   denseSupportInfillPercentage,70
;   supportLayerInterval,1
;   supportHorizontalPartOffset,0.8
;   supportUpperSeparationLayers,1
;   supportLowerSeparationLayers,1
;   supportType,0
;   supportGridSpacing,1
;   maxOverhangAngle,45
;   supportAngles,0
;   temperatureName,Right Extruder,Left Extruder,Heated Bed
;   temperatureNumber,1,0,0
;   temperatureSetpointCount,1,1,1
;   temperatureSetpointLayers,1,1,1
;   temperatureSetpointTemperatures,195,0,60
;   temperatureStabilizeAtStartup,1,0,1
;   temperatureHeatedBed,0,0,1
;   temperatureRelayBetweenLayers,0,0,0
;   temperatureRelayBetweenLoops,0,0,0
;   fanLayers,1,2,3,4,5
;   fanSpeeds,0,15,25,50,100
;   blipFanToFullPower,0
;   adjustSpeedForCooling,1
;   minSpeedLayerTime,10
;   minCoolingSpeedSlowdown,30
;   increaseFanForCooling,0
;   minFanLayerTime,45
;   maxCoolingFanSpeed,100
;   increaseFanForBridging,0
;   bridgingFanSpeed,100
;   use5D,1
;   relativeEdistances,0
;   allowEaxisZeroing,1
;   independentExtruderAxes,0
;   includeM10123,0
;   stickySupport,1
;   applyToolheadOffsets,0
;   gcodeXoffset,0
;   gcodeYoffset,0
;   gcodeZoffset,0
;   overrideMachineDefinition,1
;   machineTypeOverride,0
;   strokeXoverride,225
;   strokeYoverride,216
;   strokeZoverride,205
;   originOffsetXoverride,0
;   originOffsetYoverride,0
;   originOffsetZoverride,0
;   homeXdirOverride,-1
;   homeYdirOverride,1
;   homeZdirOverride,1
;   flipXoverride,1
;   flipYoverride,-1
;   flipZoverride,1
;   toolheadOffsets,0,0|18,0|0,0|0,0|0,0|0,0
;   overrideFirmwareConfiguration,1
;   firmwareTypeOverride,RepRap (Marlin/Repetier/Sprinter)
;   GPXconfigOverride,r2
;   baudRateOverride,250000
;   overridePrinterModels,1
;   printerModelsOverride
;   startingGcode,M106 S0 ; fan off,M204 S1500 ; default acceleration,M205 X15.00 ; maximum X Y jerk,T1,G1 X20 Y5 Z5 F15000.0 ; heating location,M140 S[bed0_temperature],M104 S[extruder1_temperature] T1 ; heat right,M190 S[bed0_temperature],M109 S[extruder1_temperature] T1 ; stabilize right,G1 Z0.2,G92 E0 ; zero extruder,G1 E30,G92 E0 ; zero extruder,G1 X120 E15 F1000 ; purge right extruder
;   layerChangeGcode,
;   retractionGcode,
;   toolChangeGcode,M218 T1 X0.0 Y0.0 ; reset extruder offset,T[new_tool],M218 T1 X-18.0 Y0.0 ; set extruder offset,; uncomment section below to use idle temperatures,{IF NEWTOOL=0};M104 S170 T1 ; idle right extruder,{IF NEWTOOL=0};M104 S[extruder0_temperature] T0 ; heat left extruder,{IF NEWTOOL=1};M104 S170 T0 ; idle left extruder,{IF NEWTOOL=1};M104 S[extruder1_temperature] T1 ; heat right extruder
;   endingGcode,G92 E0,G1 E-6.5 F1500 ; retraction,G92 E0,G1 Y210 ; move away from part,M104 S0 T0,M104 S0 T1,M140 S0,M106 S0
;   exportFileFormat,gcode
;   celebration,0
;   celebrationSong,Random Song
;   postProcessing,{PREPEND ";START_OF_HEADER\n;HEADER_VERSION:0.1\n;TARGET_MACHINE.NAME:Ultimaker 3\n;GENERATOR.NAME:Simplify3D\n;GENERATOR.VERSION:3.1.0\n;GENERATOR.BUILD_DATE:2016-10-03\n;FLAVOR:Griffin\n;BUILD_PLATE.INITIAL_TEMPERATURE:60\n;PRINT.TIME:[total_print_time_sec]\n;PRINT.SIZE.MIN.X:0\n;PRINT.SIZE.MIN.Y:0\n;PRINT.SIZE.MIN.Z:0\n;PRINT.SIZE.MAX.X:215\n;PRINT.SIZE.MAX.Y:215\n;PRINT.SIZE.MAX.Z:200\n;END_OF_HEADER\n"}
;   defaultSpeed,3600
;   outlineUnderspeed,0.65
;   solidInfillUnderspeed,0.5
;   supportUnderspeed,0.7
;   rapidXYspeed,15000
;   rapidZspeed,1500
;   minBridgingArea,5
;   bridgingExtraInflation,0
;   bridgingExtrusionMultiplier,1
;   bridgingSpeedMultiplier,1
;   filamentDiameter,2.85
;   filamentPricePerKg,46
;   filamentDensity,1.25
;   useMinPrintHeight,0
;   minPrintHeight,0
;   useMaxPrintHeight,0
;   maxPrintHeight,0
;   useDiaphragm,0
;   diaphragmLayerInterval,20
;   robustSlicing,1
;   mergeAllIntoSolid,0
;   onlyRetractWhenCrossingOutline,1
;   retractBetweenLayers,1
;   useRetractionMinTravel,0
;   retractionMinTravel,2
;   retractWhileWiping,0
;   onlyWipeOutlines,1
;   avoidCrossingOutline,0
;   maxMovementDetourFactor,3
;   toolChangeRetractionDistance,12
;   toolChangeExtraRestartDistance,0
;   toolChangeRetractionSpeed,900
;   allowThinWallGapFill,1
;   thinWallAllowedOverlapPercentage,20
;   horizontalSizeCompensation,0
G90
M82
M106 S0 ; fan off
M204 S1500 ; default acceleration
M205 X15.00 ; maximum X Y jerk
T1
G1 X20 Y5 Z5 F15000.0 ; heating location
M140 S60
M104 S195 T1 ; heat right
M190 S60
M109 S195 T1 ; stabilize right
G1 Z0.2
G92 E0 ; zero extruder
G1 E30
G92 E0 ; zero extruder
G1 X120 E15 F1000 ; purge right extruder
G92 E0
G1 E-6.2500 F1500
G1 Z0.100 F1500
; layer 1, Z = 0.1
M218 T1 X0.0 Y0.0 ; reset extruder offset
T1
M218 T1 X-18.0 Y0.0 ; set extruder offset
; uncomment section below to use idle temperatures
;M104 S170 T0 ; idle left extruder
;M104 S195 T1 ; heat right extruder
; tool H0.100 W0.400
; skirt
G1 X99.082 Y95.109 F15000
G1 E0.0000 F450
G92 E0
G1 X99.093 Y95.098 E0.0001 F1080
G1 X99.248 Y94.939 E0.0013
G1 X99.259 Y94.928 E0.0014
G1 X100.479 Y93.799 E0.0108
G1 X100.491 Y93.788 E0.0109
G1 X100.661 Y93.646 E0.0121
G1 X100.673 Y93.637 E0.0122
G1 X102.003 Y92.639 E0.0216
G1 X102.016 Y92.630 E0.0217
G1 X102.199 Y92.506 E0.0230
G1 X102.212 Y92.498 E0.0230
G1 X103.638 Y91.642 E0.0324
G1 X103.651 Y91.634 E0.0325
G1 X103.847 Y91.530 E0.0338
G1 X103.861 Y91.523 E0.0338
G1 X105.367 Y90.818 E0.0432
G1 X105.381 Y90.812 E0.0433
G1 X105.586 Y90.729 E0.0446
G1 X105.601 Y90.723 E0.0447
G1 X107.171 Y90.177 E0.0540
G1 X107.186 Y90.172 E0.0541
G1 X107.399 Y90.110 E0.0554
G1 X107.414 Y90.106 E0.0555
G1 X109.032 Y89.724 E0.0649
G1 X109.047 Y89.721 E0.0649
G1 X109.265 Y89.681 E0.0662
G1 X109.280 Y89.679 E0.0663
G1 X110.929 Y89.466 E0.0757
G1 X110.945 Y89.464 E0.0757
G1 X111.166 Y89.447 E0.0770
G1 X111.181 Y89.446 E0.0771
G1 X112.843 Y89.403 E0.0865
G1 X112.859 Y89.403 E0.0866
G1 X113.080 Y89.409 E0.0878
G1 X113.096 Y89.410 E0.0879
G1 X114.754 Y89.538 E0.0973
G1 X114.769 Y89.540 E0.0974
G1 X114.989 Y89.568 E0.0986
G1 X115.004 Y89.571 E0.0987
G1 X116.640 Y89.869 E0.1081
G1 X116.655 Y89.872 E0.1082
G1 X116.871 Y89.923 E0.1094
G1 X116.886 Y89.927 E0.1095
G1 X118.482 Y90.391 E0.1189
G1 X118.497 Y90.396 E0.1190
G1 X118.706 Y90.469 E0.1202
G1 X118.721 Y90.474 E0.1203
G1 X120.261 Y91.101 E0.1297
G1 X120.275 Y91.107 E0.1298
G1 X120.476 Y91.201 E0.1310
G1 X120.490 Y91.208 E0.1311
G1 X121.957 Y91.989 E0.1405
G1 X121.971 Y91.997 E0.1406
G1 X122.161 Y92.111 E0.1418
G1 X122.174 Y92.119 E0.1419
G1 X123.554 Y93.048 E0.1513
G1 X123.566 Y93.057 E0.1514
G1 X123.743 Y93.189 E0.1527
G1 X123.755 Y93.199 E0.1527
G1 X125.032 Y94.264 E0.1621
G1 X125.044 Y94.275 E0.1622
G1 X125.206 Y94.425 E0.1635
G1 X125.218 Y94.436 E0.1636
G1 X126.378 Y95.627 E0.1729
G1 X126.389 Y95.638 E0.1730
G1 X126.535 Y95.804 E0.1743
G1 X126.545 Y95.816 E0.1744
G1 X127.577 Y97.120 E0.1837
G1 X127.586 Y97.132 E0.1838
G1 X127.714 Y97.313 E0.1851
G1 X127.723 Y97.326 E0.1852
G1 X128.615 Y98.729 E0.1946
G1 X128.623 Y98.742 E0.1946
G1 X128.733 Y98.935 E0.1959
G1 X128.740 Y98.949 E0.1960
G1 X129.483 Y100.436 E0.2054
G1 X129.490 Y100.450 E0.2054
G1 X129.579 Y100.653 E0.2067
G1 X129.584 Y100.667 E0.2068
G1 X130.171 Y102.223 E0.2162
G1 X130.176 Y102.238 E0.2163
G1 X130.243 Y102.449 E0.2175
G1 X130.248 Y102.464 E0.2176
G1 X130.671 Y104.072 E0.2270
G1 X130.675 Y104.087 E0.2271
G1 X130.720 Y104.304 E0.2283
G1 X130.723 Y104.319 E0.2284
G1 X130.979 Y105.962 E0.2378
G1 X130.981 Y105.977 E0.2379
G1 X131.004 Y106.198 E0.2391
G1 X131.005 Y106.213 E0.2392
G1 X131.090 Y107.874 E0.2486
G1 X131.091 Y107.889 E0.2487
G1 X131.091 Y108.111 E0.2499
G1 X131.090 Y108.126 E0.2500
G1 X131.005 Y109.787 E0.2594
G1 X131.004 Y109.802 E0.2595
G1 X130.981 Y110.023 E0.2607
G1 X130.979 Y110.038 E0.2608
G1 X130.723 Y111.681 E0.2702
G1 X130.720 Y111.696 E0.2703
G1 X130.675 Y111.913 E0.2715
G1 X130.671 Y111.928 E0.2716
G1 X130.248 Y113.536 E0.2810
G1 X130.243 Y113.551 E0.2811
G1 X130.176 Y113.762 E0.2824
G1 X130.171 Y113.777 E0.2824
G1 X129.584 Y115.333 E0.2918
G1 X129.579 Y115.347 E0.2919
G1 X129.490 Y115.550 E0.2932
G1 X129.483 Y115.564 E0.2933
G1 X128.740 Y117.051 E0.3026
G1 X128.733 Y117.065 E0.3027
G1 X128.623 Y117.258 E0.3040
G1 X128.615 Y117.271 E0.3041
G1 X127.723 Y118.674 E0.3134
G1 X127.714 Y118.687 E0.3135
G1 X127.586 Y118.868 E0.3148
G1 X127.577 Y118.880 E0.3149
G1 X126.545 Y120.184 E0.3243
G1 X126.535 Y120.196 E0.3243
G1 X126.389 Y120.362 E0.3256
G1 X126.378 Y120.373 E0.3257
G1 X125.218 Y121.564 E0.3351
G1 X125.206 Y121.575 E0.3351
G1 X125.044 Y121.725 E0.3364
G1 X125.032 Y121.736 E0.3365
G1 X123.755 Y122.801 E0.3459
G1 X123.743 Y122.811 E0.3460
G1 X123.566 Y122.943 E0.3472
G1 X123.554 Y122.952 E0.3473
G1 X122.174 Y123.881 E0.3567
G1 X122.161 Y123.889 E0.3568
G1 X121.971 Y124.003 E0.3580
G1 X121.957 Y124.011 E0.3581
G1 X120.490 Y124.792 E0.3675
G1 X120.476 Y124.799 E0.3676
G1 X120.275 Y124.893 E0.3688
G1 X120.261 Y124.899 E0.3689
G1 X118.721 Y125.526 E0.3783
G1 X118.706 Y125.531 E0.3784
G1 X118.497 Y125.604 E0.3796
G1 X118.482 Y125.609 E0.3797
G1 X116.886 Y126.073 E0.3891
G1 X116.871 Y126.077 E0.3892
G1 X116.655 Y126.128 E0.3904
G1 X116.640 Y126.131 E0.3905
G1 X115.004 Y126.429 E0.3999
G1 X114.989 Y126.432 E0.4000
G1 X114.769 Y126.460 E0.4012
G1 X114.754 Y126.462 E0.4013
G1 X113.096 Y126.590 E0.4107
G1 X113.080 Y126.591 E0.4108
G1 X112.859 Y126.597 E0.4121
G1 X112.843 Y126.597 E0.4121
G1 X111.181 Y126.554 E0.4215
G1 X111.166 Y126.553 E0.4216
G1 X110.945 Y126.536 E0.4229
G1 X110.929 Y126.534 E0.4230
G1 X109.280 Y126.321 E0.4323
G1 X109.265 Y126.318 E0.4324
G1 X109.047 Y126.279 E0.4337
G1 X109.032 Y126.276 E0.4338
G1 X107.414 Y125.894 E0.4431
G1 X107.399 Y125.890 E0.4432
G1 X107.186 Y125.828 E0.4445
G1 X107.171 Y125.823 E0.4446
G1 X105.601 Y125.277 E0.4540
G1 X105.586 Y125.271 E0.4540
G1 X105.381 Y125.188 E0.4553
G1 X105.367 Y125.182 E0.4554
G1 X103.861 Y124.477 E0.4648
G1 X103.847 Y124.470 E0.4648
G1 X103.651 Y124.366 E0.4661
G1 X103.638 Y124.358 E0.4662
G1 X102.212 Y123.502 E0.4756
G1 X102.199 Y123.494 E0.4757
G1 X102.016 Y123.370 E0.4769
G1 X102.003 Y123.361 E0.4770
G1 X100.673 Y122.363 E0.4864
G1 X100.661 Y122.354 E0.4865
G1 X100.491 Y122.212 E0.4877
G1 X100.479 Y122.201 E0.4878
G1 X99.259 Y121.072 E0.4972
G1 X99.248 Y121.061 E0.4973
G1 X99.093 Y120.902 E0.4985
G1 X99.082 Y120.891 E0.4986
G1 X97.985 Y119.642 E0.5080
G1 X97.975 Y119.630 E0.5081
G1 X97.837 Y119.457 E0.5093
G1 X97.828 Y119.444 E0.5094
G1 X96.865 Y118.089 E0.5188
G1 X96.856 Y118.076 E0.5189
G1 X96.737 Y117.889 E0.5201
G1 X96.729 Y117.876 E0.5202
G1 X95.910 Y116.429 E0.5296
G1 X95.903 Y116.415 E0.5297
G1 X95.804 Y116.217 E0.5310
G1 X95.797 Y116.203 E0.5310
G1 X95.131 Y114.679 E0.5404
G1 X95.125 Y114.665 E0.5405
G1 X95.047 Y114.458 E0.5418
G1 X95.042 Y114.443 E0.5418
G1 X94.537 Y112.859 E0.5512
G1 X94.532 Y112.844 E0.5513
G1 X94.476 Y112.630 E0.5526
G1 X94.472 Y112.615 E0.5527
G1 X94.132 Y110.987 E0.5620
G1 X94.129 Y110.972 E0.5621
G1 X94.095 Y110.753 E0.5634
G1 X94.093 Y110.738 E0.5635
G1 X93.922 Y109.084 E0.5728
G1 X93.921 Y109.068 E0.5729
G1 X93.910 Y108.847 E0.5742
G1 X93.909 Y108.831 E0.5743
G1 X93.909 Y107.169 E0.5837
G1 X93.910 Y107.153 E0.5837
G1 X93.921 Y106.932 E0.5850
G1 X93.922 Y106.916 E0.5851
G1 X94.093 Y105.262 E0.5945
G1 X94.095 Y105.247 E0.5946
G1 X94.129 Y105.028 E0.5958
G1 X94.132 Y105.013 E0.5959
G1 X94.472 Y103.385 E0.6053
G1 X94.476 Y103.370 E0.6054
G1 X94.532 Y103.156 E0.6066
G1 X94.537 Y103.141 E0.6067
G1 X95.042 Y101.557 E0.6161
G1 X95.047 Y101.542 E0.6162
G1 X95.125 Y101.335 E0.6174
G1 X95.131 Y101.321 E0.6175
G1 X95.797 Y99.797 E0.6269
G1 X95.804 Y99.783 E0.6270
G1 X95.903 Y99.585 E0.6282
G1 X95.910 Y99.571 E0.6283
G1 X96.729 Y98.124 E0.6377
G1 X96.737 Y98.111 E0.6378
G1 X96.856 Y97.924 E0.6390
G1 X96.865 Y97.911 E0.6391
G1 X97.828 Y96.556 E0.6485
G1 X97.837 Y96.543 E0.6486
G1 X97.975 Y96.370 E0.6498
G1 X97.985 Y96.358 E0.6499
G1 X98.422 Y95.860 E0.6537
G1 X99.082 Y95.109 F1080
G1 X99.380 Y95.377 F15000
G92 E0
G1 X99.383 Y95.373 E0.0000 F1080
G1 X99.530 Y95.222 E0.0012
G1 X99.534 Y95.218 E0.0013
G1 X100.747 Y94.096 E0.0106
G1 X100.751 Y94.092 E0.0106
G1 X100.913 Y93.957 E0.0118
G1 X100.917 Y93.954 E0.0118
G1 X102.239 Y92.962 E0.0212
G1 X102.243 Y92.959 E0.0212
G1 X102.418 Y92.841 E0.0224
G1 X102.423 Y92.838 E0.0224
G1 X103.839 Y91.987 E0.0317
G1 X103.844 Y91.985 E0.0318
G1 X104.030 Y91.886 E0.0329
G1 X104.035 Y91.883 E0.0330
G1 X105.532 Y91.183 E0.0423
G1 X105.536 Y91.181 E0.0423
G1 X105.732 Y91.101 E0.0435
G1 X105.737 Y91.099 E0.0436
G1 X107.298 Y90.556 E0.0529
G1 X107.303 Y90.555 E0.0529
G1 X107.505 Y90.496 E0.0541
G1 X107.510 Y90.494 E0.0541
G1 X109.119 Y90.115 E0.0635
G1 X109.124 Y90.114 E0.0635
G1 X109.332 Y90.076 E0.0647
G1 X109.337 Y90.075 E0.0647
G1 X110.976 Y89.863 E0.0740
G1 X110.981 Y89.862 E0.0741
G1 X111.191 Y89.846 E0.0753
G1 X111.197 Y89.846 E0.0753
G1 X112.849 Y89.803 E0.0846
G1 X112.854 Y89.803 E0.0846
G1 X113.065 Y89.809 E0.0858
G1 X113.070 Y89.809 E0.0859
G1 X114.718 Y89.937 E0.0952
G1 X114.723 Y89.937 E0.0952
G1 X114.932 Y89.964 E0.0964
G1 X114.937 Y89.965 E0.0964
G1 X116.563 Y90.261 E0.1058
G1 X116.568 Y90.262 E0.1058
G1 X116.774 Y90.311 E0.1070
G1 X116.779 Y90.312 E0.1070
G1 X118.366 Y90.774 E0.1163
G1 X118.370 Y90.776 E0.1164
G1 X118.570 Y90.845 E0.1176
G1 X118.575 Y90.847 E0.1176
G1 X120.106 Y91.469 E0.1269
G1 X120.110 Y91.471 E0.1269
G1 X120.302 Y91.561 E0.1281
G1 X120.306 Y91.563 E0.1282
G1 X121.765 Y92.340 E0.1375
G1 X121.769 Y92.343 E0.1375
G1 X121.950 Y92.451 E0.1387
G1 X121.955 Y92.454 E0.1387
G1 X123.326 Y93.377 E0.1481
G1 X123.330 Y93.380 E0.1481
G1 X123.499 Y93.506 E0.1493
G1 X123.503 Y93.510 E0.1493
