(1)
(CONTOURED BATTERY HOLDER V6 DUAL)
(T2  D=0.25 CR=0. - ZMIN=-0.375 - FLAT END MILL)
G90 G94 G40 G49 G17
G20
G28 G91 Z0.
G90

(2D CONTOUR3)
M9
T2 M6
S3800 M3
G54
M8
G0 X7.0908 Y1.7816
G43 Z0.6 H0
Z0.2
G1 Z0.08 F4.
Z-0.075
Y1.7819 Z-0.0789
X7.0906 Y1.7828 Z-0.0827
X7.0903 Y1.7843 Z-0.0863
X7.09 Y1.7863 Z-0.0897
X7.0895 Y1.7888 Z-0.0927
X7.089 Y1.7918 Z-0.0952
X7.0884 Y1.7951 Z-0.0973
X7.0877 Y1.7986 Z-0.0988
X7.0871 Y1.8024 Z-0.0997
X7.0864 Y1.8062 Z-0.1
X7.0819 Y1.8308 F12.
G3 X7.0528 Y1.851 I-0.0246 J-0.0045
G2 X7.0061 Y1.8469 I-0.0448 J0.247
G1 X6.8379 Y1.848
X6.6697 Y1.8469
G2 X6.4737 Y2.2571 I-0.0019 J0.251
G3 X6.4044 Y2.9594 I-0.3858 J0.3165
X5.6735 Y2.8516 I-0.3165 J-0.3858
G2 X5.2552 Y2.8538 I-0.2084 J0.1398
G3 X4.5362 Y2.9776 I-0.4173 J-0.2736
X4.4622 Y2.2518 I0.3017 J-0.3975
G2 X4.2847 Y1.8359 I-0.189 J-0.1652
G1 X4.1805 Y1.8308
X4.0775 Y1.8249
X3.9753 Y1.8182
G2 X3.7514 Y2.2109 I-0.0172 J0.2504
G3 X3.5835 Y2.9297 I-0.411 J0.283
X2.8837 Y2.695 I-0.2431 J-0.4358
G2 X2.4715 Y2.6238 I-0.2297 J0.1011
G3 X1.7284 Y2.6043 I-0.3628 J-0.3426
X1.8291 Y1.8678 I0.3802 J-0.3231
G2 X1.7603 Y1.4195 I-0.1406 J-0.2079
G1 X1.6395 Y1.3828
X1.5197 Y1.3449
X1.4004 Y1.3057
X1.2817 Y1.2651
X1.1637 Y1.2233
X1.0462 Y1.1801
X0.9286 Y1.1354
G2 X0.7673 Y1.3011 I-0.0448 J0.1178
G1 X0.8971 Y1.6167
G2 X0.9711 Y1.6874 I0.1165 J-0.0479
G1 X1.22 Y1.7766
X1.1208 Y2.0821
G2 X1.1242 Y2.1689 I0.1198 J0.0389
G1 X1.3061 Y2.6112
G2 X1.905 Y3.1247 I0.8026 J-0.3301
X1.9057 Y3.1249 I0.0296 J-0.1225
G1 X2.0251 Y3.1531
G2 X2.0264 Y3.1534 I0.0289 J-0.1226
G1 X2.1463 Y3.1803
G2 X2.1476 Y3.1806 I0.0276 J-0.1229
G1 X2.268 Y3.2062
G2 X2.2693 Y3.2065 I0.0263 J-0.1232
G1 X2.3901 Y3.2309
G2 X2.3915 Y3.2312 I0.0249 J-0.1235
G1 X2.5125 Y3.2542
G2 X2.5139 Y3.2545 I0.0236 J-0.1238
G1 X2.6329 Y3.2758
G2 X2.6343 Y3.276 I0.0222 J-0.124
G1 X2.7534 Y3.296
G2 X2.7548 Y3.2962 I0.0208 J-0.1243
G1 X2.8738 Y3.3149
G2 X2.8751 Y3.3151 I0.0195 J-0.1245
G1 X2.9941 Y3.3324
G2 X2.9954 Y3.3326 I0.0182 J-0.1247
G1 X3.1167 Y3.349
G2 X3.118 Y3.3492 I0.0169 J-0.1249
G1 X3.2392 Y3.3643
G2 X3.2405 Y3.3644 I0.0156 J-0.125
G1 X3.3615 Y3.3782
G2 X3.3627 Y3.3784 I0.0143 J-0.1252
G1 X3.4836 Y3.3909
G2 X3.4848 Y3.3911 I0.0131 J-0.1253
G1 X3.6055 Y3.4025
G2 X3.6067 Y3.4026 I0.0118 J-0.1254
G1 X3.7273 Y3.4128
G2 X3.7284 Y3.4129 I0.0106 J-0.1256
G1 X3.8489 Y3.422
G2 X3.9841 Y3.3035 I0.0095 J-0.1256
G1 X3.9911 Y3.181
X4.1139 Y3.188
X4.1069 Y3.3105
G2 X4.2278 Y3.4436 I0.1258 J0.0072
G1 X4.3628 Y3.4489
G2 X4.364 I0.0049 J-0.1259
G1 X4.4985 Y3.453
G2 X4.4995 I0.0038 J-0.1259
G1 X4.6334 Y3.4559
G2 X4.6344 I0.0027 J-0.126
G1 X4.7673 Y3.4578
G2 X4.7681 I0.0018 J-0.126
G1 X4.8998 Y3.4589
G2 X4.9005 I0.001 J-0.126
G1 X5.0309 Y3.4592
G2 X5.0314 I0.0003 J-0.126
G1 X5.1532 Y3.459
G2 X5.1536 I-0.0002 J-0.126
G1 X5.2742 Y3.4583
X5.2745
X5.394 Y3.4574
X5.3942
X5.5126 Y3.4564
X5.5127
X5.6301 Y3.4552
X5.727 Y3.4543
X5.823 Y3.4535
X5.9181 Y3.4528
X6.0121 Y3.4523
X6.105 Y3.4521
X6.1974
X6.2851 Y3.4525
X6.3739 Y3.4531
X6.4642 Y3.4538
X6.5561 Y3.4547
X6.6493 Y3.4555
G2 X6.7764 Y3.3295 I0.0011 J-0.126
G1 Y3.2066
X6.8994
Y3.3295
G2 X7.0265 Y3.4555 I0.126 J0.
G1 X7.1111 Y3.4548
X7.1947 Y3.454
X7.2769 Y3.4533
X7.3579 Y3.4527
X7.4378 Y3.4523
X7.5414 Y3.452
X7.6452 Y3.4522
X7.7503 Y3.4527
X7.8645 Y3.4536
X7.98 Y3.4546
X8.0967 Y3.4557
X8.2145 Y3.4568
X8.2147
X8.3336 Y3.4578
X8.3338 Y3.4579
X8.4538 Y3.4586
X8.4541
X8.5752 Y3.4591
G2 X8.5757 I0.0005 J-0.126
G1 X8.6979
G2 X8.6985 I0. J-0.126
G1 X8.8219 Y3.4586
G2 X8.8226 I-0.0006 J-0.126
G1 X8.9472 Y3.4574
G2 X8.948 I-0.0012 J-0.126
G1 X9.0713 Y3.4554
G2 X9.0722 I-0.002 J-0.126
G1 X9.1963 Y3.4525
G2 X9.1973 I-0.0029 J-0.126
G1 X9.3219 Y3.4486
G2 X9.323 I-0.0039 J-0.1259
G1 X9.448 Y3.4436
G2 X9.5689 Y3.3105 I-0.005 J-0.1259
G1 X9.5619 Y3.188
X9.6847 Y3.181
X9.6917 Y3.3035
G2 X9.827 Y3.422 I0.1258 J-0.0072
G1 X9.9472 Y3.4129
G2 X9.9483 Y3.4128 I-0.0095 J-0.1256
G1 X10.0686 Y3.4026
G2 X10.0698 Y3.4025 I-0.0106 J-0.1256
G1 X10.1902 Y3.3911
G2 X10.1914 Y3.391 I-0.0118 J-0.1254
G1 X10.312 Y3.3785
G2 X10.3133 Y3.3783 I-0.013 J-0.1253
G1 X10.434 Y3.3646
G2 X10.4353 Y3.3644 I-0.0143 J-0.1252
G1 X10.554 Y3.3497
G2 X10.5553 Y3.3495 I-0.0155 J-0.125
G1 X10.6741 Y3.3335
G2 X10.6754 Y3.3333 I-0.0168 J-0.1249
G1 X10.7944 Y3.316
G2 X10.7957 Y3.3158 I-0.0181 J-0.1247
G1 X10.9148 Y3.2973
G2 X10.9161 Y3.297 I-0.0194 J-0.1245
G1 X11.0377 Y3.2767
G2 X11.0391 Y3.2765 I-0.0208 J-0.1243
G1 X11.1606 Y3.2547
G2 X11.162 Y3.2545 I-0.0222 J-0.124
G1 X11.2833 Y3.2314
G2 X11.2846 Y3.2311 I-0.0236 J-0.1238
G1 X11.4057 Y3.2067
G2 X11.4071 Y3.2064 I-0.0249 J-0.1235
G1 X11.5277 Y3.1807
G2 X11.529 Y3.1804 I-0.0263 J-0.1232
G1 X11.6491 Y3.1534
G2 X11.6505 Y3.1531 I-0.0276 J-0.1229
G1 X11.7701 Y3.1249
G2 X11.7708 Y3.1247 I-0.0289 J-0.1226
X12.3698 Y2.6112 I-0.2036 J-0.8436
G1 X12.5516 Y2.1689
G2 X12.555 Y2.0821 I-0.1165 J-0.0479
G1 X12.4558 Y1.7766
X12.7047 Y1.6874
G2 X12.7787 Y1.6167 I-0.0425 J-0.1186
G1 X12.9085 Y1.3011
G2 X12.7472 Y1.1354 I-0.1165 J-0.0479
G1 X12.6295 Y1.1802
X12.5119 Y1.2233
X12.3938 Y1.2651
X12.2751 Y1.3057
X12.1559 Y1.3449
X12.0361 Y1.3828
X11.9155 Y1.4195
G2 X11.8468 Y1.8678 I0.0719 J0.2405
G3 X11.9474 Y2.6043 I-0.2796 J0.4133
X11.2044 Y2.6238 I-0.3802 J-0.3231
G2 X10.7921 Y2.695 I-0.1825 J0.1723
G3 X10.0923 Y2.9297 I-0.4567 J-0.201
X9.9244 Y2.2109 I0.2431 J-0.4358
G2 X9.7004 Y1.8182 I-0.2067 J-0.1424
G1 X9.5974 Y1.8249
X9.4945 Y1.8308
X9.3911 Y1.8359
G2 X9.2136 Y2.2518 I0.0115 J0.2507
G3 X9.1396 Y2.9776 I-0.3758 J0.3284
X8.4206 Y2.8538 I-0.3017 J-0.3975
G2 X8.0023 Y2.8516 I-0.2099 J0.1376
G3 X7.2903 Y2.9741 I-0.4144 J-0.278
X7.2021 Y2.2571 I0.2976 J-0.4006
G2 X7.0061 Y1.8469 I-0.1941 J-0.1592
G1 X6.9531 Y1.8473
G3 X6.9279 Y1.8224 I-0.0002 J-0.025
G1 X6.9278 Y1.7974
X6.9277 Y1.7935 Z-0.0997
Y1.7897 Z-0.0988
Y1.7861 Z-0.0973
Y1.7827 Z-0.0952
Y1.7797 Z-0.0927
X6.9276 Y1.7772 Z-0.0897
Y1.7751 Z-0.0863
Y1.7736 Z-0.0827
Y1.7727 Z-0.0789
Y1.7724 Z-0.075
X7.0908 Y1.7816
Z-0.175 F4.
Y1.7819 Z-0.1789
X7.0906 Y1.7828 Z-0.1827
X7.0903 Y1.7843 Z-0.1863
X7.09 Y1.7863 Z-0.1897
X7.0895 Y1.7888 Z-0.1927
X7.089 Y1.7918 Z-0.1952
X7.0884 Y1.7951 Z-0.1973
X7.0877 Y1.7986 Z-0.1988
X7.0871 Y1.8024 Z-0.1997
X7.0864 Y1.8062 Z-0.2
X7.0819 Y1.8308 F12.
G3 X7.0528 Y1.851 I-0.0246 J-0.0045
G2 X7.0061 Y1.8469 I-0.0448 J0.247
G1 X6.8379 Y1.848
X6.6697 Y1.8469
G2 X6.4737 Y2.2571 I-0.0019 J0.251
G3 X6.4044 Y2.9594 I-0.3858 J0.3165
X5.6735 Y2.8516 I-0.3165 J-0.3858
G2 X5.2552 Y2.8538 I-0.2084 J0.1398
G3 X4.5362 Y2.9776 I-0.4173 J-0.2736
X4.4622 Y2.2518 I0.3017 J-0.3975
G2 X4.2847 Y1.8359 I-0.189 J-0.1652
G1 X4.1805 Y1.8308
X4.0775 Y1.8249
X3.9753 Y1.8182
G2 X3.7514 Y2.2109 I-0.0172 J0.2504
G3 X3.5835 Y2.9297 I-0.411 J0.283
X2.8837 Y2.695 I-0.2431 J-0.4358
G2 X2.4715 Y2.6238 I-0.2297 J0.1011
G3 X1.7284 Y2.6043 I-0.3628 J-0.3426
X1.8291 Y1.8678 I0.3802 J-0.3231
G2 X1.7603 Y1.4195 I-0.1406 J-0.2079
G1 X1.6395 Y1.3828
X1.5197 Y1.3449
X1.4004 Y1.3057
X1.2817 Y1.2651
X1.1637 Y1.2233
X1.0462 Y1.1801
X0.9286 Y1.1354
G2 X0.7673 Y1.3011 I-0.0448 J0.1178
G1 X0.8971 Y1.6167
G2 X0.9711 Y1.6874 I0.1165 J-0.0479
G1 X1.22 Y1.7766
X1.1208 Y2.0821
G2 X1.1242 Y2.1689 I0.1198 J0.0389
G1 X1.3061 Y2.6112
G2 X1.905 Y3.1247 I0.8026 J-0.3301
X1.9057 Y3.1249 I0.0296 J-0.1225
G1 X2.0251 Y3.1531
G2 X2.0264 Y3.1534 I0.0289 J-0.1226
G1 X2.1463 Y3.1803
G2 X2.1476 Y3.1806 I0.0276 J-0.1229
G1 X2.268 Y3.2062
G2 X2.2693 Y3.2065 I0.0263 J-0.1232
G1 X2.3901 Y3.2309
G2 X2.3915 Y3.2312 I0.0249 J-0.1235
G1 X2.5125 Y3.2542
G2 X2.5139 Y3.2545 I0.0236 J-0.1238
G1 X2.6329 Y3.2758
G2 X2.6343 Y3.276 I0.0222 J-0.124
G1 X2.7534 Y3.296
G2 X2.7548 Y3.2962 I0.0208 J-0.1243
G1 X2.8738 Y3.3149
G2 X2.8751 Y3.3151 I0.0195 J-0.1245
G1 X2.9941 Y3.3324
G2 X2.9954 Y3.3326 I0.0182 J-0.1247
G1 X3.1167 Y3.349
G2 X3.118 Y3.3492 I0.0169 J-0.1249
G1 X3.2392 Y3.3643
G2 X3.2405 Y3.3644 I0.0156 J-0.125
G1 X3.3615 Y3.3782
G2 X3.3627 Y3.3784 I0.0143 J-0.1252
G1 X3.4836 Y3.3909
G2 X3.4848 Y3.3911 I0.0131 J-0.1253
G1 X3.6055 Y3.4025
G2 X3.6067 Y3.4026 I0.0118 J-0.1254
G1 X3.7273 Y3.4128
G2 X3.7284 Y3.4129 I0.0106 J-0.1256
G1 X3.8489 Y3.422
G2 X3.9841 Y3.3035 I0.0095 J-0.1256
G1 X3.9911 Y3.181
X4.1139 Y3.188
X4.1069 Y3.3105
G2 X4.2278 Y3.4436 I0.1258 J0.0072
G1 X4.3628 Y3.4489
G2 X4.364 I0.0049 J-0.1259
G1 X4.4985 Y3.453
G2 X4.4995 I0.0038 J-0.1259
G1 X4.6334 Y3.4559
G2 X4.6344 I0.0027 J-0.126
G1 X4.7673 Y3.4578
G2 X4.7681 I0.0018 J-0.126
G1 X4.8998 Y3.4589
G2 X4.9005 I0.001 J-0.126
G1 X5.0309 Y3.4592
G2 X5.0314 I0.0003 J-0.126
G1 X5.1532 Y3.459
G2 X5.1536 I-0.0002 J-0.126
G1 X5.2742 Y3.4583
X5.2745
X5.394 Y3.4574
X5.3942
X5.5126 Y3.4564
X5.5127
X5.6301 Y3.4552
X5.727 Y3.4543
X5.823 Y3.4535
X5.9181 Y3.4528
X6.0121 Y3.4523
X6.105 Y3.4521
X6.1974
X6.2851 Y3.4525
X6.3739 Y3.4531
X6.4642 Y3.4538
X6.5561 Y3.4547
X6.6493 Y3.4555
G2 X6.7764 Y3.3295 I0.0011 J-0.126
G1 Y3.2066
X6.8994
Y3.3295
G2 X7.0265 Y3.4555 I0.126 J0.
G1 X7.1111 Y3.4548
X7.1947 Y3.454
X7.2769 Y3.4533
X7.3579 Y3.4527
X7.4378 Y3.4523
X7.5414 Y3.452
X7.6452 Y3.4522
X7.7503 Y3.4527
X7.8645 Y3.4536
X7.98 Y3.4546
X8.0967 Y3.4557
X8.2145 Y3.4568
X8.2147
X8.3336 Y3.4578
X8.3338 Y3.4579
X8.4538 Y3.4586
X8.4541
X8.5752 Y3.4591
G2 X8.5757 I0.0005 J-0.126
G1 X8.6979
G2 X8.6985 I0. J-0.126
G1 X8.8219 Y3.4586
G2 X8.8226 I-0.0006 J-0.126
G1 X8.9472 Y3.4574
G2 X8.948 I-0.0012 J-0.126
G1 X9.0713 Y3.4554
G2 X9.0722 I-0.002 J-0.126
G1 X9.1963 Y3.4525
G2 X9.1973 I-0.0029 J-0.126
G1 X9.3219 Y3.4486
G2 X9.323 I-0.0039 J-0.1259
G1 X9.448 Y3.4436
G2 X9.5689 Y3.3105 I-0.005 J-0.1259
G1 X9.5619 Y3.188
X9.6847 Y3.181
X9.6917 Y3.3035
G2 X9.827 Y3.422 I0.1258 J-0.0072
G1 X9.9472 Y3.4129
G2 X9.9483 Y3.4128 I-0.0095 J-0.1256
G1 X10.0686 Y3.4026
G2 X10.0698 Y3.4025 I-0.0106 J-0.1256
G1 X10.1902 Y3.3911
G2 X10.1914 Y3.391 I-0.0118 J-0.1254
G1 X10.312 Y3.3785
G2 X10.3133 Y3.3783 I-0.013 J-0.1253
G1 X10.434 Y3.3646
G2 X10.4353 Y3.3644 I-0.0143 J-0.1252
G1 X10.554 Y3.3497
G2 X10.5553 Y3.3495 I-0.0155 J-0.125
G1 X10.6741 Y3.3335
G2 X10.6754 Y3.3333 I-0.0168 J-0.1249
G1 X10.7944 Y3.316
G2 X10.7957 Y3.3158 I-0.0181 J-0.1247
G1 X10.9148 Y3.2973
G2 X10.9161 Y3.297 I-0.0194 J-0.1245
G1 X11.0377 Y3.2767
G2 X11.0391 Y3.2765 I-0.0208 J-0.1243
G1 X11.1606 Y3.2547
G2 X11.162 Y3.2545 I-0.0222 J-0.124
G1 X11.2833 Y3.2314
G2 X11.2846 Y3.2311 I-0.0236 J-0.1238
G1 X11.4057 Y3.2067
G2 X11.4071 Y3.2064 I-0.0249 J-0.1235
G1 X11.5277 Y3.1807
G2 X11.529 Y3.1804 I-0.0263 J-0.1232
G1 X11.6491 Y3.1534
G2 X11.6505 Y3.1531 I-0.0276 J-0.1229
G1 X11.7701 Y3.1249
G2 X11.7708 Y3.1247 I-0.0289 J-0.1226
X12.3698 Y2.6112 I-0.2036 J-0.8436
G1 X12.5516 Y2.1689
G2 X12.555 Y2.0821 I-0.1165 J-0.0479
G1 X12.4558 Y1.7766
X12.7047 Y1.6874
G2 X12.7787 Y1.6167 I-0.0425 J-0.1186
G1 X12.9085 Y1.3011
G2 X12.7472 Y1.1354 I-0.1165 J-0.0479
G1 X12.6295 Y1.1802
X12.5119 Y1.2233
X12.3938 Y1.2651
X12.2751 Y1.3057
X12.1559 Y1.3449
X12.0361 Y1.3828
X11.9155 Y1.4195
G2 X11.8468 Y1.8678 I0.0719 J0.2405
G3 X11.9474 Y2.6043 I-0.2796 J0.4133
X11.2044 Y2.6238 I-0.3802 J-0.3231
G2 X10.7921 Y2.695 I-0.1825 J0.1723
G3 X10.0923 Y2.9297 I-0.4567 J-0.201
X9.9244 Y2.2109 I0.2431 J-0.4358
G2 X9.7004 Y1.8182 I-0.2067 J-0.1424
G1 X9.5974 Y1.8249
X9.4945 Y1.8308
X9.3911 Y1.8359
G2 X9.2136 Y2.2518 I0.0115 J0.2507
G3 X9.1396 Y2.9776 I-0.3758 J0.3284
X8.4206 Y2.8538 I-0.3017 J-0.3975
G2 X8.0023 Y2.8516 I-0.2099 J0.1376
G3 X7.2903 Y2.9741 I-0.4144 J-0.278
X7.2021 Y2.2571 I0.2976 J-0.4006
G2 X7.0061 Y1.8469 I-0.1941 J-0.1592
G1 X6.9531 Y1.8473
G3 X6.9279 Y1.8224 I-0.0002 J-0.025
G1 X6.9278 Y1.7974
X6.9277 Y1.7935 Z-0.1997
Y1.7897 Z-0.1988
Y1.7861 Z-0.1973
Y1.7827 Z-0.1952
Y1.7797 Z-0.1927
X6.9276 Y1.7772 Z-0.1897
Y1.7751 Z-0.1863
Y1.7736 Z-0.1827
Y1.7727 Z-0.1789
Y1.7724 Z-0.175
X7.0908 Y1.7816
Z-0.2461 F4.
Y1.7819 Z-0.25
X7.0906 Y1.7828 Z-0.2538
X7.0903 Y1.7843 Z-0.2574
X7.09 Y1.7863 Z-0.2608
X7.0895 Y1.7888 Z-0.2637
X7.089 Y1.7918 Z-0.2663
X7.0884 Y1.7951 Z-0.2683
X7.0877 Y1.7986 Z-0.2698
X7.0871 Y1.8024 Z-0.2708
X7.0864 Y1.8062 Z-0.2711
X7.0819 Y1.8308 F12.
G3 X7.0528 Y1.851 I-0.0246 J-0.0045
G2 X7.0061 Y1.8469 I-0.0448 J0.247
G1 X6.8379 Y1.848
X6.6697 Y1.8469
G2 X6.4737 Y2.2571 I-0.0019 J0.251
G3 X6.4044 Y2.9594 I-0.3858 J0.3165
X5.6735 Y2.8516 I-0.3165 J-0.3858
G2 X5.2552 Y2.8538 I-0.2084 J0.1398
G3 X4.5362 Y2.9776 I-0.4173 J-0.2736
X4.4622 Y2.2518 I0.3017 J-0.3975
G2 X4.2847 Y1.8359 I-0.189 J-0.1652
G1 X4.1805 Y1.8308
X4.0775 Y1.8249
X3.9753 Y1.8182
G2 X3.7514 Y2.2109 I-0.0172 J0.2504
G3 X3.5835 Y2.9297 I-0.411 J0.283
X2.8837 Y2.695 I-0.2431 J-0.4358
G2 X2.4715 Y2.6238 I-0.2297 J0.1011
G3 X1.7284 Y2.6043 I-0.3628 J-0.3426
X1.8291 Y1.8678 I0.3802 J-0.3231
G2 X1.7603 Y1.4195 I-0.1406 J-0.2079
G1 X1.6395 Y1.3828
X1.5197 Y1.3449
X1.4004 Y1.3057
X1.2817 Y1.2651
X1.1637 Y1.2233
X1.0462 Y1.1801
X0.9286 Y1.1354
G2 X0.7673 Y1.3011 I-0.0448 J0.1178
G1 X0.8971 Y1.6167
G2 X0.9711 Y1.6874 I0.1165 J-0.0479
G1 X1.22 Y1.7766
X1.1208 Y2.0821
G2 X1.1242 Y2.1689 I0.1198 J0.0389
G1 X1.3061 Y2.6112
G2 X1.905 Y3.1247 I0.8026 J-0.3301
X1.9057 Y3.1249 I0.0296 J-0.1225
G1 X2.0251 Y3.1531
G2 X2.0264 Y3.1534 I0.0289 J-0.1226
G1 X2.1463 Y3.1803
G2 X2.1476 Y3.1806 I0.0276 J-0.1229
G1 X2.268 Y3.2062
G2 X2.2693 Y3.2065 I0.0263 J-0.1232
G1 X2.3901 Y3.2309
G2 X2.3915 Y3.2312 I0.0249 J-0.1235
G1 X2.5125 Y3.2542
G2 X2.5139 Y3.2545 I0.0236 J-0.1238
G1 X2.6329 Y3.2758
G2 X2.6343 Y3.276 I0.0222 J-0.124
G1 X2.7534 Y3.296
G2 X2.7548 Y3.2962 I0.0208 J-0.1243
G1 X2.8738 Y3.3149
G2 X2.8751 Y3.3151 I0.0195 J-0.1245
G1 X2.9941 Y3.3324
G2 X2.9954 Y3.3326 I0.0182 J-0.1247
G1 X3.1167 Y3.349
G2 X3.118 Y3.3492 I0.0169 J-0.1249
G1 X3.2392 Y3.3643
G2 X3.2405 Y3.3644 I0.0156 J-0.125
G1 X3.3615 Y3.3782
G2 X3.3627 Y3.3784 I0.0143 J-0.1252
G1 X3.4836 Y3.3909
G2 X3.4848 Y3.3911 I0.0131 J-0.1253
G1 X3.6055 Y3.4025
G2 X3.6067 Y3.4026 I0.0118 J-0.1254
G1 X3.7273 Y3.4128
G2 X3.7284 Y3.4129 I0.0106 J-0.1256
G1 X3.8489 Y3.422
G2 X3.9841 Y3.3035 I0.0095 J-0.1256
G1 X3.9911 Y3.181
X4.1139 Y3.188
X4.1069 Y3.3105
G2 X4.2278 Y3.4436 I0.1258 J0.0072
G1 X4.3628 Y3.4489
G2 X4.364 I0.0049 J-0.1259
G1 X4.4985 Y3.453
G2 X4.4995 I0.0038 J-0.1259
G1 X4.6334 Y3.4559
G2 X4.6344 I0.0027 J-0.126
G1 X4.7673 Y3.4578
G2 X4.7681 I0.0018 J-0.126
G1 X4.8998 Y3.4589
G2 X4.9005 I0.001 J-0.126
G1 X5.0309 Y3.4592
G2 X5.0314 I0.0003 J-0.126
G1 X5.1532 Y3.459
G2 X5.1536 I-0.0002 J-0.126
G1 X5.2742 Y3.4583
X5.2745
X5.394 Y3.4574
X5.3942
X5.5126 Y3.4564
X5.5127
X5.6301 Y3.4552
X5.727 Y3.4543
X5.823 Y3.4535
X5.9181 Y3.4528
X6.0121 Y3.4523
X6.105 Y3.4521
X6.1974
X6.2851 Y3.4525
X6.3739 Y3.4531
X6.4642 Y3.4538
X6.5561 Y3.4547
X6.6493 Y3.4555
G2 X6.7764 Y3.3295 I0.0011 J-0.126
G1 Y3.2066
X6.8994
Y3.3295
G2 X7.0265 Y3.4555 I0.126 J0.
G1 X7.1111 Y3.4548
X7.1947 Y3.454
X7.2769 Y3.4533
X7.3579 Y3.4527
X7.4378 Y3.4523
X7.5414 Y3.452
X7.6452 Y3.4522
X7.7503 Y3.4527
X7.8645 Y3.4536
X7.98 Y3.4546
X8.0967 Y3.4557
X8.2145 Y3.4568
X8.2147
X8.3336 Y3.4578
X8.3338 Y3.4579
X8.4538 Y3.4586
X8.4541
X8.5752 Y3.4591
G2 X8.5757 I0.0005 J-0.126
G1 X8.6979
G2 X8.6985 I0. J-0.126
G1 X8.8219 Y3.4586
G2 X8.8226 I-0.0006 J-0.126
G1 X8.9472 Y3.4574
G2 X8.948 I-0.0012 J-0.126
G1 X9.0713 Y3.4554
G2 X9.0722 I-0.002 J-0.126
G1 X9.1963 Y3.4525
G2 X9.1973 I-0.0029 J-0.126
G1 X9.3219 Y3.4486
G2 X9.323 I-0.0039 J-0.1259
G1 X9.448 Y3.4436
G2 X9.5689 Y3.3105 I-0.005 J-0.1259
G1 X9.5619 Y3.188
X9.6847 Y3.181
X9.6917 Y3.3035
G2 X9.827 Y3.422 I0.1258 J-0.0072
G1 X9.9472 Y3.4129
G2 X9.9483 Y3.4128 I-0.0095 J-0.1256
G1 X10.0686 Y3.4026
G2 X10.0698 Y3.4025 I-0.0106 J-0.1256
G1 X10.1902 Y3.3911
G2 X10.1914 Y3.391 I-0.0118 J-0.1254
G1 X10.312 Y3.3785
G2 X10.3133 Y3.3783 I-0.013 J-0.1253
G1 X10.434 Y3.3646
G2 X10.4353 Y3.3644 I-0.0143 J-0.1252
G1 X10.554 Y3.3497
G2 X10.5553 Y3.3495 I-0.0155 J-0.125
G1 X10.6741 Y3.3335
G2 X10.6754 Y3.3333 I-0.0168 J-0.1249
G1 X10.7944 Y3.316
G2 X10.7957 Y3.3158 I-0.0181 J-0.1247
G1 X10.9148 Y3.2973
G2 X10.9161 Y3.297 I-0.0194 J-0.1245
G1 X11.0377 Y3.2767
G2 X11.0391 Y3.2765 I-0.0208 J-0.1243
G1 X11.1606 Y3.2547
G2 X11.162 Y3.2545 I-0.0222 J-0.124
G1 X11.2833 Y3.2314
G2 X11.2846 Y3.2311 I-0.0236 J-0.1238
G1 X11.4057 Y3.2067
G2 X11.4071 Y3.2064 I-0.0249 J-0.1235
G1 X11.5277 Y3.1807
G2 X11.529 Y3.1804 I-0.0263 J-0.1232
G1 X11.6491 Y3.1534
G2 X11.6505 Y3.1531 I-0.0276 J-0.1229
G1 X11.7701 Y3.1249
G2 X11.7708 Y3.1247 I-0.0289 J-0.1226
X12.3698 Y2.6112 I-0.2036 J-0.8436
G1 X12.5516 Y2.1689
G2 X12.555 Y2.0821 I-0.1165 J-0.0479
G1 X12.4558 Y1.7766
X12.7047 Y1.6874
G2 X12.7787 Y1.6167 I-0.0425 J-0.1186
G1 X12.9085 Y1.3011
G2 X12.7472 Y1.1354 I-0.1165 J-0.0479
G1 X12.6295 Y1.1802
X12.5119 Y1.2233
X12.3938 Y1.2651
X12.2751 Y1.3057
X12.1559 Y1.3449
X12.0361 Y1.3828
X11.9155 Y1.4195
G2 X11.8468 Y1.8678 I0.0719 J0.2405
G3 X11.9474 Y2.6043 I-0.2796 J0.4133
X11.2044 Y2.6238 I-0.3802 J-0.3231
G2 X10.7921 Y2.695 I-0.1825 J0.1723
G3 X10.0923 Y2.9297 I-0.4567 J-0.201
X9.9244 Y2.2109 I0.2431 J-0.4358
G2 X9.7004 Y1.8182 I-0.2067 J-0.1424
G1 X9.5974 Y1.8249
X9.4945 Y1.8308
X9.3911 Y1.8359
G2 X9.2136 Y2.2518 I0.0115 J0.2507
G3 X9.1396 Y2.9776 I-0.3758 J0.3284
X8.4206 Y2.8538 I-0.3017 J-0.3975
G2 X8.0023 Y2.8516 I-0.2099 J0.1376
G3 X7.2903 Y2.9741 I-0.4144 J-0.278
X7.2021 Y2.2571 I0.2976 J-0.4006
G2 X7.0061 Y1.8469 I-0.1941 J-0.1592
G1 X6.9531 Y1.8473
G3 X6.9279 Y1.8224 I-0.0002 J-0.025
G1 X6.9278 Y1.7974
X6.9277 Y1.7935 Z-0.2708
Y1.7897 Z-0.2698
Y1.7861 Z-0.2683
Y1.7827 Z-0.2663
Y1.7797 Z-0.2637
X6.9276 Y1.7772 Z-0.2608
Y1.7751 Z-0.2574
Y1.7736 Z-0.2538
Y1.7727 Z-0.25
Y1.7724 Z-0.2461
Z-0.075
X7.6742 Y1.3254
X7.6745 Z-0.0789 F4.
X7.6754 Y1.3256 Z-0.0827
X7.6769 Y1.3258 Z-0.0863
X7.6789 Y1.3262 Z-0.0897
X7.6814 Y1.3266 Z-0.0927
X7.6843 Y1.327 Z-0.0952
X7.6876 Y1.3276 Z-0.0973
X7.6912 Y1.3282 Z-0.0988
X7.695 Y1.3288 Z-0.0997
X7.6988 Y1.3294 Z-0.1
X7.7235 Y1.3334 F12.
G3 X7.7442 Y1.362 I-0.004 J0.0247
G2 X7.9939 Y1.6531 I0.2478 J0.04
G1 X8.1621 Y1.652
X8.3303 Y1.6531
G2 X8.5263 Y1.2429 I0.0019 J-0.251
G3 X8.6145 Y0.5259 I0.3858 J-0.3165
X9.3265 Y0.6484 I0.2976 J0.4006
G2 X9.7448 Y0.6462 I0.2084 J-0.1398
G3 X10.4638 Y0.5224 I0.4173 J0.2736
X10.5378 Y1.2482 I-0.3017 J0.3975
G2 X10.7153 Y1.6641 I0.189 J0.1652
G1 X10.8195 Y1.6692
X10.9225 Y1.6751
X11.0247 Y1.6818
G2 X11.2486 Y1.2891 I0.0172 J-0.2504
G3 X11.4165 Y0.5703 I0.411 J-0.283
X12.1163 Y0.805 I0.2431 J0.4358
G2 X12.5285 Y0.8763 I0.2297 J-0.1011
G3 X13.2716 Y0.8957 I0.3628 J0.3426
X13.1709 Y1.6322 I-0.3802 J0.3231
G2 X13.2397 Y2.0805 I0.1406 J0.2079
G1 X13.3605 Y2.1172
X13.4804 Y2.1551
X13.5996 Y2.1943
X13.7183 Y2.2348
X13.8363 Y2.2767
X13.9538 Y2.3199
X14.0714 Y2.3646
G2 X14.2327 Y2.1989 I0.0448 J-0.1178
G1 X14.1029 Y1.8833
G2 X14.0289 Y1.8126 I-0.1165 J0.0479
G1 X13.78 Y1.7234
X13.8791 Y1.4179
G2 X13.8758 Y1.3311 I-0.1198 J-0.0389
G1 X13.6939 Y0.8888
G2 X13.095 Y0.3753 I-0.8026 J0.3301
X13.0944 Y0.3751 I-0.0296 J0.1225
G1 X12.9749 Y0.3469
G2 X12.9736 Y0.3466 I-0.0289 J0.1226
G1 X12.8537 Y0.3197
G2 X12.8524 Y0.3194 I-0.0276 J0.1229
G1 X12.732 Y0.2938
G2 X12.7307 Y0.2935 I-0.0263 J0.1232
G1 X12.6099 Y0.2691
G2 X12.6085 Y0.2688 I-0.0249 J0.1235
G1 X12.4875 Y0.2458
G2 X12.4861 Y0.2455 I-0.0236 J0.1238
G1 X12.3671 Y0.2242
G2 X12.3657 Y0.224 I-0.0222 J0.124
G1 X12.2466 Y0.204
G2 X12.2452 Y0.2038 I-0.0208 J0.1243
G1 X12.1262 Y0.1851
G2 X12.1249 Y0.1849 I-0.0195 J0.1245
G1 X12.0058 Y0.1676
G2 X12.0045 Y0.1674 I-0.0182 J0.1247
G1 X11.8832 Y0.151
G2 X11.8819 Y0.1508 I-0.0169 J0.1249
G1 X11.7608 Y0.1357
G2 X11.7595 Y0.1356 I-0.0156 J0.125
G1 X11.6386 Y0.1218
G2 X11.6373 Y0.1216 I-0.0143 J0.1252
G1 X11.5164 Y0.1091
G2 X11.5152 Y0.1089 I-0.013 J0.1253
G1 X11.3945 Y0.0975
G2 X11.3933 Y0.0974 I-0.0118 J0.1254
G1 X11.2728 Y0.0872
G2 X11.2716 Y0.0871 I-0.0106 J0.1255
G1 X11.1511 Y0.078
G2 X11.0159 Y0.1965 I-0.0095 J0.1256
G1 X11.0089 Y0.319
X10.8861 Y0.312
X10.8931 Y0.1895
G2 X10.7722 Y0.0564 I-0.1258 J-0.0072
G1 X10.6372 Y0.0511
G2 X10.636 I-0.0049 J0.1259
G1 X10.5015 Y0.047
G2 X10.5004 I-0.0038 J0.1259
G1 X10.3666 Y0.0441
G2 X10.3656 I-0.0027 J0.126
G1 X10.2327 Y0.0422
G2 X10.2319 I-0.0018 J0.126
G1 X10.1002 Y0.0411
G2 X10.0995 I-0.001 J0.126
G1 X9.9691 Y0.0408
G2 X9.9686 I-0.0003 J0.126
G1 X9.8468 Y0.041
G2 X9.8464 I0.0002 J0.126
G1 X9.7258 Y0.0417
X9.7255
X9.606 Y0.0426
X9.6058
X9.4874 Y0.0436
X9.4873
X9.3699 Y0.0448
X9.273 Y0.0457
X9.177 Y0.0465
X9.0819 Y0.0472
X8.9879 Y0.0477
X8.895 Y0.0479
X8.8026
X8.7149 Y0.0475
X8.6261 Y0.0469
X8.5358 Y0.0462
X8.4439 Y0.0453
X8.3507 Y0.0445
G2 X8.2236 Y0.1705 I-0.0011 J0.126
G1 Y0.2934
X8.1006
Y0.1705
G2 X7.9735 Y0.0445 I-0.126 J0.
G1 X7.8889 Y0.0452
X7.8053 Y0.046
X7.7231 Y0.0467
X7.6421 Y0.0473
X7.5622 Y0.0477
X7.4586 Y0.048
X7.3548 Y0.0478
X7.2497 Y0.0473
X7.1355 Y0.0464
X7.02 Y0.0454
X6.9033 Y0.0443
X6.7855 Y0.0432
X6.7853
X6.6664 Y0.0422
X6.6662 Y0.0421
X6.5462 Y0.0414
X6.5459
X6.4248 Y0.0409
G2 X6.4243 I-0.0005 J0.126
G1 X6.3021
G2 X6.3015 I0. J0.126
G1 X6.1781 Y0.0414
G2 X6.1774 I0.0006 J0.126
G1 X6.0528 Y0.0426
G2 X6.052 I0.0012 J0.126
G1 X5.9287 Y0.0446
G2 X5.9278 I0.002 J0.126
G1 X5.8037 Y0.0475
G2 X5.8027 I0.0029 J0.126
G1 X5.6781 Y0.0514
G2 X5.677 Y0.0515 I0.0039 J0.1259
G1 X5.552 Y0.0564
G2 X5.4311 Y0.1895 I0.005 J0.1259
G1 X5.4381 Y0.312
X5.3153 Y0.319
X5.3083 Y0.1965
G2 X5.173 Y0.078 I-0.1258 J0.0072
G1 X5.0528 Y0.0871
G2 X5.0517 Y0.0872 I0.0095 J0.1256
G1 X4.9314 Y0.0974
G2 X4.9302 Y0.0975 I0.0106 J0.1256
G1 X4.8098 Y0.1089
G2 X4.8086 Y0.109 I0.0118 J0.1254
G1 X4.688 Y0.1215
G2 X4.6867 Y0.1217 I0.013 J0.1253
G1 X4.566 Y0.1354
G2 X4.5647 Y0.1356 I0.0143 J0.1252
G1 X4.446 Y0.1503
G2 X4.4447 Y0.1505 I0.0155 J0.125
G1 X4.3259 Y0.1665
G2 X4.3246 Y0.1667 I0.0168 J0.1249
G1 X4.2056 Y0.184
G2 X4.2043 Y0.1842 I0.0181 J0.1247
G1 X4.0852 Y0.2027
G2 X4.0839 Y0.203 I0.0194 J0.1245
G1 X3.9623 Y0.2233
G2 X3.9609 Y0.2235 I0.0208 J0.1243
G1 X3.8394 Y0.2453
G2 X3.8381 Y0.2455 I0.0222 J0.124
G1 X3.7167 Y0.2686
G2 X3.7154 Y0.2689 I0.0236 J0.1238
G1 X3.5943 Y0.2933
G2 X3.593 Y0.2936 I0.0249 J0.1235
G1 X3.4723 Y0.3193
G2 X3.471 Y0.3196 I0.0263 J0.1232
G1 X3.3509 Y0.3466
G2 X3.3496 Y0.3469 I0.0276 J0.1229
G1 X3.2299 Y0.3751
G2 X3.2292 Y0.3753 I0.0289 J0.1226
X2.6302 Y0.8888 I0.2036 J0.8436
G1 X2.4484 Y1.3311
G2 X2.445 Y1.4179 I0.1165 J0.0479
G1 X2.5442 Y1.7234
X2.2953 Y1.8126
G2 X2.2213 Y1.8833 I0.0425 J0.1186
G1 X2.0915 Y2.1989
G2 X2.2528 Y2.3646 I0.1165 J0.0479
G1 X2.3705 Y2.3198
X2.4881 Y2.2767
X2.6062 Y2.2349
X2.7248 Y2.1943
X2.8441 Y2.1551
X2.9639 Y2.1172
X3.0845 Y2.0805
G2 X3.1532 Y1.6322 I-0.0719 J-0.2405
G3 X3.0526 Y0.8957 I0.2796 J-0.4133
X3.7956 Y0.8762 I0.3802 J0.3231
G2 X4.2079 Y0.805 I0.1825 J-0.1723
G3 X4.9077 Y0.5703 I0.4567 J0.201
X5.0756 Y1.2891 I-0.2431 J0.4358
G2 X5.2996 Y1.6818 I0.2067 J0.1424
G1 X5.4026 Y1.6751
X5.5055 Y1.6692
X5.6089 Y1.6641
G2 X5.7864 Y1.2482 I-0.0115 J-0.2507
G3 X5.8604 Y0.5224 I0.3758 J-0.3284
X6.5794 Y0.6462 I0.3017 J0.3975
G2 X6.9977 Y0.6484 I0.2099 J-0.1376
G3 X7.7097 Y0.5259 I0.4144 J0.278
X7.7979 Y1.2429 I-0.2976 J0.4006
G2 X7.7481 Y1.4613 I0.1941 J0.1592
G3 X7.7297 Y1.4915 I-0.0243 J0.0059
G1 X7.7054 Y1.4974
X7.7016 Y1.4983 Z-0.0997
X7.6979 Y1.4992 Z-0.0988
X7.6944 Y1.5001 Z-0.0973
X7.6911 Y1.5009 Z-0.0952
X7.6882 Y1.5016 Z-0.0927
X7.6858 Y1.5022 Z-0.0897
X7.6838 Y1.5027 Z-0.0863
X7.6823 Y1.503 Z-0.0827
X7.6814 Y1.5032 Z-0.0789
X7.6811 Y1.5033 Z-0.075
X7.6742 Y1.3254
Z-0.175 F4.
X7.6745 Z-0.1789
X7.6754 Y1.3256 Z-0.1827
X7.6769 Y1.3258 Z-0.1863
X7.6789 Y1.3262 Z-0.1897
X7.6814 Y1.3266 Z-0.1927
X7.6843 Y1.327 Z-0.1952
X7.6876 Y1.3276 Z-0.1973
X7.6912 Y1.3282 Z-0.1988
X7.695 Y1.3288 Z-0.1997
X7.6988 Y1.3294 Z-0.2
X7.7235 Y1.3334 F12.
G3 X7.7442 Y1.362 I-0.004 J0.0247
G2 X7.9939 Y1.6531 I0.2478 J0.04
G1 X8.1621 Y1.652
X8.3303 Y1.6531
G2 X8.5263 Y1.2429 I0.0019 J-0.251
G3 X8.6145 Y0.5259 I0.3858 J-0.3165
X9.3265 Y0.6484 I0.2976 J0.4006
G2 X9.7448 Y0.6462 I0.2084 J-0.1398
G3 X10.4638 Y0.5224 I0.4173 J0.2736
X10.5378 Y1.2482 I-0.3017 J0.3975
G2 X10.7153 Y1.6641 I0.189 J0.1652
G1 X10.8195 Y1.6692
X10.9225 Y1.6751
X11.0247 Y1.6818
G2 X11.2486 Y1.2891 I0.0172 J-0.2504
G3 X11.4165 Y0.5703 I0.411 J-0.283
X12.1163 Y0.805 I0.2431 J0.4358
G2 X12.5285 Y0.8763 I0.2297 J-0.1011
G3 X13.2716 Y0.8957 I0.3628 J0.3426
X13.1709 Y1.6322 I-0.3802 J0.3231
G2 X13.2397 Y2.0805 I0.1406 J0.2079
G1 X13.3605 Y2.1172
X13.4804 Y2.1551
X13.5996 Y2.1943
X13.7183 Y2.2348
X13.8363 Y2.2767
X13.9538 Y2.3199
X14.0714 Y2.3646
G2 X14.2327 Y2.1989 I0.0448 J-0.1178
G1 X14.1029 Y1.8833
G2 X14.0289 Y1.8126 I-0.1165 J0.0479
G1 X13.78 Y1.7234
X13.8791 Y1.4179
G2 X13.8758 Y1.3311 I-0.1198 J-0.0389
G1 X13.6939 Y0.8888
G2 X13.095 Y0.3753 I-0.8026 J0.3301
X13.0944 Y0.3751 I-0.0296 J0.1225
G1 X12.9749 Y0.3469
G2 X12.9736 Y0.3466 I-0.0289 J0.1226
G1 X12.8537 Y0.3197
G2 X12.8524 Y0.3194 I-0.0276 J0.1229
G1 X12.732 Y0.2938
G2 X12.7307 Y0.2935 I-0.0263 J0.1232
G1 X12.6099 Y0.2691
G2 X12.6085 Y0.2688 I-0.0249 J0.1235
G1 X12.4875 Y0.2458
G2 X12.4861 Y0.2455 I-0.0236 J0.1238
G1 X12.3671 Y0.2242
G2 X12.3657 Y0.224 I-0.0222 J0.124
G1 X12.2466 Y0.204
G2 X12.2452 Y0.2038 I-0.0208 J0.1243
G1 X12.1262 Y0.1851
G2 X12.1249 Y0.1849 I-0.0195 J0.1245
G1 X12.0058 Y0.1676
G2 X12.0045 Y0.1674 I-0.0182 J0.1247
G1 X11.8832 Y0.151
G2 X11.8819 Y0.1508 I-0.0169 J0.1249
G1 X11.7608 Y0.1357
G2 X11.7595 Y0.1356 I-0.0156 J0.125
G1 X11.6386 Y0.1218
G2 X11.6373 Y0.1216 I-0.0143 J0.1252
G1 X11.5164 Y0.1091
G2 X11.5152 Y0.1089 I-0.013 J0.1253
G1 X11.3945 Y0.0975
G2 X11.3933 Y0.0974 I-0.0118 J0.1254
G1 X11.2728 Y0.0872
G2 X11.2716 Y0.0871 I-0.0106 J0.1255
G1 X11.1511 Y0.078
G2 X11.0159 Y0.1965 I-0.0095 J0.1256
G1 X11.0089 Y0.319
X10.8861 Y0.312
X10.8931 Y0.1895
G2 X10.7722 Y0.0564 I-0.1258 J-0.0072
G1 X10.6372 Y0.0511
G2 X10.636 I-0.0049 J0.1259
G1 X10.5015 Y0.047
G2 X10.5004 I-0.0038 J0.1259
G1 X10.3666 Y0.0441
G2 X10.3656 I-0.0027 J0.126
G1 X10.2327 Y0.0422
G2 X10.2319 I-0.0018 J0.126
G1 X10.1002 Y0.0411
G2 X10.0995 I-0.001 J0.126
G1 X9.9691 Y0.0408
G2 X9.9686 I-0.0003 J0.126
G1 X9.8468 Y0.041
G2 X9.8464 I0.0002 J0.126
G1 X9.7258 Y0.0417
X9.7255
X9.606 Y0.0426
X9.6058
X9.4874 Y0.0436
X9.4873
X9.3699 Y0.0448
X9.273 Y0.0457
X9.177 Y0.0465
X9.0819 Y0.0472
X8.9879 Y0.0477
X8.895 Y0.0479
X8.8026
X8.7149 Y0.0475
X8.6261 Y0.0469
X8.5358 Y0.0462
X8.4439 Y0.0453
X8.3507 Y0.0445
G2 X8.2236 Y0.1705 I-0.0011 J0.126
G1 Y0.2934
X8.1006
Y0.1705
G2 X7.9735 Y0.0445 I-0.126 J0.
G1 X7.8889 Y0.0452
X7.8053 Y0.046
X7.7231 Y0.0467
X7.6421 Y0.0473
X7.5622 Y0.0477
X7.4586 Y0.048
X7.3548 Y0.0478
X7.2497 Y0.0473
X7.1355 Y0.0464
X7.02 Y0.0454
X6.9033 Y0.0443
X6.7855 Y0.0432
X6.7853
X6.6664 Y0.0422
X6.6662 Y0.0421
X6.5462 Y0.0414
X6.5459
X6.4248 Y0.0409
G2 X6.4243 I-0.0005 J0.126
G1 X6.3021
G2 X6.3015 I0. J0.126
G1 X6.1781 Y0.0414
G2 X6.1774 I0.0006 J0.126
G1 X6.0528 Y0.0426
G2 X6.052 I0.0012 J0.126
G1 X5.9287 Y0.0446
G2 X5.9278 I0.002 J0.126
G1 X5.8037 Y0.0475
G2 X5.8027 I0.0029 J0.126
G1 X5.6781 Y0.0514
G2 X5.677 Y0.0515 I0.0039 J0.1259
G1 X5.552 Y0.0564
G2 X5.4311 Y0.1895 I0.005 J0.1259
G1 X5.4381 Y0.312
X5.3153 Y0.319
X5.3083 Y0.1965
G2 X5.173 Y0.078 I-0.1258 J0.0072
G1 X5.0528 Y0.0871
G2 X5.0517 Y0.0872 I0.0095 J0.1256
G1 X4.9314 Y0.0974
G2 X4.9302 Y0.0975 I0.0106 J0.1256
G1 X4.8098 Y0.1089
G2 X4.8086 Y0.109 I0.0118 J0.1254
G1 X4.688 Y0.1215
G2 X4.6867 Y0.1217 I0.013 J0.1253
G1 X4.566 Y0.1354
G2 X4.5647 Y0.1356 I0.0143 J0.1252
G1 X4.446 Y0.1503
G2 X4.4447 Y0.1505 I0.0155 J0.125
G1 X4.3259 Y0.1665
G2 X4.3246 Y0.1667 I0.0168 J0.1249
G1 X4.2056 Y0.184
G2 X4.2043 Y0.1842 I0.0181 J0.1247
G1 X4.0852 Y0.2027
G2 X4.0839 Y0.203 I0.0194 J0.1245
G1 X3.9623 Y0.2233
G2 X3.9609 Y0.2235 I0.0208 J0.1243
G1 X3.8394 Y0.2453
G2 X3.8381 Y0.2455 I0.0222 J0.124
G1 X3.7167 Y0.2686
G2 X3.7154 Y0.2689 I0.0236 J0.1238
G1 X3.5943 Y0.2933
G2 X3.593 Y0.2936 I0.0249 J0.1235
G1 X3.4723 Y0.3193
G2 X3.471 Y0.3196 I0.0263 J0.1232
G1 X3.3509 Y0.3466
G2 X3.3496 Y0.3469 I0.0276 J0.1229
G1 X3.2299 Y0.3751
G2 X3.2292 Y0.3753 I0.0289 J0.1226
X2.6302 Y0.8888 I0.2036 J0.8436
G1 X2.4484 Y1.3311
G2 X2.445 Y1.4179 I0.1165 J0.0479
G1 X2.5442 Y1.7234
X2.2953 Y1.8126
G2 X2.2213 Y1.8833 I0.0425 J0.1186
G1 X2.0915 Y2.1989
G2 X2.2528 Y2.3646 I0.1165 J0.0479
G1 X2.3705 Y2.3198
X2.4881 Y2.2767
X2.6062 Y2.2349
X2.7248 Y2.1943
X2.8441 Y2.1551
X2.9639 Y2.1172
X3.0845 Y2.0805
G2 X3.1532 Y1.6322 I-0.0719 J-0.2405
G3 X3.0526 Y0.8957 I0.2796 J-0.4133
X3.7956 Y0.8762 I0.3802 J0.3231
G2 X4.2079 Y0.805 I0.1825 J-0.1723
G3 X4.9077 Y0.5703 I0.4567 J0.201
X5.0756 Y1.2891 I-0.2431 J0.4358
G2 X5.2996 Y1.6818 I0.2067 J0.1424
G1 X5.4026 Y1.6751
X5.5055 Y1.6692
X5.6089 Y1.6641
G2 X5.7864 Y1.2482 I-0.0115 J-0.2507
G3 X5.8604 Y0.5224 I0.3758 J-0.3284
X6.5794 Y0.6462 I0.3017 J0.3975
G2 X6.9977 Y0.6484 I0.2099 J-0.1376
G3 X7.7097 Y0.5259 I0.4144 J0.278
X7.7979 Y1.2429 I-0.2976 J0.4006
G2 X7.7481 Y1.4613 I0.1941 J0.1592
G3 X7.7297 Y1.4915 I-0.0243 J0.0059
G1 X7.7054 Y1.4974
X7.7016 Y1.4983 Z-0.1997
X7.6979 Y1.4992 Z-0.1988
X7.6944 Y1.5001 Z-0.1973
X7.6911 Y1.5009 Z-0.1952
X7.6882 Y1.5016 Z-0.1927
X7.6858 Y1.5022 Z-0.1897
X7.6838 Y1.5027 Z-0.1863
X7.6823 Y1.503 Z-0.1827
X7.6814 Y1.5032 Z-0.1789
X7.6811 Y1.5033 Z-0.175
X7.6742 Y1.3254
Z-0.2461 F4.
X7.6745 Z-0.25
X7.6754 Y1.3256 Z-0.2538
X7.6769 Y1.3258 Z-0.2574
X7.6789 Y1.3262 Z-0.2608
X7.6814 Y1.3266 Z-0.2637
X7.6843 Y1.327 Z-0.2663
X7.6876 Y1.3276 Z-0.2683
X7.6912 Y1.3282 Z-0.2698
X7.695 Y1.3288 Z-0.2708
X7.6988 Y1.3294 Z-0.2711
X7.7235 Y1.3334 F12.
G3 X7.7442 Y1.362 I-0.004 J0.0247
G2 X7.9939 Y1.6531 I0.2478 J0.04
G1 X8.1621 Y1.652
X8.3303 Y1.6531
G2 X8.5263 Y1.2429 I0.0019 J-0.251
G3 X8.6145 Y0.5259 I0.3858 J-0.3165
X9.3265 Y0.6484 I0.2976 J0.4006
G2 X9.7448 Y0.6462 I0.2084 J-0.1398
G3 X10.4638 Y0.5224 I0.4173 J0.2736
X10.5378 Y1.2482 I-0.3017 J0.3975
G2 X10.7153 Y1.6641 I0.189 J0.1652
G1 X10.8195 Y1.6692
X10.9225 Y1.6751
X11.0247 Y1.6818
G2 X11.2486 Y1.2891 I0.0172 J-0.2504
G3 X11.4165 Y0.5703 I0.411 J-0.283
X12.1163 Y0.805 I0.2431 J0.4358
G2 X12.5285 Y0.8763 I0.2297 J-0.1011
G3 X13.2716 Y0.8957 I0.3628 J0.3426
X13.1709 Y1.6322 I-0.3802 J0.3231
G2 X13.2397 Y2.0805 I0.1406 J0.2079
G1 X13.3605 Y2.1172
X13.4804 Y2.1551
X13.5996 Y2.1943
X13.7183 Y2.2348
X13.8363 Y2.2767
X13.9538 Y2.3199
X14.0714 Y2.3646
G2 X14.2327 Y2.1989 I0.0448 J-0.1178
G1 X14.1029 Y1.8833
G2 X14.0289 Y1.8126 I-0.1165 J0.0479
G1 X13.78 Y1.7234
X13.8791 Y1.4179
G2 X13.8758 Y1.3311 I-0.1198 J-0.0389
G1 X13.6939 Y0.8888
G2 X13.095 Y0.3753 I-0.8026 J0.3301
X13.0944 Y0.3751 I-0.0296 J0.1225
G1 X12.9749 Y0.3469
G2 X12.9736 Y0.3466 I-0.0289 J0.1226
G1 X12.8537 Y0.3197
G2 X12.8524 Y0.3194 I-0.0276 J0.1229
G1 X12.732 Y0.2938
G2 X12.7307 Y0.2935 I-0.0263 J0.1232
G1 X12.6099 Y0.2691
G2 X12.6085 Y0.2688 I-0.0249 J0.1235
G1 X12.4875 Y0.2458
G2 X12.4861 Y0.2455 I-0.0236 J0.1238
G1 X12.3671 Y0.2242
G2 X12.3657 Y0.224 I-0.0222 J0.124
G1 X12.2466 Y0.204
G2 X12.2452 Y0.2038 I-0.0208 J0.1243
G1 X12.1262 Y0.1851
G2 X12.1249 Y0.1849 I-0.0195 J0.1245
G1 X12.0058 Y0.1676
G2 X12.0045 Y0.1674 I-0.0182 J0.1247
G1 X11.8832 Y0.151
G2 X11.8819 Y0.1508 I-0.0169 J0.1249
G1 X11.7608 Y0.1357
G2 X11.7595 Y0.1356 I-0.0156 J0.125
G1 X11.6386 Y0.1218
G2 X11.6373 Y0.1216 I-0.0143 J0.1252
G1 X11.5164 Y0.1091
G2 X11.5152 Y0.1089 I-0.013 J0.1253
G1 X11.3945 Y0.0975
G2 X11.3933 Y0.0974 I-0.0118 J0.1254
G1 X11.2728 Y0.0872
G2 X11.2716 Y0.0871 I-0.0106 J0.1255
G1 X11.1511 Y0.078
G2 X11.0159 Y0.1965 I-0.0095 J0.1256
G1 X11.0089 Y0.319
X10.8861 Y0.312
X10.8931 Y0.1895
G2 X10.7722 Y0.0564 I-0.1258 J-0.0072
G1 X10.6372 Y0.0511
G2 X10.636 I-0.0049 J0.1259
G1 X10.5015 Y0.047
G2 X10.5004 I-0.0038 J0.1259
G1 X10.3666 Y0.0441
G2 X10.3656 I-0.0027 J0.126
G1 X10.2327 Y0.0422
G2 X10.2319 I-0.0018 J0.126
G1 X10.1002 Y0.0411
G2 X10.0995 I-0.001 J0.126
G1 X9.9691 Y0.0408
G2 X9.9686 I-0.0003 J0.126
G1 X9.8468 Y0.041
G2 X9.8464 I0.0002 J0.126
G1 X9.7258 Y0.0417
X9.7255
X9.606 Y0.0426
X9.6058
X9.4874 Y0.0436
X9.4873
X9.3699 Y0.0448
X9.273 Y0.0457
X9.177 Y0.0465
X9.0819 Y0.0472
X8.9879 Y0.0477
X8.895 Y0.0479
X8.8026
X8.7149 Y0.0475
X8.6261 Y0.0469
X8.5358 Y0.0462
X8.4439 Y0.0453
X8.3507 Y0.0445
G2 X8.2236 Y0.1705 I-0.0011 J0.126
G1 Y0.2934
X8.1006
Y0.1705
G2 X7.9735 Y0.0445 I-0.126 J0.
G1 X7.8889 Y0.0452
X7.8053 Y0.046
X7.7231 Y0.0467
X7.6421 Y0.0473
X7.5622 Y0.0477
X7.4586 Y0.048
X7.3548 Y0.0478
X7.2497 Y0.0473
X7.1355 Y0.0464
X7.02 Y0.0454
X6.9033 Y0.0443
X6.7855 Y0.0432
X6.7853
X6.6664 Y0.0422
X6.6662 Y0.0421
X6.5462 Y0.0414
X6.5459
X6.4248 Y0.0409
G2 X6.4243 I-0.0005 J0.126
G1 X6.3021
G2 X6.3015 I0. J0.126
G1 X6.1781 Y0.0414
G2 X6.1774 I0.0006 J0.126
G1 X6.0528 Y0.0426
G2 X6.052 I0.0012 J0.126
G1 X5.9287 Y0.0446
G2 X5.9278 I0.002 J0.126
G1 X5.8037 Y0.0475
G2 X5.8027 I0.0029 J0.126
G1 X5.6781 Y0.0514
G2 X5.677 Y0.0515 I0.0039 J0.1259
G1 X5.552 Y0.0564
G2 X5.4311 Y0.1895 I0.005 J0.1259
G1 X5.4381 Y0.312
X5.3153 Y0.319
X5.3083 Y0.1965
G2 X5.173 Y0.078 I-0.1258 J0.0072
G1 X5.0528 Y0.0871
G2 X5.0517 Y0.0872 I0.0095 J0.1256
G1 X4.9314 Y0.0974
G2 X4.9302 Y0.0975 I0.0106 J0.1256
G1 X4.8098 Y0.1089
G2 X4.8086 Y0.109 I0.0118 J0.1254
G1 X4.688 Y0.1215
G2 X4.6867 Y0.1217 I0.013 J0.1253
G1 X4.566 Y0.1354
G2 X4.5647 Y0.1356 I0.0143 J0.1252
G1 X4.446 Y0.1503
G2 X4.4447 Y0.1505 I0.0155 J0.125
G1 X4.3259 Y0.1665
G2 X4.3246 Y0.1667 I0.0168 J0.1249
G1 X4.2056 Y0.184
G2 X4.2043 Y0.1842 I0.0181 J0.1247
G1 X4.0852 Y0.2027
G2 X4.0839 Y0.203 I0.0194 J0.1245
G1 X3.9623 Y0.2233
G2 X3.9609 Y0.2235 I0.0208 J0.1243
G1 X3.8394 Y0.2453
G2 X3.8381 Y0.2455 I0.0222 J0.124
G1 X3.7167 Y0.2686
G2 X3.7154 Y0.2689 I0.0236 J0.1238
G1 X3.5943 Y0.2933
G2 X3.593 Y0.2936 I0.0249 J0.1235
G1 X3.4723 Y0.3193
G2 X3.471 Y0.3196 I0.0263 J0.1232
G1 X3.3509 Y0.3466
G2 X3.3496 Y0.3469 I0.0276 J0.1229
G1 X3.2299 Y0.3751
G2 X3.2292 Y0.3753 I0.0289 J0.1226
X2.6302 Y0.8888 I0.2036 J0.8436
G1 X2.4484 Y1.3311
G2 X2.445 Y1.4179 I0.1165 J0.0479
G1 X2.5442 Y1.7234
X2.2953 Y1.8126
G2 X2.2213 Y1.8833 I0.0425 J0.1186
G1 X2.0915 Y2.1989
G2 X2.2528 Y2.3646 I0.1165 J0.0479
G1 X2.3705 Y2.3198
X2.4881 Y2.2767
X2.6062 Y2.2349
X2.7248 Y2.1943
X2.8441 Y2.1551
X2.9639 Y2.1172
X3.0845 Y2.0805
G2 X3.1532 Y1.6322 I-0.0719 J-0.2405
G3 X3.0526 Y0.8957 I0.2796 J-0.4133
X3.7956 Y0.8762 I0.3802 J0.3231
G2 X4.2079 Y0.805 I0.1825 J-0.1723
G3 X4.9077 Y0.5703 I0.4567 J0.201
X5.0756 Y1.2891 I-0.2431 J0.4358
G2 X5.2996 Y1.6818 I0.2067 J0.1424
G1 X5.4026 Y1.6751
X5.5055 Y1.6692
X5.6089 Y1.6641
G2 X5.7864 Y1.2482 I-0.0115 J-0.2507
G3 X5.8604 Y0.5224 I0.3758 J-0.3284
X6.5794 Y0.6462 I0.3017 J0.3975
G2 X6.9977 Y0.6484 I0.2099 J-0.1376
G3 X7.7097 Y0.5259 I0.4144 J0.278
X7.7979 Y1.2429 I-0.2976 J0.4006
G2 X7.7481 Y1.4613 I0.1941 J0.1592
G3 X7.7297 Y1.4915 I-0.0243 J0.0059
G1 X7.7054 Y1.4974
X7.7016 Y1.4983 Z-0.2708
X7.6979 Y1.4992 Z-0.2698
X7.6944 Y1.5001 Z-0.2683
X7.6911 Y1.5009 Z-0.2663
X7.6882 Y1.5016 Z-0.2637
X7.6858 Y1.5022 Z-0.2608
X7.6838 Y1.5027 Z-0.2574
X7.6823 Y1.503 Z-0.2538
X7.6814 Y1.5032 Z-0.25
X7.6811 Y1.5033 Z-0.2461
G0 Z0.6

(2D CONTOUR5)
M8
G0 X10.9943 Y1.7549
Z0.6
Z0.2
G1 Z0.08 F4.
Z-0.35
Y1.7546 Z-0.3539
Y1.7537 Z-0.3577
X10.9944 Y1.7522 Z-0.3613
X10.9946 Y1.7501 Z-0.3647
X10.9948 Y1.7476 Z-0.3677
X10.995 Y1.7446 Z-0.3702
X10.9952 Y1.7413 Z-0.3723
X10.9955 Y1.7377 Z-0.3738
X10.9957 Y1.7338 Z-0.3747
X10.996 Y1.7299 Z-0.375
X10.9977 Y1.705 F12.
G3 X11.0244 Y1.6818 I0.0249 J0.0017
G2 X11.2486 Y1.2891 I0.0175 J-0.2504
G3 X11.4165 Y0.5703 I0.411 J-0.283
X12.1163 Y0.805 I0.2431 J0.4358
G2 X12.5285 Y0.8763 I0.2297 J-0.1011
G3 X13.2716 Y0.8957 I0.3628 J0.3426
X13.1709 Y1.6322 I-0.3802 J0.3231
G2 X13.2397 Y2.0805 I0.1406 J0.2079
G1 X13.3603 Y2.1172
X13.4801 Y2.1551
X13.5994 Y2.1943
X13.718 Y2.2349
X13.8361 Y2.2767
X13.9537 Y2.3198
X14.0714 Y2.3646
G2 X14.2327 Y2.1989 I0.0448 J-0.1178
G1 X14.1029 Y1.8833
G2 X14.0289 Y1.8126 I-0.1165 J0.0479
G1 X13.78 Y1.7234
X13.8791 Y1.4179
G2 X13.8758 Y1.3311 I-0.1198 J-0.0389
G1 X13.8603 Y1.2933
G3 X13.8739 Y1.2606 I0.0231 J-0.0095
G1 X13.897 Y1.2511
X13.9006 Y1.2496 Z-0.3747
X13.9042 Y1.2482 Z-0.3738
X13.9075 Y1.2468 Z-0.3723
X13.9106 Y1.2455 Z-0.3702
X13.9134 Y1.2444 Z-0.3677
X13.9157 Y1.2434 Z-0.3647
X13.9176 Y1.2427 Z-0.3613
X13.919 Y1.2421 Z-0.3577
X13.9198 Y1.2417 Z-0.3539
X13.9201 Y1.2416 Z-0.35
G0 Z0.2
X10.9943 Y1.7539
G1 Z0.08 F4.
Z-0.35
Y1.7536 Z-0.3539
X10.9944 Y1.7527 Z-0.3577
X10.9945 Y1.7512 Z-0.3613
X10.9947 Y1.7491 Z-0.3647
X10.9948 Y1.7466 Z-0.3677
X10.995 Y1.7436 Z-0.3702
X10.9953 Y1.7403 Z-0.3723
X10.9955 Y1.7367 Z-0.3738
X10.9958 Y1.7329 Z-0.3747
X10.9961 Y1.7289 Z-0.375
X10.9978 Y1.704 F12.
G3 X11.0245 Y1.6808 I0.0249 J0.0017
G2 X11.2478 Y1.2896 I0.0174 J-0.2494
G3 X11.416 Y0.5694 I0.4118 J-0.2836
X12.1172 Y0.8046 I0.2436 J0.4367
G2 X12.5278 Y0.8756 I0.2288 J-0.1007
G3 X13.2723 Y0.8951 I0.3635 J0.3433
X13.1715 Y1.633 I-0.381 J0.3238
G2 X13.24 Y2.0796 I0.1401 J0.2071
G1 X13.3606 Y2.1162
X13.4804 Y2.1541
X13.5997 Y2.1934
X13.7183 Y2.2339
X13.8365 Y2.2757
X13.954 Y2.3189
X14.0717 Y2.3637
G2 X14.2318 Y2.1993 I0.0445 J-0.1168
G1 X14.102 Y1.8837
G2 X14.0285 Y1.8135 I-0.1156 J0.0475
G1 X13.7787 Y1.724
X13.8782 Y1.4176
G2 X13.8749 Y1.3315 I-0.1189 J-0.0386
G1 X13.8593 Y1.2936
G3 X13.873 Y1.261 I0.0231 J-0.0095
G1 X13.8961 Y1.2515
X13.8997 Y1.25 Z-0.3747
X13.9032 Y1.2486 Z-0.3738
X13.9066 Y1.2472 Z-0.3723
X13.9097 Y1.2459 Z-0.3702
X13.9124 Y1.2448 Z-0.3677
X13.9148 Y1.2438 Z-0.3647
X13.9167 Y1.243 Z-0.3613
X13.9181 Y1.2425 Z-0.3577
X13.9189 Y1.2421 Z-0.3539
X13.9192 Y1.242 Z-0.35
G0 Z0.6

(2D CONTOUR6)
M8
G0 X13.7965 Y0.941
Z0.6
Z0.2
G1 Z0.08 F4.
Z-0.35
X13.7962 Y0.9411 Z-0.3539
X13.7954 Y0.9415 Z-0.3577
X13.794 Y0.942 Z-0.3613
X13.7921 Y0.9428 Z-0.3647
X13.7897 Y0.9438 Z-0.3677
X13.787 Y0.9449 Z-0.3702
X13.7839 Y0.9462 Z-0.3723
X13.7805 Y0.9476 Z-0.3738
X13.777 Y0.949 Z-0.3747
X13.7734 Y0.9505 Z-0.375
X13.7503 Y0.96 F12.
G3 X13.7176 Y0.9464 I-0.0095 J-0.0231
G1 X13.6939 Y0.8888
G2 X13.095 Y0.3753 I-0.8026 J0.3301
X13.0944 Y0.3751 I-0.0296 J0.1225
G1 X12.9749 Y0.3469
G2 X12.9736 Y0.3466 I-0.0289 J0.1226
G1 X12.8537 Y0.3197
G2 X12.8524 Y0.3194 I-0.0276 J0.1229
G1 X12.732 Y0.2938
G2 X12.7307 Y0.2935 I-0.0263 J0.1232
G1 X12.6099 Y0.2691
G2 X12.6085 Y0.2688 I-0.0249 J0.1235
G1 X12.4875 Y0.2458
G2 X12.4861 Y0.2455 I-0.0236 J0.1238
G1 X12.3671 Y0.2242
G2 X12.3657 Y0.224 I-0.0222 J0.124
G1 X12.2466 Y0.204
G2 X12.2452 Y0.2038 I-0.0208 J0.1243
G1 X12.1262 Y0.1851
G2 X12.1249 Y0.1849 I-0.0195 J0.1245
G1 X12.0058 Y0.1676
G2 X12.0045 Y0.1674 I-0.0182 J0.1247
G1 X11.8832 Y0.151
G2 X11.8819 Y0.1508 I-0.0169 J0.1249
G1 X11.7608 Y0.1357
G2 X11.7595 Y0.1356 I-0.0156 J0.125
G1 X11.6386 Y0.1218
G2 X11.6373 Y0.1216 I-0.0143 J0.1252
G1 X11.5164 Y0.1091
G2 X11.5152 Y0.1089 I-0.013 J0.1253
G1 X11.3945 Y0.0975
G2 X11.3933 Y0.0974 I-0.0118 J0.1254
G1 X11.2728 Y0.0872
G2 X11.2716 Y0.0871 I-0.0106 J0.1255
G1 X11.1511 Y0.078
G2 X11.0159 Y0.1965 I-0.0095 J0.1256
G1 X11.0089 Y0.319
X10.8861 Y0.312
X10.8931 Y0.1895
G2 X10.7722 Y0.0564 I-0.1258 J-0.0072
G1 X10.6372 Y0.0511
G2 X10.636 I-0.0049 J0.1259
G1 X10.5015 Y0.047
G2 X10.5004 I-0.0038 J0.1259
G1 X10.3666 Y0.0441
G2 X10.3656 I-0.0027 J0.126
G1 X10.2327 Y0.0422
G2 X10.2319 I-0.0018 J0.126
G1 X10.1002 Y0.0411
G2 X10.0995 I-0.001 J0.126
G1 X9.9691 Y0.0408
G2 X9.9686 I-0.0003 J0.126
G1 X9.8468 Y0.041
G2 X9.8464 I0.0002 J0.126
G1 X9.7258 Y0.0417
X9.7255
X9.606 Y0.0426
X9.6058
X9.4874 Y0.0436
X9.4873
X9.3699 Y0.0448
X9.273 Y0.0457
X9.177 Y0.0465
X9.0819 Y0.0472
X8.9879 Y0.0477
X8.895 Y0.0479
X8.8026
X8.7149 Y0.0475
X8.6261 Y0.0469
X8.5358 Y0.0462
X8.4439 Y0.0453
X8.3507 Y0.0445
G2 X8.2236 Y0.1705 I-0.0011 J0.126
G1 Y0.2934
X8.1006
Y0.1705
G2 X7.9735 Y0.0445 I-0.126 J0.
G1 X7.8889 Y0.0452
X7.8053 Y0.046
X7.7231 Y0.0467
X7.6421 Y0.0473
X7.5622 Y0.0477
X7.4586 Y0.048
X7.3548 Y0.0478
X7.2497 Y0.0473
X7.1355 Y0.0464
X7.02 Y0.0454
X6.9033 Y0.0443
X6.7855 Y0.0432
X6.7853
X6.6664 Y0.0422
X6.6662 Y0.0421
X6.5462 Y0.0414
X6.5459
X6.4248 Y0.0409
G2 X6.4243 I-0.0005 J0.126
G1 X6.3021
G2 X6.3015 I0. J0.126
G1 X6.1781 Y0.0414
G2 X6.1774 I0.0006 J0.126
G1 X6.0528 Y0.0426
G2 X6.052 I0.0012 J0.126
G1 X5.9287 Y0.0446
G2 X5.9278 I0.002 J0.126
G1 X5.8037 Y0.0475
G2 X5.8027 I0.0029 J0.126
G1 X5.6781 Y0.0514
G2 X5.677 Y0.0515 I0.0039 J0.1259
G1 X5.552 Y0.0564
G2 X5.4311 Y0.1895 I0.005 J0.1259
G1 X5.4381 Y0.312
X5.3153 Y0.319
X5.3083 Y0.1965
G2 X5.173 Y0.078 I-0.1258 J0.0072
G1 X5.0528 Y0.0871
G2 X5.0517 Y0.0872 I0.0095 J0.1256
G1 X4.9314 Y0.0974
G2 X4.9302 Y0.0975 I0.0106 J0.1256
G1 X4.8098 Y0.1089
G2 X4.8086 Y0.109 I0.0118 J0.1254
G1 X4.688 Y0.1215
G2 X4.6867 Y0.1217 I0.013 J0.1253
G1 X4.566 Y0.1354
G2 X4.5647 Y0.1356 I0.0143 J0.1252
G1 X4.446 Y0.1503
G2 X4.4447 Y0.1505 I0.0155 J0.125
G1 X4.3259 Y0.1665
G2 X4.3246 Y0.1667 I0.0168 J0.1249
G1 X4.2056 Y0.184
G2 X4.2043 Y0.1842 I0.0181 J0.1247
G1 X4.0852 Y0.2027
G2 X4.0839 Y0.203 I0.0194 J0.1245
G1 X3.9623 Y0.2233
G2 X3.9609 Y0.2235 I0.0208 J0.1243
G1 X3.8394 Y0.2453
G2 X3.8381 Y0.2455 I0.0222 J0.124
G1 X3.7167 Y0.2686
G2 X3.7154 Y0.2689 I0.0236 J0.1238
G1 X3.5943 Y0.2933
G2 X3.593 Y0.2936 I0.0249 J0.1235
G1 X3.4723 Y0.3193
G2 X3.471 Y0.3196 I0.0263 J0.1232
G1 X3.3509 Y0.3466
G2 X3.3496 Y0.3469 I0.0276 J0.1229
G1 X3.2299 Y0.3751
G2 X3.2292 Y0.3753 I0.0289 J0.1226
X2.6302 Y0.8888 I0.2036 J0.8436
G1 X2.6065 Y0.9464
G3 X2.5739 Y0.96 I-0.0231 J-0.0095
G1 X2.5508 Y0.9505
X2.5472 Y0.949 Z-0.3747
X2.5436 Y0.9476 Z-0.3738
X2.5403 Y0.9462 Z-0.3723
X2.5372 Y0.9449 Z-0.3702
X2.5344 Y0.9438 Z-0.3677
X2.5321 Y0.9428 Z-0.3647
X2.5302 Y0.942 Z-0.3613
X2.5288 Y0.9415 Z-0.3577
X2.528 Y0.9411 Z-0.3539
X2.5277 Y0.941 Z-0.35
X2.5286 Y0.9414
X2.5289 Y0.9415 Z-0.3539 F4.
X2.5297 Y0.9419 Z-0.3577
X2.5311 Y0.9424 Z-0.3613
X2.533 Y0.9432 Z-0.3647
X2.5354 Y0.9442 Z-0.3677
X2.5381 Y0.9453 Z-0.3702
X2.5412 Y0.9466 Z-0.3723
X2.5446 Y0.948 Z-0.3738
X2.5481 Y0.9494 Z-0.3747
X2.5517 Y0.9509 Z-0.375
X2.5748 Y0.9604 F12.
G2 X2.6075 Y0.9468 I0.0095 J-0.0231
G1 X2.6312 Y0.8892
G3 X3.2294 Y0.3762 I0.8017 J0.3297
X3.2301 Y0.3761 I0.0293 J0.1215
G1 X3.3498 Y0.3479
G3 X3.3511 Y0.3476 I0.0287 J0.1217
G1 X3.4712 Y0.3206
G3 X3.4725 Y0.3203 I0.0274 J0.122
G1 X3.5932 Y0.2946
G3 X3.5945 Y0.2943 I0.0261 J0.1223
G1 X3.7155 Y0.2699
G3 X3.7169 Y0.2696 I0.0247 J0.1225
G1 X3.8382 Y0.2465
G3 X3.8396 Y0.2462 I0.0234 J0.1228
G1 X3.9611 Y0.2245
G3 X3.9625 Y0.2243 I0.022 J0.123
G1 X4.084 Y0.204
G3 X4.0854 Y0.2037 I0.0206 J0.1233
G1 X4.2044 Y0.1852
G3 X4.2057 Y0.185 I0.0193 J0.1235
G1 X4.3247 Y0.1677
G3 X4.326 Y0.1675 I0.018 J0.1237
G1 X4.4449 Y0.1515
G3 X4.4461 Y0.1513 I0.0167 J0.1239
G1 X4.5649 Y0.1366
G3 X4.5661 Y0.1364 I0.0154 J0.124
G1 X4.6869 Y0.1226
G3 X4.6881 Y0.1225 I0.0142 J0.1242
G1 X4.8087 Y0.11
G3 X4.8099 Y0.1098 I0.0129 J0.1243
G1 X4.9303 Y0.0985
G3 X4.9315 Y0.0984 I0.0117 J0.1244
G1 X5.0518 Y0.0882
G3 X5.0529 Y0.0881 I0.0106 J0.1246
G1 X5.1731 Y0.079
G3 X5.3073 Y0.1966 I0.0094 J0.1246
G1 X5.3144 Y0.3201
X5.4392 Y0.313
X5.4321 Y0.1894
G3 X5.552 Y0.0574 I0.1248 J-0.0071
G1 X5.677 Y0.0524
G3 X5.6781 I0.0049 J0.1249
G1 X5.8027 Y0.0485
G3 X5.8037 I0.0039 J0.1249
G1 X5.9278 Y0.0456
G3 X5.9287 I0.0029 J0.125
G1 X6.052 Y0.0436
G3 X6.0528 I0.002 J0.125
G1 X6.1774 Y0.0424
G3 X6.1781 I0.0012 J0.125
G1 X6.3015 Y0.0419
G3 X6.3021 I0.0005 J0.125
G1 X6.4243
G3 X6.4248 I0. J0.125
G1 X6.5459 Y0.0424
X6.5462
X6.6662 Y0.0431
X6.6664 Y0.0432
X6.7853 Y0.0442
X6.7854
X6.9033 Y0.0453
X7.02 Y0.0464
X7.1355 Y0.0474
X7.2497 Y0.0483
X7.3548 Y0.0488
X7.4586 Y0.049
X7.5622 Y0.0487
X7.6421 Y0.0483
X7.7231 Y0.0477
X7.8054 Y0.047
X7.8889 Y0.0462
X7.9735 Y0.0455
G3 X8.0996 Y0.1705 I0.0011 J0.125
G1 Y0.2944
X8.2246
Y0.1705
G3 X8.3507 Y0.0455 I0.125 J0.
G1 X8.4439 Y0.0463
X8.5358 Y0.0472
X8.6261 Y0.0479
X8.7149 Y0.0485
X8.8026 Y0.0489
X8.895
X8.9879 Y0.0487
X9.0819 Y0.0482
X9.177 Y0.0475
X9.273 Y0.0467
X9.3699 Y0.0458
X9.4873 Y0.0446
X9.4874
X9.6058 Y0.0436
X9.606
X9.7255 Y0.0427
X9.7258
X9.8464 Y0.042
G3 X9.8468 I0.0006 J0.125
G1 X9.9686 Y0.0418
G3 X9.9691 I0.0002 J0.125
G1 X10.0995 Y0.0421
G3 X10.1002 I-0.0003 J0.125
G1 X10.2319 Y0.0432
G3 X10.2327 I-0.001 J0.125
G1 X10.3656 Y0.0451
G3 X10.3665 I-0.0018 J0.125
G1 X10.5004 Y0.048
G3 X10.5015 I-0.0027 J0.125
G1 X10.636 Y0.0521
G3 X10.6371 I-0.0038 J0.1249
G1 X10.7722 Y0.0574
G3 X10.8921 Y0.1894 I-0.0049 J0.1249
G1 X10.885 Y0.313
X11.0098 Y0.3201
X11.0169 Y0.1966
G3 X11.1511 Y0.079 I0.1248 J0.0071
G1 X11.2715 Y0.0881
G3 X11.2727 Y0.0882 I-0.0094 J0.1246
G1 X11.3932 Y0.0984
G3 X11.3944 Y0.0985 I-0.0106 J0.1246
G1 X11.5151 Y0.1099
G3 X11.5163 Y0.11 I-0.0117 J0.1244
G1 X11.6372 Y0.1226
G3 X11.6384 Y0.1228 I-0.0129 J0.1243
G1 X11.7594 Y0.1366
G3 X11.7607 Y0.1367 I-0.0142 J0.1242
G1 X11.8818 Y0.1518
G3 X11.8831 Y0.152 I-0.0154 J0.124
G1 X12.0044 Y0.1684
G3 X12.0057 Y0.1686 I-0.0167 J0.1239
G1 X12.1247 Y0.1859
G3 X12.126 Y0.1861 I-0.018 J0.1237
G1 X12.2451 Y0.2047
G3 X12.2464 Y0.205 I-0.0193 J0.1235
G1 X12.3655 Y0.2249
G3 X12.3669 Y0.2252 I-0.0207 J0.1233
G1 X12.4859 Y0.2465
G3 X12.4873 Y0.2467 I-0.022 J0.123
G1 X12.6084 Y0.2698
G3 X12.6097 Y0.2701 I-0.0234 J0.1228
G1 X12.7305 Y0.2945
G3 X12.7318 Y0.2947 I-0.0247 J0.1225
G1 X12.8522 Y0.3204
G3 X12.8535 Y0.3207 I-0.0261 J0.1223
G1 X12.9734 Y0.3476
G3 X12.9747 Y0.3479 I-0.0274 J0.122
G1 X13.0941 Y0.3761
G3 X13.0948 Y0.3762 I-0.0287 J0.1217
X13.693 Y0.8892 I-0.2034 J0.8426
G1 X13.7167 Y0.9468
G2 X13.7493 Y0.9604 I0.0231 J-0.0095
G1 X13.7725 Y0.9509
X13.7761 Y0.9494 Z-0.3747
X13.7796 Y0.948 Z-0.3738
X13.783 Y0.9466 Z-0.3723
X13.786 Y0.9453 Z-0.3702
X13.7888 Y0.9442 Z-0.3677
X13.7912 Y0.9432 Z-0.3647
X13.7931 Y0.9424 Z-0.3613
X13.7944 Y0.9419 Z-0.3577
X13.7953 Y0.9415 Z-0.3539
X13.7956 Y0.9414 Z-0.35
G0 Z0.6

(2D CONTOUR7)
M8
G0 X2.4041 Y1.2416
Z0.6
Z0.2
G1 Z0.08 F4.
Z-0.35
X2.4043 Y1.2417 Z-0.3539
X2.4052 Y1.2421 Z-0.3577
X2.4066 Y1.2426 Z-0.3613
X2.4085 Y1.2434 Z-0.3647
X2.4108 Y1.2444 Z-0.3677
X2.4136 Y1.2455 Z-0.3702
X2.4167 Y1.2468 Z-0.3723
X2.42 Y1.2482 Z-0.3738
X2.4236 Y1.2496 Z-0.3747
X2.4272 Y1.2511 Z-0.375
X2.4503 Y1.2606 F12.
G3 X2.4639 Y1.2932 I-0.0095 J0.0231
G1 X2.4484 Y1.3311
G2 X2.445 Y1.4179 I0.1165 J0.0479
G1 X2.5442 Y1.7234
X2.2953 Y1.8126
G2 X2.2213 Y1.8833 I0.0425 J0.1186
G1 X2.0915 Y2.1989
G2 X2.2528 Y2.3646 I0.1165 J0.0479
G1 X2.3704 Y2.3199
X2.4879 Y2.2767
X2.6059 Y2.2349
X2.7246 Y2.1943
X2.8439 Y2.1551
X2.9637 Y2.1172
X3.0845 Y2.0805
G2 X3.1532 Y1.6322 I-0.0719 J-0.2405
G3 X3.0526 Y0.8957 I0.2796 J-0.4133
X3.7956 Y0.8762 I0.3802 J0.3231
G2 X4.2079 Y0.805 I0.1825 J-0.1723
G3 X4.9077 Y0.5703 I0.4567 J0.201
X5.0756 Y1.2891 I-0.2431 J0.4358
G2 X5.2374 Y1.6784 I0.2067 J0.1424
G3 X5.2575 Y1.7074 I-0.0045 J0.0246
G1 X5.253 Y1.732
X5.2523 Y1.7359 Z-0.3747
X5.2517 Y1.7396 Z-0.3738
X5.251 Y1.7432 Z-0.3723
X5.2504 Y1.7465 Z-0.3702
X5.2499 Y1.7494 Z-0.3677
X5.2494 Y1.7519 Z-0.3647
X5.2491 Y1.754 Z-0.3613
X5.2488 Y1.7554 Z-0.3577
X5.2486 Y1.7563 Z-0.3539
Y1.7566 Z-0.35
X5.2488 Y1.7557
Y1.7553 Z-0.3539 F4.
X5.249 Y1.7544 Z-0.3577
X5.2492 Y1.753 Z-0.3613
X5.2496 Y1.751 Z-0.3647
X5.2501 Y1.7484 Z-0.3677
X5.2506 Y1.7455 Z-0.3702
X5.2512 Y1.7422 Z-0.3723
X5.2518 Y1.7387 Z-0.3738
X5.2525 Y1.7349 Z-0.3747
X5.2532 Y1.7311 Z-0.375
X5.2577 Y1.7065 F12.
G2 X5.2376 Y1.6774 I-0.0246 J-0.0045
G3 X5.0764 Y1.2896 I0.0447 J-0.246
G2 X4.9082 Y0.5694 I-0.4118 J-0.2836
X4.207 Y0.8046 I-0.2436 J0.4366
G3 X3.7964 Y0.8756 I-0.2288 J-0.1007
G2 X3.0518 Y0.8951 I-0.3635 J0.3433
X3.1527 Y1.633 I0.381 J0.3238
G3 X3.0842 Y2.0796 I-0.1401 J0.2071
G1 X2.9634 Y2.1163
X2.8435 Y2.1542
X2.7243 Y2.1934
X2.6056 Y2.2339
X2.4875 Y2.2758
X2.37 Y2.3189
X2.2525 Y2.3637
G3 X2.0924 Y2.1993 I-0.0445 J-0.1168
G1 X2.2222 Y1.8837
G3 X2.2956 Y1.8135 I0.1156 J0.0475
G1 X2.5455 Y1.724
X2.446 Y1.4176
G3 X2.4493 Y1.3315 I0.1189 J-0.0386
G1 X2.4648 Y1.2936
G2 X2.4512 Y1.261 I-0.0231 J-0.0095
G1 X2.4281 Y1.2515
X2.4245 Y1.25 Z-0.3747
X2.421 Y1.2485 Z-0.3738
X2.4176 Y1.2472 Z-0.3723
X2.4145 Y1.2459 Z-0.3702
X2.4118 Y1.2448 Z-0.3677
X2.4094 Y1.2438 Z-0.3647
X2.4075 Y1.243 Z-0.3613
X2.4061 Y1.2424 Z-0.3577
X2.4053 Y1.2421 Z-0.3539
X2.405 Y1.242 Z-0.35
G0 Z0.6

(2D CONTOUR8)
M8
G0 X5.6683 Y1.7326
Z0.6
Z0.2
G1 Z0.08 F4.
Z-0.35
X5.6682 Y1.7323 Z-0.3539
X5.668 Y1.7314 Z-0.3577
X5.6675 Y1.73 Z-0.3613
X5.6669 Y1.728 Z-0.3647
X5.6662 Y1.7256 Z-0.3677
X5.6653 Y1.7227 Z-0.3702
X5.6643 Y1.7195 Z-0.3723
X5.6633 Y1.716 Z-0.3738
X5.6622 Y1.7124 Z-0.3747
X5.661 Y1.7086 Z-0.375
X5.6538 Y1.6847 F12.
G3 X5.6704 Y1.6535 I0.0239 J-0.0073
G2 X5.7864 Y1.2482 I-0.073 J-0.2401
G3 X5.8604 Y0.5224 I0.3758 J-0.3284
X6.5794 Y0.6462 I0.3017 J0.3975
G2 X6.9977 Y0.6484 I0.2099 J-0.1376
G3 X7.7097 Y0.5259 I0.4144 J0.278
X7.7979 Y1.2429 I-0.2976 J0.4006
G2 X7.9631 Y1.6514 I0.1941 J0.1592
G3 X7.985 Y1.6791 I-0.0029 J0.0248
G1 X7.9821 Y1.7039
X7.9817 Y1.7078 Z-0.3747
X7.9812 Y1.7116 Z-0.3738
X7.9808 Y1.7152 Z-0.3723
X7.9804 Y1.7185 Z-0.3702
X7.9801 Y1.7215 Z-0.3677
X7.9798 Y1.724 Z-0.3647
X7.9796 Y1.7261 Z-0.3613
X7.9794 Y1.7276 Z-0.3577
X7.9793 Y1.7285 Z-0.3539
X7.9792 Y1.7288 Z-0.35
X7.9794 Y1.7278
Y1.7275 Z-0.3539 F4.
X7.9795 Y1.7266 Z-0.3577
X7.9797 Y1.7251 Z-0.3613
X7.9799 Y1.723 Z-0.3647
X7.9802 Y1.7205 Z-0.3677
X7.9806 Y1.7175 Z-0.3702
X7.9809 Y1.7142 Z-0.3723
X7.9814 Y1.7106 Z-0.3738
X7.9818 Y1.7068 Z-0.3747
X7.9822 Y1.7029 Z-0.375
X7.9851 Y1.6781 F12.
G2 X7.9632 Y1.6504 I-0.0248 J-0.0029
G3 X7.7987 Y1.2435 I0.0288 J-0.2483
G2 X7.7103 Y0.5251 I-0.3866 J-0.3171
X6.9969 Y0.6479 I-0.2982 J0.4014
G3 X6.5802 Y0.6457 I-0.2076 J-0.1393
G2 X5.8598 Y0.5216 I-0.4181 J0.2742
X5.7856 Y1.2489 I0.3023 J0.3983
G3 X5.6701 Y1.6526 I-0.1882 J0.1645
G2 X5.6535 Y1.6838 I0.0073 J0.0239
G1 X5.6608 Y1.7077
X5.6619 Y1.7114 Z-0.3747
X5.663 Y1.7151 Z-0.3738
X5.6641 Y1.7185 Z-0.3723
X5.665 Y1.7217 Z-0.3702
X5.6659 Y1.7246 Z-0.3677
X5.6666 Y1.727 Z-0.3647
X5.6672 Y1.729 Z-0.3613
X5.6677 Y1.7304 Z-0.3577
X5.6679 Y1.7313 Z-0.3539
X5.668 Y1.7316 Z-0.35
G0 Z0.6

(2D CONTOUR9)
M8
G0 X10.6559 Y1.7326
Z0.6
Z0.2
G1 Z0.08 F4.
Z-0.35
X10.656 Y1.7323 Z-0.3539
X10.6563 Y1.7314 Z-0.3577
X10.6567 Y1.73 Z-0.3613
X10.6573 Y1.728 Z-0.3647
X10.658 Y1.7256 Z-0.3677
X10.6589 Y1.7227 Z-0.3702
X10.6599 Y1.7195 Z-0.3723
X10.6609 Y1.716 Z-0.3738
X10.662 Y1.7124 Z-0.3747
X10.6632 Y1.7086 Z-0.375
X10.6705 Y1.6847 F12.
G2 X10.6538 Y1.6535 I-0.0239 J-0.0073
G3 X10.5378 Y1.2482 I0.073 J-0.2402
G2 X10.4638 Y0.5224 I-0.3757 J-0.3284
X9.7448 Y0.6462 I-0.3017 J0.3975
G3 X9.3265 Y0.6484 I-0.2099 J-0.1376
G2 X8.6145 Y0.5259 I-0.4144 J0.278
X8.5263 Y1.2429 I0.2976 J0.4006
G3 X8.3611 Y1.6514 I-0.1941 J0.1592
G2 X8.3392 Y1.6791 I0.0029 J0.0248
G1 X8.3421 Y1.7039
X8.3425 Y1.7078 Z-0.3747
X8.343 Y1.7116 Z-0.3738
X8.3434 Y1.7152 Z-0.3723
X8.3438 Y1.7185 Z-0.3702
X8.3441 Y1.7215 Z-0.3677
X8.3444 Y1.724 Z-0.3647
X8.3446 Y1.7261 Z-0.3613
X8.3448 Y1.7276 Z-0.3577
X8.3449 Y1.7285 Z-0.3539
X8.345 Y1.7288 Z-0.35
X8.3448 Y1.7278
Y1.7275 Z-0.3539 F4.
X8.3447 Y1.7266 Z-0.3577
X8.3445 Y1.7251 Z-0.3613
X8.3443 Y1.723 Z-0.3647
X8.344 Y1.7205 Z-0.3677
X8.3437 Y1.7175 Z-0.3702
X8.3433 Y1.7142 Z-0.3723
X8.3429 Y1.7106 Z-0.3738
X8.3424 Y1.7068 Z-0.3747
X8.342 Y1.7029 Z-0.375
X8.3391 Y1.6781 F12.
G3 X8.361 Y1.6504 I0.0248 J-0.0029
G2 X8.5255 Y1.2435 I-0.0288 J-0.2483
G3 X8.6139 Y0.5251 I0.3866 J-0.3171
X9.3273 Y0.6479 I0.2982 J0.4014
G2 X9.7439 Y0.6457 I0.2076 J-0.1393
G3 X10.4644 Y0.5216 I0.4181 J0.2742
X10.5386 Y1.2489 I-0.3023 J0.3983
G2 X10.6541 Y1.6526 I0.1883 J0.1645
G3 X10.6707 Y1.6838 I-0.0073 J0.0239
G1 X10.6635 Y1.7077
X10.6623 Y1.7114 Z-0.3747
X10.6612 Y1.7151 Z-0.3738
X10.6602 Y1.7185 Z-0.3723
X10.6592 Y1.7217 Z-0.3702
X10.6583 Y1.7246 Z-0.3677
X10.6576 Y1.727 Z-0.3647
X10.657 Y1.729 Z-0.3613
X10.6566 Y1.7304 Z-0.3577
X10.6563 Y1.7313 Z-0.3539
X10.6562 Y1.7316 Z-0.35
G0 Z0.6

(2D CONTOUR10)
M8
G0 X13.9201 Y1.2416
Z0.6
Z0.2
G1 Z0.08 F4.
Z-0.35
X13.9198 Y1.2417 Z-0.3539
X13.919 Y1.2421 Z-0.3577
X13.9176 Y1.2427 Z-0.3613
X13.9157 Y1.2434 Z-0.3647
X13.9134 Y1.2444 Z-0.3677
X13.9106 Y1.2455 Z-0.3702
X13.9075 Y1.2468 Z-0.3723
X13.9042 Y1.2482 Z-0.3738
X13.9006 Y1.2496 Z-0.3747
X13.897 Y1.2511 Z-0.375
X13.8739 Y1.2606 F12.
G2 X13.8603 Y1.2933 I0.0095 J0.0231
G1 X13.8758 Y1.3311
G3 X13.8791 Y1.4179 I-0.1165 J0.0479
G1 X13.78 Y1.7234
X14.0289 Y1.8126
G3 X14.1029 Y1.8833 I-0.0425 J0.1186
G1 X14.2327 Y2.1989
G3 X14.0714 Y2.3646 I-0.1165 J0.0479
G1 X13.9537 Y2.3198
X13.8361 Y2.2767
X13.718 Y2.2349
X13.5994 Y2.1943
X13.4801 Y2.1551
X13.3603 Y2.1172
X13.2397 Y2.0805
G3 X13.1709 Y1.6322 I0.0719 J-0.2405
G2 X13.2716 Y0.8957 I-0.2796 J-0.4133
X12.5285 Y0.8763 I-0.3802 J0.3231
G3 X12.1163 Y0.805 I-0.1825 J-0.1723
G2 X11.4165 Y0.5703 I-0.4567 J0.201
X11.2486 Y1.2891 I0.2431 J0.4358
G3 X11.0868 Y1.6784 I-0.2067 J0.1424
G2 X11.0667 Y1.7074 I0.0045 J0.0246
G1 X11.0711 Y1.732
X11.0718 Y1.7359 Z-0.3747
X11.0725 Y1.7396 Z-0.3738
X11.0732 Y1.7432 Z-0.3723
X11.0738 Y1.7465 Z-0.3702
X11.0743 Y1.7494 Z-0.3677
X11.0747 Y1.7519 Z-0.3647
X11.0751 Y1.754 Z-0.3613
X11.0754 Y1.7554 Z-0.3577
X11.0755 Y1.7563 Z-0.3539
X11.0756 Y1.7566 Z-0.35
X11.0751 Y1.7557
X11.075 Y1.7554 Z-0.3539 F4.
X11.0749 Y1.7545 Z-0.3577
X11.0746 Y1.753 Z-0.3613
X11.0742 Y1.751 Z-0.3647
X11.0738 Y1.7485 Z-0.3677
X11.0732 Y1.7456 Z-0.3702
X11.0726 Y1.7423 Z-0.3723
X11.072 Y1.7387 Z-0.3738
X11.0713 Y1.735 Z-0.3747
X11.0706 Y1.7311 Z-0.375
X11.0661 Y1.7065 F12.
G3 X11.0863 Y1.6774 I0.0246 J-0.0045
G1 X11.0866
G2 X11.2478 Y1.2896 I-0.0447 J-0.246
G3 X11.416 Y0.5694 I0.4118 J-0.2836
X12.1172 Y0.8046 I0.2436 J0.4367
G2 X12.5278 Y0.8756 I0.2288 J-0.1007
G3 X13.2723 Y0.8951 I0.3635 J0.3433
X13.1715 Y1.633 I-0.381 J0.3238
G2 X13.24 Y2.0796 I0.1401 J0.2071
G1 X13.3606 Y2.1162
X13.4804 Y2.1541
X13.5997 Y2.1934
X13.7183 Y2.2339
X13.8365 Y2.2757
X13.954 Y2.3189
X14.0717 Y2.3637
G2 X14.2318 Y2.1993 I0.0445 J-0.1168
G1 X14.102 Y1.8837
G2 X14.0285 Y1.8135 I-0.1156 J0.0475
G1 X13.7787 Y1.724
X13.8782 Y1.4176
G2 X13.8749 Y1.3315 I-0.1189 J-0.0386
G1 X13.8593 Y1.2936
G3 X13.873 Y1.261 I0.0231 J-0.0095
G1 X13.8961 Y1.2515
X13.8997 Y1.25 Z-0.3747
X13.9032 Y1.2486 Z-0.3738
X13.9066 Y1.2472 Z-0.3723
X13.9097 Y1.2459 Z-0.3702
X13.9124 Y1.2448 Z-0.3677
X13.9148 Y1.2438 Z-0.3647
X13.9167 Y1.243 Z-0.3613
X13.9181 Y1.2425 Z-0.3577
X13.9189 Y1.2421 Z-0.3539
X13.9192 Y1.242 Z-0.35
G0 Z0.6

(2D CONTOUR11)
M8
G0 X12.596 Y2.2584
Z0.6
Z0.2
G1 Z0.08 F4.
Z-0.35
X12.5957 Y2.2583 Z-0.3539
X12.5948 Y2.2579 Z-0.3577
X12.5934 Y2.2573 Z-0.3613
X12.5915 Y2.2566 Z-0.3647
X12.5892 Y2.2556 Z-0.3677
X12.5864 Y2.2545 Z-0.3702
X12.5833 Y2.2532 Z-0.3723
X12.58 Y2.2518 Z-0.3738
X12.5765 Y2.2504 Z-0.3747
X12.5728 Y2.2489 Z-0.375
X12.5497 Y2.2394 F12.
G3 X12.5361 Y2.2067 I0.0095 J-0.0231
G1 X12.5517 Y2.1689
G2 X12.555 Y2.0821 I-0.1165 J-0.0479
G1 X12.4558 Y1.7766
X12.7047 Y1.6874
G2 X12.7787 Y1.6167 I-0.0425 J-0.1186
G1 X12.9085 Y1.3011
G2 X12.7472 Y1.1354 I-0.1165 J-0.0479
G1 X12.6296 Y1.1801
X12.5122 Y1.2233
X12.3941 Y1.2651
X12.2754 Y1.3057
X12.1561 Y1.3449
X12.0363 Y1.3828
X11.9155 Y1.4195
G2 X11.8468 Y1.8678 I0.0719 J0.2405
G3 X11.9474 Y2.6043 I-0.2796 J0.4133
X11.2044 Y2.6238 I-0.3802 J-0.3231
G2 X10.7921 Y2.695 I-0.1825 J0.1723
G3 X10.0923 Y2.9297 I-0.4567 J-0.201
X9.9244 Y2.2109 I0.2431 J-0.4358
G2 X9.7626 Y1.8216 I-0.2067 J-0.1424
G3 X9.7425 Y1.7926 I0.0045 J-0.0246
G1 X9.747 Y1.768
X9.7477 Y1.7641 Z-0.3747
X9.7483 Y1.7604 Z-0.3738
X9.749 Y1.7568 Z-0.3723
X9.7496 Y1.7535 Z-0.3702
X9.7501 Y1.7506 Z-0.3677
X9.7506 Y1.7481 Z-0.3647
X9.7509 Y1.746 Z-0.3613
X9.7512 Y1.7446 Z-0.3577
X9.7514 Y1.7437 Z-0.3539
Y1.7434 Z-0.35
X9.7512 Y1.7443
Y1.7447 Z-0.3539 F4.
X9.751 Y1.7456 Z-0.3577
X9.7508 Y1.747 Z-0.3613
X9.7504 Y1.749 Z-0.3647
X9.7499 Y1.7516 Z-0.3677
X9.7494 Y1.7545 Z-0.3702
X9.7488 Y1.7578 Z-0.3723
X9.7482 Y1.7613 Z-0.3738
X9.7475 Y1.7651 Z-0.3747
X9.7468 Y1.7689 Z-0.375
X9.7423 Y1.7935 F12.
G2 X9.7624 Y1.8226 I0.0246 J0.0045
G3 X9.9236 Y2.2104 I-0.0447 J0.246
G2 X10.0918 Y2.9306 I0.4118 J0.2836
X10.793 Y2.6954 I0.2436 J-0.4366
G3 X11.2036 Y2.6244 I0.2288 J0.1007
G2 X11.9482 Y2.6049 I0.3635 J-0.3433
X11.8473 Y1.867 I-0.381 J-0.3238
G3 X11.9158 Y1.4204 I0.1401 J-0.2071
G1 X12.0366 Y1.3837
X12.1564 Y1.3458
X12.2757 Y1.3066
X12.3944 Y1.2661
X12.5125 Y1.2242
X12.63 Y1.1811
X12.7475 Y1.1363
G3 X12.9076 Y1.3007 I0.0445 J0.1168
G1 X12.7778 Y1.6163
G3 X12.7044 Y1.6865 I-0.1156 J-0.0475
G1 X12.4545 Y1.776
X12.554 Y2.0824
G3 X12.5507 Y2.1685 I-0.1189 J0.0386
G1 X12.5352 Y2.2064
G2 X12.5488 Y2.239 I0.0231 J0.0095
G1 X12.5719 Y2.2485
X12.5755 Y2.25 Z-0.3747
X12.5791 Y2.2514 Z-0.3738
X12.5824 Y2.2528 Z-0.3723
X12.5855 Y2.2541 Z-0.3702
X12.5883 Y2.2552 Z-0.3677
X12.5906 Y2.2562 Z-0.3647
X12.5925 Y2.257 Z-0.3613
X12.5939 Y2.2575 Z-0.3577
X12.5947 Y2.2579 Z-0.3539
X12.595 Y2.258 Z-0.35
G0 Z0.6

(2D CONTOUR12)
M8
G0 X9.3317 Y1.7674
Z0.6
Z0.2
G1 Z0.08 F4.
Z-0.35
X9.3318 Y1.7677 Z-0.3539
X9.332 Y1.7686 Z-0.3577
X9.3325 Y1.77 Z-0.3613
X9.3331 Y1.772 Z-0.3647
X9.3338 Y1.7744 Z-0.3677
X9.3347 Y1.7773 Z-0.3702
X9.3357 Y1.7805 Z-0.3723
X9.3367 Y1.784 Z-0.3738
X9.3378 Y1.7876 Z-0.3747
X9.339 Y1.7914 Z-0.375
X9.3462 Y1.8153 F12.
G3 X9.3296 Y1.8465 I-0.0239 J0.0073
G2 X9.2136 Y2.2518 I0.073 J0.2401
G3 X9.1396 Y2.9776 I-0.3758 J0.3284
X8.4206 Y2.8538 I-0.3017 J-0.3975
G2 X8.0023 Y2.8516 I-0.2099 J0.1376
G3 X7.2903 Y2.9741 I-0.4144 J-0.278
X7.2021 Y2.2571 I0.2976 J-0.4006
G2 X7.0369 Y1.8486 I-0.1941 J-0.1592
G3 X7.015 Y1.8209 I0.0029 J-0.0248
G1 X7.0179 Y1.7961
X7.0183 Y1.7922 Z-0.3747
X7.0188 Y1.7884 Z-0.3738
X7.0192 Y1.7848 Z-0.3723
X7.0196 Y1.7815 Z-0.3702
X7.0199 Y1.7785 Z-0.3677
X7.0202 Y1.776 Z-0.3647
X7.0204 Y1.7739 Z-0.3613
X7.0206 Y1.7724 Z-0.3577
X7.0207 Y1.7715 Z-0.3539
X7.0208 Y1.7712 Z-0.35
X7.0206 Y1.7722
Y1.7725 Z-0.3539 F4.
X7.0205 Y1.7734 Z-0.3577
X7.0203 Y1.7749 Z-0.3613
X7.0201 Y1.777 Z-0.3647
X7.0198 Y1.7795 Z-0.3677
X7.0194 Y1.7825 Z-0.3702
X7.0191 Y1.7858 Z-0.3723
X7.0186 Y1.7894 Z-0.3738
X7.0182 Y1.7932 Z-0.3747
X7.0178 Y1.7971 Z-0.375
X7.0149 Y1.8219 F12.
G2 X7.0368 Y1.8496 I0.0248 J0.0029
G3 X7.2013 Y2.2565 I-0.0288 J0.2483
G2 X7.2897 Y2.9749 I0.3866 J0.3171
X8.0031 Y2.8521 I0.2982 J-0.4014
G3 X8.4198 Y2.8543 I0.2076 J0.1393
G2 X9.1402 Y2.9784 I0.4181 J-0.2742
X9.2144 Y2.2511 I-0.3023 J-0.3983
G3 X9.3299 Y1.8474 I0.1882 J-0.1645
G2 X9.3465 Y1.8162 I-0.0073 J-0.0239
G1 X9.3392 Y1.7923
X9.3381 Y1.7886 Z-0.3747
X9.337 Y1.7849 Z-0.3738
X9.3359 Y1.7815 Z-0.3723
X9.335 Y1.7783 Z-0.3702
X9.3341 Y1.7754 Z-0.3677
X9.3334 Y1.773 Z-0.3647
X9.3328 Y1.771 Z-0.3613
X9.3323 Y1.7696 Z-0.3577
X9.3321 Y1.7687 Z-0.3539
X9.332 Y1.7684 Z-0.35
G0 Z0.6

(2D CONTOUR13)
M8
G0 X4.3441 Y1.7674
Z0.6
Z0.2
G1 Z0.08 F4.
Z-0.35
X4.344 Y1.7677 Z-0.3539
X4.3437 Y1.7686 Z-0.3577
X4.3433 Y1.77 Z-0.3613
X4.3427 Y1.772 Z-0.3647
X4.342 Y1.7744 Z-0.3677
X4.3411 Y1.7773 Z-0.3702
X4.3401 Y1.7805 Z-0.3723
X4.3391 Y1.784 Z-0.3738
X4.338 Y1.7876 Z-0.3747
X4.3368 Y1.7914 Z-0.375
X4.3295 Y1.8153 F12.
G2 X4.3462 Y1.8465 I0.0239 J0.0073
G3 X4.4622 Y2.2518 I-0.073 J0.2402
G2 X4.5362 Y2.9776 I0.3757 J0.3284
X5.2552 Y2.8538 I0.3017 J-0.3975
G3 X5.6735 Y2.8516 I0.2099 J0.1376
G2 X6.4044 Y2.9594 I0.4144 J-0.278
X6.4737 Y2.2571 I-0.3165 J-0.3858
G3 X6.6389 Y1.8486 I0.1941 J-0.1592
G2 X6.6608 Y1.8209 I-0.0029 J-0.0248
G1 X6.6579 Y1.7961
X6.6575 Y1.7922 Z-0.3747
X6.657 Y1.7884 Z-0.3738
X6.6566 Y1.7848 Z-0.3723
X6.6562 Y1.7815 Z-0.3702
X6.6559 Y1.7785 Z-0.3677
X6.6556 Y1.776 Z-0.3647
X6.6554 Y1.7739 Z-0.3613
X6.6552 Y1.7724 Z-0.3577
X6.6551 Y1.7715 Z-0.3539
X6.655 Y1.7712 Z-0.35
X6.6552 Y1.7722
Y1.7725 Z-0.3539 F4.
X6.6553 Y1.7734 Z-0.3577
X6.6555 Y1.7749 Z-0.3613
X6.6557 Y1.777 Z-0.3647
X6.656 Y1.7795 Z-0.3677
X6.6563 Y1.7825 Z-0.3702
X6.6567 Y1.7858 Z-0.3723
X6.6571 Y1.7894 Z-0.3738
X6.6576 Y1.7932 Z-0.3747
X6.658 Y1.7971 Z-0.375
X6.6609 Y1.8219 F12.
G3 X6.639 Y1.8496 I-0.0248 J0.0029
G2 X6.4745 Y2.2565 I0.0288 J0.2483
G3 X6.3861 Y2.9749 I-0.3866 J0.3171
X5.6727 Y2.8521 I-0.2982 J-0.4014
G2 X5.2561 Y2.8543 I-0.2076 J0.1393
G3 X4.5356 Y2.9784 I-0.4181 J-0.2742
X4.4614 Y2.2511 I0.3023 J-0.3983
G2 X4.3459 Y1.8474 I-0.1883 J-0.1645
G3 X4.3293 Y1.8162 I0.0073 J-0.0239
G1 X4.3365 Y1.7923
X4.3377 Y1.7886 Z-0.3747
X4.3388 Y1.7849 Z-0.3738
X4.3398 Y1.7815 Z-0.3723
X4.3408 Y1.7783 Z-0.3702
X4.3417 Y1.7754 Z-0.3677
X4.3424 Y1.773 Z-0.3647
X4.343 Y1.771 Z-0.3613
X4.3434 Y1.7696 Z-0.3577
X4.3437 Y1.7687 Z-0.3539
X4.3438 Y1.7684 Z-0.35
G0 Z0.6

(2D CONTOUR14)
M8
G0 X1.0799 Y2.2584
Z0.6
Z0.2
G1 Z0.08 F4.
Z-0.35
X1.0802 Y2.2583 Z-0.3539
X1.081 Y2.2579 Z-0.3577
X1.0824 Y2.2574 Z-0.3613
X1.0843 Y2.2566 Z-0.3647
X1.0866 Y2.2556 Z-0.3677
X1.0894 Y2.2545 Z-0.3702
X1.0925 Y2.2532 Z-0.3723
X1.0959 Y2.2518 Z-0.3738
X1.0994 Y2.2504 Z-0.3747
X1.103 Y2.2489 Z-0.375
X1.1261 Y2.2394 F12.
G2 X1.1397 Y2.2068 I-0.0095 J-0.0231
G1 X1.1242 Y2.1689
G3 X1.1208 Y2.0821 I0.1165 J-0.0479
G1 X1.22 Y1.7766
X0.9711 Y1.6874
G3 X0.8971 Y1.6167 I0.0425 J-0.1186
G1 X0.7673 Y1.3011
G3 X0.9286 Y1.1354 I0.1165 J-0.0479
G1 X1.0463 Y1.1802
X1.1639 Y1.2233
X1.282 Y1.2651
X1.4007 Y1.3057
X1.5199 Y1.3449
X1.6397 Y1.3828
X1.7603 Y1.4195
G3 X1.8291 Y1.8678 I-0.0719 J0.2405
G2 X1.7284 Y2.6043 I0.2796 J0.4133
X2.4715 Y2.6238 I0.3802 J-0.3231
G3 X2.8837 Y2.695 I0.1825 J0.1723
G2 X3.5835 Y2.9297 I0.4567 J-0.201
X3.7514 Y2.2109 I-0.2431 J-0.4358
G3 X3.9132 Y1.8216 I0.2067 J-0.1424
G2 X3.9333 Y1.7926 I-0.0045 J-0.0246
G1 X3.9289 Y1.768
X3.9282 Y1.7641 Z-0.3747
X3.9275 Y1.7604 Z-0.3738
X3.9268 Y1.7568 Z-0.3723
X3.9262 Y1.7535 Z-0.3702
X3.9257 Y1.7506 Z-0.3677
X3.9253 Y1.7481 Z-0.3647
X3.9249 Y1.746 Z-0.3613
X3.9246 Y1.7446 Z-0.3577
X3.9245 Y1.7437 Z-0.3539
X3.9244 Y1.7434 Z-0.35
X3.9249 Y1.7443
X3.925 Y1.7446 Z-0.3539 F4.
X3.9251 Y1.7455 Z-0.3577
X3.9254 Y1.747 Z-0.3613
X3.9258 Y1.749 Z-0.3647
X3.9262 Y1.7515 Z-0.3677
X3.9268 Y1.7544 Z-0.3702
X3.9274 Y1.7577 Z-0.3723
X3.928 Y1.7613 Z-0.3738
X3.9287 Y1.765 Z-0.3747
X3.9294 Y1.7689 Z-0.375
X3.9339 Y1.7935 F12.
G3 X3.9137 Y1.8226 I-0.0246 J0.0045
G1 X3.9134
G2 X3.7522 Y2.2104 I0.0447 J0.246
G3 X3.584 Y2.9306 I-0.4118 J0.2836
X2.8828 Y2.6954 I-0.2436 J-0.4367
G2 X2.4722 Y2.6244 I-0.2288 J0.1007
G3 X1.7276 Y2.6049 I-0.3635 J-0.3433
X1.8285 Y1.867 I0.381 J-0.3238
G2 X1.76 Y1.4204 I-0.1401 J-0.2071
G1 X1.6394 Y1.3838
X1.5196 Y1.3459
X1.4003 Y1.3066
X1.2816 Y1.2661
X1.1635 Y1.2243
X1.046 Y1.1811
X0.9282 Y1.1363
G2 X0.7682 Y1.3007 I-0.0444 J0.1168
G1 X0.898 Y1.6163
G2 X0.9715 Y1.6865 I0.1156 J-0.0475
G1 X1.2213 Y1.776
X1.1218 Y2.0824
G2 X1.1251 Y2.1685 I0.1189 J0.0386
G1 X1.1407 Y2.2064
G3 X1.127 Y2.239 I-0.0231 J0.0095
G1 X1.1039 Y2.2485
X1.1003 Y2.25 Z-0.3747
X1.0968 Y2.2515 Z-0.3738
X1.0934 Y2.2528 Z-0.3723
X1.0903 Y2.2541 Z-0.3702
X1.0876 Y2.2552 Z-0.3677
X1.0852 Y2.2562 Z-0.3647
X1.0833 Y2.257 Z-0.3613
X1.0819 Y2.2576 Z-0.3577
X1.0811 Y2.2579 Z-0.3539
X1.0808 Y2.258 Z-0.35
G0 Z0.6

(2D CONTOUR15)
M8
G0 X1.2035 Y2.559
Z0.6
Z0.2
G1 Z0.08 F4.
Z-0.35
X1.2038 Y2.5589 Z-0.3539
X1.2046 Y2.5585 Z-0.3577
X1.206 Y2.558 Z-0.3613
X1.2079 Y2.5572 Z-0.3647
X1.2103 Y2.5562 Z-0.3677
X1.213 Y2.5551 Z-0.3702
X1.2161 Y2.5538 Z-0.3723
X1.2195 Y2.5524 Z-0.3738
X1.223 Y2.551 Z-0.3747
X1.2266 Y2.5495 Z-0.375
X1.2497 Y2.54 F12.
G3 X1.2824 Y2.5536 I0.0095 J0.0231
G1 X1.3061 Y2.6112
G2 X1.905 Y3.1247 I0.8026 J-0.3301
X1.9057 Y3.1249 I0.0296 J-0.1225
G1 X2.0251 Y3.1531
G2 X2.0264 Y3.1534 I0.0289 J-0.1226
G1 X2.1463 Y3.1803
G2 X2.1476 Y3.1806 I0.0276 J-0.1229
G1 X2.268 Y3.2062
G2 X2.2693 Y3.2065 I0.0263 J-0.1232
G1 X2.3901 Y3.2309
G2 X2.3915 Y3.2312 I0.0249 J-0.1235
G1 X2.5125 Y3.2542
G2 X2.5139 Y3.2545 I0.0236 J-0.1238
G1 X2.6329 Y3.2758
G2 X2.6343 Y3.276 I0.0222 J-0.124
G1 X2.7534 Y3.296
G2 X2.7548 Y3.2962 I0.0208 J-0.1243
G1 X2.8738 Y3.3149
G2 X2.8751 Y3.3151 I0.0195 J-0.1245
G1 X2.9941 Y3.3324
G2 X2.9954 Y3.3326 I0.0182 J-0.1247
G1 X3.1167 Y3.349
G2 X3.118 Y3.3492 I0.0169 J-0.1249
G1 X3.2392 Y3.3643
G2 X3.2405 Y3.3644 I0.0156 J-0.125
G1 X3.3615 Y3.3782
G2 X3.3627 Y3.3784 I0.0143 J-0.1252
G1 X3.4836 Y3.3909
G2 X3.4848 Y3.3911 I0.0131 J-0.1253
G1 X3.6055 Y3.4025
G2 X3.6067 Y3.4026 I0.0118 J-0.1254
G1 X3.7273 Y3.4128
G2 X3.7284 Y3.4129 I0.0106 J-0.1256
G1 X3.8489 Y3.422
G2 X3.9841 Y3.3035 I0.0095 J-0.1256
G1 X3.9911 Y3.181
X4.1139 Y3.188
X4.1069 Y3.3105
G2 X4.2278 Y3.4436 I0.1258 J0.0072
G1 X4.3628 Y3.4489
G2 X4.364 I0.0049 J-0.1259
G1 X4.4985 Y3.453
G2 X4.4995 I0.0038 J-0.1259
G1 X4.6334 Y3.4559
G2 X4.6344 I0.0027 J-0.126
G1 X4.7673 Y3.4578
G2 X4.7681 I0.0018 J-0.126
G1 X4.8998 Y3.4589
G2 X4.9005 I0.001 J-0.126
G1 X5.0309 Y3.4592
G2 X5.0314 I0.0003 J-0.126
G1 X5.1532 Y3.459
G2 X5.1536 I-0.0002 J-0.126
G1 X5.2742 Y3.4583
X5.2745
X5.394 Y3.4574
X5.3942
X5.5126 Y3.4564
X5.5127
X5.6301 Y3.4552
X5.727 Y3.4543
X5.823 Y3.4535
X5.9181 Y3.4528
X6.0121 Y3.4523
X6.105 Y3.4521
X6.1974
X6.2851 Y3.4525
X6.3739 Y3.4531
X6.4642 Y3.4538
X6.5561 Y3.4547
X6.6493 Y3.4555
G2 X6.7764 Y3.3295 I0.0011 J-0.126
G1 Y3.2066
X6.8994
Y3.3295
G2 X7.0265 Y3.4555 I0.126 J0.
G1 X7.1111 Y3.4548
X7.1947 Y3.454
X7.2769 Y3.4533
X7.3579 Y3.4527
X7.4378 Y3.4523
X7.5414 Y3.452
X7.6452 Y3.4522
X7.7503 Y3.4527
X7.8645 Y3.4536
X7.98 Y3.4546
X8.0967 Y3.4557
X8.2145 Y3.4568
X8.2147
X8.3336 Y3.4578
X8.3338 Y3.4579
X8.4538 Y3.4586
X8.4541
X8.5752 Y3.4591
G2 X8.5757 I0.0005 J-0.126
G1 X8.6979
G2 X8.6985 I0. J-0.126
G1 X8.8219 Y3.4586
G2 X8.8226 I-0.0006 J-0.126
G1 X8.9472 Y3.4574
G2 X8.948 I-0.0012 J-0.126
G1 X9.0713 Y3.4554
G2 X9.0722 I-0.002 J-0.126
G1 X9.1963 Y3.4525
G2 X9.1973 I-0.0029 J-0.126
G1 X9.3219 Y3.4486
G2 X9.323 I-0.0039 J-0.1259
G1 X9.448 Y3.4436
G2 X9.5689 Y3.3105 I-0.005 J-0.1259
G1 X9.5619 Y3.188
X9.6847 Y3.181
X9.6917 Y3.3035
G2 X9.827 Y3.422 I0.1258 J-0.0072
G1 X9.9472 Y3.4129
G2 X9.9483 Y3.4128 I-0.0095 J-0.1256
G1 X10.0686 Y3.4026
G2 X10.0698 Y3.4025 I-0.0106 J-0.1256
G1 X10.1902 Y3.3911
G2 X10.1914 Y3.391 I-0.0118 J-0.1254
G1 X10.312 Y3.3785
G2 X10.3133 Y3.3783 I-0.013 J-0.1253
G1 X10.434 Y3.3646
G2 X10.4353 Y3.3644 I-0.0143 J-0.1252
G1 X10.554 Y3.3497
G2 X10.5553 Y3.3495 I-0.0155 J-0.125
G1 X10.6741 Y3.3335
G2 X10.6754 Y3.3333 I-0.0168 J-0.1249
G1 X10.7944 Y3.316
G2 X10.7957 Y3.3158 I-0.0181 J-0.1247
G1 X10.9148 Y3.2973
G2 X10.9161 Y3.297 I-0.0194 J-0.1245
G1 X11.0377 Y3.2767
G2 X11.0391 Y3.2765 I-0.0208 J-0.1243
G1 X11.1606 Y3.2547
G2 X11.162 Y3.2545 I-0.0222 J-0.124
G1 X11.2833 Y3.2314
G2 X11.2846 Y3.2311 I-0.0236 J-0.1238
G1 X11.4057 Y3.2067
G2 X11.4071 Y3.2064 I-0.0249 J-0.1235
G1 X11.5277 Y3.1807
G2 X11.529 Y3.1804 I-0.0263 J-0.1232
G1 X11.6491 Y3.1534
G2 X11.6505 Y3.1531 I-0.0276 J-0.1229
G1 X11.7701 Y3.1249
G2 X11.7708 Y3.1247 I-0.0289 J-0.1226
X12.3698 Y2.6112 I-0.2036 J-0.8436
G1 X12.3935 Y2.5536
G3 X12.4261 Y2.54 I0.0231 J0.0095
G1 X12.4492 Y2.5495
X12.4528 Y2.551 Z-0.3747
X12.4564 Y2.5524 Z-0.3738
X12.4597 Y2.5538 Z-0.3723
X12.4628 Y2.5551 Z-0.3702
X12.4656 Y2.5562 Z-0.3677
X12.4679 Y2.5572 Z-0.3647
X12.4698 Y2.558 Z-0.3613
X12.4712 Y2.5585 Z-0.3577
X12.472 Y2.5589 Z-0.3539
X12.4723 Y2.559 Z-0.35
X12.4714 Y2.5586
X12.4711 Y2.5585 Z-0.3539 F4.
X12.4703 Y2.5581 Z-0.3577
X12.4689 Y2.5576 Z-0.3613
X12.467 Y2.5568 Z-0.3647
X12.4646 Y2.5558 Z-0.3677
X12.4619 Y2.5547 Z-0.3702
X12.4588 Y2.5534 Z-0.3723
X12.4554 Y2.552 Z-0.3738
X12.4519 Y2.5506 Z-0.3747
X12.4483 Y2.5491 Z-0.375
X12.4252 Y2.5396 F12.
G2 X12.3925 Y2.5532 I-0.0095 J0.0231
G1 X12.3688 Y2.6108
G3 X11.7705 Y3.1238 I-0.8017 J-0.3297
X11.7699 Y3.1239 I-0.0293 J-0.1215
G1 X11.6502 Y3.1521
G3 X11.6489 Y3.1524 I-0.0287 J-0.1217
G1 X11.5288 Y3.1794
G3 X11.5275 Y3.1797 I-0.0274 J-0.122
G1 X11.4069 Y3.2054
G3 X11.4055 Y3.2057 I-0.0261 J-0.1223
G1 X11.2844 Y3.2301
G3 X11.2831 Y3.2304 I-0.0247 J-0.1225
G1 X11.1618 Y3.2535
G3 X11.1604 Y3.2538 I-0.0234 J-0.1228
G1 X11.0389 Y3.2755
G3 X11.0375 Y3.2757 I-0.022 J-0.123
G1 X10.916 Y3.296
G3 X10.9146 Y3.2963 I-0.0206 J-0.1233
G1 X10.7956 Y3.3148
G3 X10.7943 Y3.315 I-0.0193 J-0.1235
G1 X10.6753 Y3.3323
G3 X10.674 Y3.3325 I-0.018 J-0.1237
G1 X10.5551 Y3.3485
G3 X10.5539 Y3.3487 I-0.0167 J-0.1239
G1 X10.4351 Y3.3634
G3 X10.4339 Y3.3636 I-0.0154 J-0.124
G1 X10.3131 Y3.3774
G3 X10.3119 Y3.3775 I-0.0142 J-0.1242
G1 X10.1913 Y3.39
G3 X10.1901 Y3.3902 I-0.0129 J-0.1243
G1 X10.0697 Y3.4015
G3 X10.0685 Y3.4016 I-0.0117 J-0.1244
G1 X9.9482 Y3.4118
G3 X9.9471 Y3.4119 I-0.0106 J-0.1246
G1 X9.8269 Y3.421
G3 X9.6927 Y3.3034 I-0.0094 J-0.1246
G1 X9.6856 Y3.1799
X9.5608 Y3.187
X9.5679 Y3.3106
G3 X9.448 Y3.4426 I-0.1248 J0.0071
G1 X9.323 Y3.4476
G3 X9.3219 I-0.0049 J-0.1249
G1 X9.1973 Y3.4515
G3 X9.1963 I-0.0039 J-0.1249
G1 X9.0722 Y3.4544
G3 X9.0713 I-0.0029 J-0.125
G1 X8.948 Y3.4564
G3 X8.9472 I-0.002 J-0.125
G1 X8.8226 Y3.4576
G3 X8.8219 I-0.0012 J-0.125
G1 X8.6985 Y3.4581
G3 X8.6979 I-0.0005 J-0.125
G1 X8.5757
G3 X8.5752 I0. J-0.125
G1 X8.4541 Y3.4576
X8.4538
X8.3338 Y3.4569
X8.3336 Y3.4568
X8.2147 Y3.4558
X8.2146
X8.0967 Y3.4547
X7.98 Y3.4536
X7.8645 Y3.4526
X7.7503 Y3.4517
X7.6452 Y3.4512
X7.5414 Y3.451
X7.4378 Y3.4513
X7.3579 Y3.4517
X7.2769 Y3.4523
X7.1947 Y3.453
X7.1111 Y3.4538
X7.0265 Y3.4545
G3 X6.9004 Y3.3295 I-0.0011 J-0.125
G1 Y3.2056
X6.7754
Y3.3295
G3 X6.6493 Y3.4545 I-0.125 J0.
G1 X6.5561 Y3.4537
X6.4642 Y3.4528
X6.3739 Y3.4521
X6.2851 Y3.4515
X6.1974 Y3.4511
X6.105
X6.0121 Y3.4513
X5.9181 Y3.4518
X5.823 Y3.4525
X5.727 Y3.4533
X5.6301 Y3.4542
X5.5127 Y3.4554
X5.5126
X5.3942 Y3.4564
X5.394
X5.2745 Y3.4573
X5.2742
X5.1536 Y3.458
G3 X5.1532 I-0.0006 J-0.125
G1 X5.0314 Y3.4582
G3 X5.0309 I-0.0002 J-0.125
G1 X4.9005 Y3.4579
G3 X4.8998 I0.0003 J-0.125
G1 X4.7681 Y3.4568
G3 X4.7673 I0.001 J-0.125
G1 X4.6344 Y3.4549
G3 X4.6335 I0.0018 J-0.125
G1 X4.4996 Y3.452
G3 X4.4985 I0.0027 J-0.125
G1 X4.364 Y3.4479
G3 X4.3629 I0.0038 J-0.1249
G1 X4.2278 Y3.4426
G3 X4.1079 Y3.3106 I0.0049 J-0.1249
G1 X4.115 Y3.187
X3.9902 Y3.1799
X3.9831 Y3.3034
G3 X3.8489 Y3.421 I-0.1248 J-0.0071
G1 X3.7285 Y3.4119
G3 X3.7273 Y3.4118 I0.0094 J-0.1246
G1 X3.6068 Y3.4016
G3 X3.6056 Y3.4015 I0.0106 J-0.1246
G1 X3.4849 Y3.3901
G3 X3.4837 Y3.39 I0.0117 J-0.1244
G1 X3.3628 Y3.3774
G3 X3.3616 Y3.3772 I0.0129 J-0.1243
G1 X3.2406 Y3.3634
G3 X3.2393 Y3.3633 I0.0142 J-0.1242
G1 X3.1182 Y3.3482
G3 X3.1169 Y3.348 I0.0154 J-0.124
G1 X2.9956 Y3.3316
G3 X2.9943 Y3.3314 I0.0167 J-0.1239
G1 X2.8753 Y3.3141
G3 X2.874 Y3.3139 I0.018 J-0.1237
G1 X2.7549 Y3.2953
G3 X2.7536 Y3.295 I0.0193 J-0.1235
G1 X2.6345 Y3.2751
G3 X2.6331 Y3.2748 I0.0207 J-0.1233
G1 X2.5141 Y3.2535
G3 X2.5127 Y3.2532 I0.022 J-0.123
G1 X2.3916 Y3.2302
G3 X2.3903 Y3.2299 I0.0234 J-0.1228
G1 X2.2695 Y3.2055
G3 X2.2682 Y3.2053 I0.0247 J-0.1225
G1 X2.1478 Y3.1796
G3 X2.1465 Y3.1793 I0.0261 J-0.1223
G1 X2.0266 Y3.1524
G3 X2.0253 Y3.1521 I0.0274 J-0.122
G1 X1.9059 Y3.1239
G3 X1.9052 Y3.1238 I0.0287 J-0.1217
X1.307 Y2.6108 I0.2034 J-0.8426
G1 X1.2833 Y2.5532
G2 X1.2507 Y2.5396 I-0.0231 J0.0095
G1 X1.2275 Y2.5491
X1.2239 Y2.5506 Z-0.3747
X1.2204 Y2.552 Z-0.3738
X1.217 Y2.5534 Z-0.3723
X1.2139 Y2.5547 Z-0.3702
X1.2112 Y2.5558 Z-0.3677
X1.2088 Y2.5568 Z-0.3647
X1.2069 Y2.5576 Z-0.3613
X1.2055 Y2.5581 Z-0.3577
X1.2047 Y2.5585 Z-0.3539
X1.2044 Y2.5586 Z-0.35
G0 Z0.6

M9
G28 G91 Z0.
G28 X0. Y0.
M30
