(2)
(CONTOURED BATTERY HOLDER V6 DUAL)
(T2  D=0.25 CR=0. - ZMIN=-0.375 - FLAT END MILL)
G90 G94 G40 G49 G17
G20
G28 G91 Z0.
G90

(2D CONTOUR3)
M9
T2 M6
S3800 M3
G54
M8
G0 X7.0906 Y1.7826
G43 Z0.6 H0
Z0.2
G1 Z0.08 F4.
Z-0.075
Y1.7829 Z-0.0789
X7.0904 Y1.7838 Z-0.0827
X7.0902 Y1.7853 Z-0.0863
X7.0898 Y1.7873 Z-0.0897
X7.0893 Y1.7898 Z-0.0927
X7.0888 Y1.7928 Z-0.0952
X7.0882 Y1.7961 Z-0.0973
X7.0876 Y1.7996 Z-0.0988
X7.0869 Y1.8034 Z-0.0997
X7.0862 Y1.8072 Z-0.1
X7.0817 Y1.8318 F12.
G3 X7.0527 Y1.852 I-0.0246 J-0.0045
G2 X7.0061 Y1.8479 I-0.0447 J0.246
G1 X6.8379 Y1.849
X6.6697 Y1.8479
G2 X6.4745 Y2.2565 I-0.0019 J0.25
G3 X6.3861 Y2.9749 I-0.3866 J0.3171
X5.6727 Y2.8521 I-0.2982 J-0.4014
G2 X5.2561 Y2.8543 I-0.2076 J0.1393
G3 X4.5356 Y2.9784 I-0.4181 J-0.2742
X4.4614 Y2.2511 I0.3023 J-0.3983
G2 X4.2847 Y1.8369 I-0.1883 J-0.1645
G1 X4.1804 Y1.8318
X4.0775 Y1.8259
X3.9753 Y1.8192
G2 X3.7522 Y2.2104 I-0.0171 J0.2494
G3 X3.584 Y2.9306 I-0.4118 J0.2836
X2.8828 Y2.6954 I-0.2436 J-0.4367
G2 X2.4722 Y2.6244 I-0.2288 J0.1007
G3 X1.7276 Y2.6049 I-0.3635 J-0.3433
X1.8285 Y1.867 I0.381 J-0.3238
G2 X1.76 Y1.4204 I-0.1401 J-0.2071
G1 X1.6392 Y1.3837
X1.5194 Y1.3458
X1.4001 Y1.3066
X1.2814 Y1.2661
X1.1633 Y1.2242
X1.0458 Y1.1811
X0.9283 Y1.1363
G2 X0.7682 Y1.3007 I-0.0445 J0.1168
G1 X0.898 Y1.6163
G2 X0.9715 Y1.6865 I0.1156 J-0.0475
G1 X1.2213 Y1.776
X1.1218 Y2.0824
G2 X1.1251 Y2.1685 I0.1189 J0.0386
G1 X1.307 Y2.6108
G2 X1.9052 Y3.1238 I0.8017 J-0.3297
X1.9059 Y3.1239 I0.0293 J-0.1215
G1 X2.0253 Y3.1521
G2 X2.0266 Y3.1524 I0.0287 J-0.1217
G1 X2.1465 Y3.1793
G2 X2.1478 Y3.1796 I0.0274 J-0.122
G1 X2.2682 Y3.2053
G2 X2.2695 Y3.2055 I0.0261 J-0.1223
G1 X2.3903 Y3.2299
G2 X2.3916 Y3.2302 I0.0247 J-0.1225
G1 X2.5127 Y3.2532
G2 X2.5141 Y3.2535 I0.0234 J-0.1228
G1 X2.6331 Y3.2748
G2 X2.6345 Y3.2751 I0.022 J-0.123
G1 X2.7536 Y3.295
G2 X2.7549 Y3.2953 I0.0207 J-0.1233
G1 X2.874 Y3.3139
G2 X2.8753 Y3.3141 I0.0193 J-0.1235
G1 X2.9943 Y3.3314
G2 X2.9956 Y3.3316 I0.018 J-0.1237
G1 X3.1169 Y3.348
G2 X3.1182 Y3.3482 I0.0167 J-0.1239
G1 X3.2393 Y3.3633
G2 X3.2406 Y3.3634 I0.0154 J-0.124
G1 X3.3616 Y3.3772
G2 X3.3628 Y3.3774 I0.0142 J-0.1242
G1 X3.4837 Y3.39
G2 X3.4849 Y3.3901 I0.0129 J-0.1243
G1 X3.6056 Y3.4015
G2 X3.6068 Y3.4016 I0.0117 J-0.1244
G1 X3.7273 Y3.4118
G2 X3.7285 Y3.4119 I0.0106 J-0.1246
G1 X3.8489 Y3.421
G2 X3.9831 Y3.3034 I0.0094 J-0.1246
G1 X3.9902 Y3.1799
X4.115 Y3.187
X4.1079 Y3.3106
G2 X4.2278 Y3.4426 I0.1248 J0.0071
G1 X4.3629 Y3.4479
G2 X4.364 I0.0049 J-0.1249
G1 X4.4985 Y3.452
G2 X4.4996 I0.0038 J-0.1249
G1 X4.6335 Y3.4549
G2 X4.6344 I0.0027 J-0.125
G1 X4.7673 Y3.4568
G2 X4.7681 I0.0018 J-0.125
G1 X4.8998 Y3.4579
G2 X4.9005 I0.001 J-0.125
G1 X5.0309 Y3.4582
G2 X5.0314 I0.0003 J-0.125
G1 X5.1532 Y3.458
G2 X5.1536 I-0.0002 J-0.125
G1 X5.2742 Y3.4573
X5.2745
X5.394 Y3.4564
X5.3942
X5.5126 Y3.4554
X5.5127
X5.6301 Y3.4542
X5.727 Y3.4533
X5.823 Y3.4525
X5.9181 Y3.4518
X6.0121 Y3.4513
X6.105 Y3.4511
X6.1974
X6.2851 Y3.4515
X6.3739 Y3.4521
X6.4642 Y3.4528
X6.5561 Y3.4537
X6.6493 Y3.4545
G2 X6.7754 Y3.3295 I0.0011 J-0.125
G1 Y3.2056
X6.9004
Y3.3295
G2 X7.0265 Y3.4545 I0.125 J0.
G1 X7.1111 Y3.4538
X7.1947 Y3.453
X7.2769 Y3.4523
X7.3579 Y3.4517
X7.4378 Y3.4513
X7.5414 Y3.451
X7.6452 Y3.4512
X7.7503 Y3.4517
X7.8645 Y3.4526
X7.98 Y3.4536
X8.0967 Y3.4547
X8.2146 Y3.4558
X8.2147
X8.3336 Y3.4568
X8.3338 Y3.4569
X8.4538 Y3.4576
X8.4541
X8.5752 Y3.4581
G2 X8.5757 I0.0005 J-0.125
G1 X8.6979
G2 X8.6985 I0. J-0.125
G1 X8.8219 Y3.4576
G2 X8.8226 I-0.0005 J-0.125
G1 X8.9472 Y3.4564
G2 X8.948 I-0.0012 J-0.125
G1 X9.0713 Y3.4544
G2 X9.0722 I-0.002 J-0.125
G1 X9.1963 Y3.4515
G2 X9.1973 I-0.0029 J-0.125
G1 X9.3219 Y3.4476
G2 X9.323 I-0.0039 J-0.1249
G1 X9.448 Y3.4426
G2 X9.5679 Y3.3106 I-0.0049 J-0.1249
G1 X9.5608 Y3.187
X9.6856 Y3.1799
X9.6927 Y3.3034
G2 X9.8269 Y3.421 I0.1248 J-0.0071
G1 X9.9471 Y3.4119
G2 X9.9482 Y3.4118 I-0.0094 J-0.1246
G1 X10.0685 Y3.4016
G2 X10.0697 Y3.4015 I-0.0106 J-0.1246
G1 X10.1901 Y3.3902
G2 X10.1913 Y3.39 I-0.0117 J-0.1244
G1 X10.3119 Y3.3775
G2 X10.3131 Y3.3774 I-0.0129 J-0.1243
G1 X10.4339 Y3.3636
G2 X10.4351 Y3.3634 I-0.0142 J-0.1242
G1 X10.5539 Y3.3487
G2 X10.5551 Y3.3485 I-0.0154 J-0.124
G1 X10.674 Y3.3325
G2 X10.6753 Y3.3323 I-0.0167 J-0.1239
G1 X10.7943 Y3.315
G2 X10.7956 Y3.3148 I-0.018 J-0.1237
G1 X10.9146 Y3.2963
G2 X10.916 Y3.296 I-0.0193 J-0.1235
G1 X11.0375 Y3.2757
G2 X11.0389 Y3.2755 I-0.0206 J-0.1233
G1 X11.1604 Y3.2538
G2 X11.1618 Y3.2535 I-0.022 J-0.123
G1 X11.2831 Y3.2304
G2 X11.2844 Y3.2301 I-0.0234 J-0.1228
G1 X11.4055 Y3.2057
G2 X11.4069 Y3.2054 I-0.0247 J-0.1225
G1 X11.5275 Y3.1797
G2 X11.5288 Y3.1794 I-0.0261 J-0.1223
G1 X11.6489 Y3.1524
G2 X11.6502 Y3.1521 I-0.0274 J-0.122
G1 X11.7699 Y3.1239
G2 X11.7705 Y3.1238 I-0.0287 J-0.1217
X12.3688 Y2.6108 I-0.2034 J-0.8426
G1 X12.5507 Y2.1685
G2 X12.554 Y2.0824 I-0.1156 J-0.0475
G1 X12.4545 Y1.776
X12.7044 Y1.6865
G2 X12.7778 Y1.6163 I-0.0422 J-0.1177
G1 X12.9076 Y1.3007
G2 X12.7476 Y1.1363 I-0.1156 J-0.0475
G1 X12.6298 Y1.1811
X12.5123 Y1.2243
X12.3942 Y1.2661
X12.2755 Y1.3066
X12.1562 Y1.3459
X12.0364 Y1.3838
X11.9158 Y1.4204
G2 X11.8473 Y1.867 I0.0716 J0.2395
G3 X11.9482 Y2.6049 I-0.2802 J0.4141
X11.2036 Y2.6244 I-0.381 J-0.3238
G2 X10.793 Y2.6954 I-0.1818 J0.1716
G3 X10.0918 Y2.9306 I-0.4576 J-0.2014
X9.9236 Y2.2104 I0.2436 J-0.4366
G2 X9.7005 Y1.8192 I-0.2059 J-0.1418
G1 X9.5975 Y1.8259
X9.4946 Y1.8318
X9.3912 Y1.8369
G2 X9.2144 Y2.2511 I0.0114 J0.2497
G3 X9.1402 Y2.9784 I-0.3765 J0.329
X8.4198 Y2.8543 I-0.3023 J-0.3983
G2 X8.0031 Y2.8521 I-0.2091 J0.1371
G3 X7.2897 Y2.9749 I-0.4152 J-0.2786
X7.2013 Y2.2565 I0.2982 J-0.4014
G2 X7.0061 Y1.8479 I-0.1933 J-0.1585
G1 X6.9529 Y1.8483
G3 X6.9277 Y1.8234 I-0.0002 J-0.025
G1 X6.9276 Y1.7984
Y1.7945 Z-0.0997
X6.9275 Y1.7907 Z-0.0988
Y1.7871 Z-0.0973
Y1.7837 Z-0.0952
Y1.7807 Z-0.0927
Y1.7782 Z-0.0897
Y1.7761 Z-0.0863
X6.9274 Y1.7746 Z-0.0827
Y1.7737 Z-0.0789
Y1.7734 Z-0.075
X7.0906 Y1.7826
Z-0.175 F4.
Y1.7829 Z-0.1789
X7.0904 Y1.7838 Z-0.1827
X7.0902 Y1.7853 Z-0.1863
X7.0898 Y1.7873 Z-0.1897
X7.0893 Y1.7898 Z-0.1927
X7.0888 Y1.7928 Z-0.1952
X7.0882 Y1.7961 Z-0.1973
X7.0876 Y1.7996 Z-0.1988
X7.0869 Y1.8034 Z-0.1997
X7.0862 Y1.8072 Z-0.2
X7.0817 Y1.8318 F12.
G3 X7.0527 Y1.852 I-0.0246 J-0.0045
G2 X7.0061 Y1.8479 I-0.0447 J0.246
G1 X6.8379 Y1.849
X6.6697 Y1.8479
G2 X6.4745 Y2.2565 I-0.0019 J0.25
G3 X6.3861 Y2.9749 I-0.3866 J0.3171
X5.6727 Y2.8521 I-0.2982 J-0.4014
G2 X5.2561 Y2.8543 I-0.2076 J0.1393
G3 X4.5356 Y2.9784 I-0.4181 J-0.2742
X4.4614 Y2.2511 I0.3023 J-0.3983
G2 X4.2847 Y1.8369 I-0.1883 J-0.1645
G1 X4.1804 Y1.8318
X4.0775 Y1.8259
X3.9753 Y1.8192
G2 X3.7522 Y2.2104 I-0.0171 J0.2494
G3 X3.584 Y2.9306 I-0.4118 J0.2836
X2.8828 Y2.6954 I-0.2436 J-0.4367
G2 X2.4722 Y2.6244 I-0.2288 J0.1007
G3 X1.7276 Y2.6049 I-0.3635 J-0.3433
X1.8285 Y1.867 I0.381 J-0.3238
G2 X1.76 Y1.4204 I-0.1401 J-0.2071
G1 X1.6392 Y1.3837
X1.5194 Y1.3458
X1.4001 Y1.3066
X1.2814 Y1.2661
X1.1633 Y1.2242
X1.0458 Y1.1811
X0.9283 Y1.1363
G2 X0.7682 Y1.3007 I-0.0445 J0.1168
G1 X0.898 Y1.6163
G2 X0.9715 Y1.6865 I0.1156 J-0.0475
G1 X1.2213 Y1.776
X1.1218 Y2.0824
G2 X1.1251 Y2.1685 I0.1189 J0.0386
G1 X1.307 Y2.6108
G2 X1.9052 Y3.1238 I0.8017 J-0.3297
X1.9059 Y3.1239 I0.0293 J-0.1215
G1 X2.0253 Y3.1521
G2 X2.0266 Y3.1524 I0.0287 J-0.1217
G1 X2.1465 Y3.1793
G2 X2.1478 Y3.1796 I0.0274 J-0.122
G1 X2.2682 Y3.2053
G2 X2.2695 Y3.2055 I0.0261 J-0.1223
G1 X2.3903 Y3.2299
G2 X2.3916 Y3.2302 I0.0247 J-0.1225
G1 X2.5127 Y3.2532
G2 X2.5141 Y3.2535 I0.0234 J-0.1228
G1 X2.6331 Y3.2748
G2 X2.6345 Y3.2751 I0.022 J-0.123
G1 X2.7536 Y3.295
G2 X2.7549 Y3.2953 I0.0207 J-0.1233
G1 X2.874 Y3.3139
G2 X2.8753 Y3.3141 I0.0193 J-0.1235
G1 X2.9943 Y3.3314
G2 X2.9956 Y3.3316 I0.018 J-0.1237
G1 X3.1169 Y3.348
G2 X3.1182 Y3.3482 I0.0167 J-0.1239
G1 X3.2393 Y3.3633
G2 X3.2406 Y3.3634 I0.0154 J-0.124
G1 X3.3616 Y3.3772
G2 X3.3628 Y3.3774 I0.0142 J-0.1242
G1 X3.4837 Y3.39
G2 X3.4849 Y3.3901 I0.0129 J-0.1243
G1 X3.6056 Y3.4015
G2 X3.6068 Y3.4016 I0.0117 J-0.1244
G1 X3.7273 Y3.4118
G2 X3.7285 Y3.4119 I0.0106 J-0.1246
G1 X3.8489 Y3.421
G2 X3.9831 Y3.3034 I0.0094 J-0.1246
G1 X3.9902 Y3.1799
X4.115 Y3.187
X4.1079 Y3.3106
G2 X4.2278 Y3.4426 I0.1248 J0.0071
G1 X4.3629 Y3.4479
G2 X4.364 I0.0049 J-0.1249
G1 X4.4985 Y3.452
G2 X4.4996 I0.0038 J-0.1249
G1 X4.6335 Y3.4549
G2 X4.6344 I0.0027 J-0.125
G1 X4.7673 Y3.4568
G2 X4.7681 I0.0018 J-0.125
G1 X4.8998 Y3.4579
G2 X4.9005 I0.001 J-0.125
G1 X5.0309 Y3.4582
G2 X5.0314 I0.0003 J-0.125
G1 X5.1532 Y3.458
G2 X5.1536 I-0.0002 J-0.125
G1 X5.2742 Y3.4573
X5.2745
X5.394 Y3.4564
X5.3942
X5.5126 Y3.4554
X5.5127
X5.6301 Y3.4542
X5.727 Y3.4533
X5.823 Y3.4525
X5.9181 Y3.4518
X6.0121 Y3.4513
X6.105 Y3.4511
X6.1974
X6.2851 Y3.4515
X6.3739 Y3.4521
X6.4642 Y3.4528
X6.5561 Y3.4537
X6.6493 Y3.4545
G2 X6.7754 Y3.3295 I0.0011 J-0.125
G1 Y3.2056
X6.9004
Y3.3295
G2 X7.0265 Y3.4545 I0.125 J0.
G1 X7.1111 Y3.4538
X7.1947 Y3.453
X7.2769 Y3.4523
X7.3579 Y3.4517
X7.4378 Y3.4513
X7.5414 Y3.451
X7.6452 Y3.4512
X7.7503 Y3.4517
X7.8645 Y3.4526
X7.98 Y3.4536
X8.0967 Y3.4547
X8.2146 Y3.4558
X8.2147
X8.3336 Y3.4568
X8.3338 Y3.4569
X8.4538 Y3.4576
X8.4541
X8.5752 Y3.4581
G2 X8.5757 I0.0005 J-0.125
G1 X8.6979
G2 X8.6985 I0. J-0.125
G1 X8.8219 Y3.4576
G2 X8.8226 I-0.0005 J-0.125
G1 X8.9472 Y3.4564
G2 X8.948 I-0.0012 J-0.125
G1 X9.0713 Y3.4544
G2 X9.0722 I-0.002 J-0.125
G1 X9.1963 Y3.4515
G2 X9.1973 I-0.0029 J-0.125
G1 X9.3219 Y3.4476
G2 X9.323 I-0.0039 J-0.1249
G1 X9.448 Y3.4426
G2 X9.5679 Y3.3106 I-0.0049 J-0.1249
G1 X9.5608 Y3.187
X9.6856 Y3.1799
X9.6927 Y3.3034
G2 X9.8269 Y3.421 I0.1248 J-0.0071
G1 X9.9471 Y3.4119
G2 X9.9482 Y3.4118 I-0.0094 J-0.1246
G1 X10.0685 Y3.4016
G2 X10.0697 Y3.4015 I-0.0106 J-0.1246
G1 X10.1901 Y3.3902
G2 X10.1913 Y3.39 I-0.0117 J-0.1244
G1 X10.3119 Y3.3775
G2 X10.3131 Y3.3774 I-0.0129 J-0.1243
G1 X10.4339 Y3.3636
G2 X10.4351 Y3.3634 I-0.0142 J-0.1242
G1 X10.5539 Y3.3487
G2 X10.5551 Y3.3485 I-0.0154 J-0.124
G1 X10.674 Y3.3325
G2 X10.6753 Y3.3323 I-0.0167 J-0.1239
G1 X10.7943 Y3.315
G2 X10.7956 Y3.3148 I-0.018 J-0.1237
G1 X10.9146 Y3.2963
G2 X10.916 Y3.296 I-0.0193 J-0.1235
G1 X11.0375 Y3.2757
G2 X11.0389 Y3.2755 I-0.0206 J-0.1233
G1 X11.1604 Y3.2538
G2 X11.1618 Y3.2535 I-0.022 J-0.123
G1 X11.2831 Y3.2304
G2 X11.2844 Y3.2301 I-0.0234 J-0.1228
G1 X11.4055 Y3.2057
G2 X11.4069 Y3.2054 I-0.0247 J-0.1225
G1 X11.5275 Y3.1797
G2 X11.5288 Y3.1794 I-0.0261 J-0.1223
G1 X11.6489 Y3.1524
G2 X11.6502 Y3.1521 I-0.0274 J-0.122
G1 X11.7699 Y3.1239
G2 X11.7705 Y3.1238 I-0.0287 J-0.1217
X12.3688 Y2.6108 I-0.2034 J-0.8426
G1 X12.5507 Y2.1685
G2 X12.554 Y2.0824 I-0.1156 J-0.0475
G1 X12.4545 Y1.776
X12.7044 Y1.6865
G2 X12.7778 Y1.6163 I-0.0422 J-0.1177
G1 X12.9076 Y1.3007
G2 X12.7476 Y1.1363 I-0.1156 J-0.0475
G1 X12.6298 Y1.1811
X12.5123 Y1.2243
X12.3942 Y1.2661
X12.2755 Y1.3066
X12.1562 Y1.3459
X12.0364 Y1.3838
X11.9158 Y1.4204
G2 X11.8473 Y1.867 I0.0716 J0.2395
G3 X11.9482 Y2.6049 I-0.2802 J0.4141
X11.2036 Y2.6244 I-0.381 J-0.3238
G2 X10.793 Y2.6954 I-0.1818 J0.1716
G3 X10.0918 Y2.9306 I-0.4576 J-0.2014
X9.9236 Y2.2104 I0.2436 J-0.4366
G2 X9.7005 Y1.8192 I-0.2059 J-0.1418
G1 X9.5975 Y1.8259
X9.4946 Y1.8318
X9.3912 Y1.8369
G2 X9.2144 Y2.2511 I0.0114 J0.2497
G3 X9.1402 Y2.9784 I-0.3765 J0.329
X8.4198 Y2.8543 I-0.3023 J-0.3983
G2 X8.0031 Y2.8521 I-0.2091 J0.1371
G3 X7.2897 Y2.9749 I-0.4152 J-0.2786
X7.2013 Y2.2565 I0.2982 J-0.4014
G2 X7.0061 Y1.8479 I-0.1933 J-0.1585
G1 X6.9529 Y1.8483
G3 X6.9277 Y1.8234 I-0.0002 J-0.025
G1 X6.9276 Y1.7984
Y1.7945 Z-0.1997
X6.9275 Y1.7907 Z-0.1988
Y1.7871 Z-0.1973
Y1.7837 Z-0.1952
Y1.7807 Z-0.1927
Y1.7782 Z-0.1897
Y1.7761 Z-0.1863
X6.9274 Y1.7746 Z-0.1827
Y1.7737 Z-0.1789
Y1.7734 Z-0.175
X7.0906 Y1.7826
Z-0.25 F4.
Y1.7829 Z-0.2539
X7.0904 Y1.7838 Z-0.2577
X7.0902 Y1.7853 Z-0.2613
X7.0898 Y1.7873 Z-0.2647
X7.0893 Y1.7898 Z-0.2677
X7.0888 Y1.7928 Z-0.2702
X7.0882 Y1.7961 Z-0.2723
X7.0876 Y1.7996 Z-0.2738
X7.0869 Y1.8034 Z-0.2747
X7.0862 Y1.8072 Z-0.275
X7.0817 Y1.8318 F12.
G3 X7.0527 Y1.852 I-0.0246 J-0.0045
G2 X7.0061 Y1.8479 I-0.0447 J0.246
G1 X6.8379 Y1.849
X6.6697 Y1.8479
G2 X6.4745 Y2.2565 I-0.0019 J0.25
G3 X6.3861 Y2.9749 I-0.3866 J0.3171
X5.6727 Y2.8521 I-0.2982 J-0.4014
G2 X5.2561 Y2.8543 I-0.2076 J0.1393
G3 X4.5356 Y2.9784 I-0.4181 J-0.2742
X4.4614 Y2.2511 I0.3023 J-0.3983
G2 X4.2847 Y1.8369 I-0.1883 J-0.1645
G1 X4.1804 Y1.8318
X4.0775 Y1.8259
X3.9753 Y1.8192
G2 X3.7522 Y2.2104 I-0.0171 J0.2494
G3 X3.584 Y2.9306 I-0.4118 J0.2836
X2.8828 Y2.6954 I-0.2436 J-0.4367
G2 X2.4722 Y2.6244 I-0.2288 J0.1007
G3 X1.7276 Y2.6049 I-0.3635 J-0.3433
X1.8285 Y1.867 I0.381 J-0.3238
G2 X1.76 Y1.4204 I-0.1401 J-0.2071
G1 X1.6392 Y1.3837
X1.5194 Y1.3458
X1.4001 Y1.3066
X1.2814 Y1.2661
X1.1633 Y1.2242
X1.0458 Y1.1811
X0.9283 Y1.1363
G2 X0.7682 Y1.3007 I-0.0445 J0.1168
G1 X0.898 Y1.6163
G2 X0.9715 Y1.6865 I0.1156 J-0.0475
G1 X1.2213 Y1.776
X1.1218 Y2.0824
G2 X1.1251 Y2.1685 I0.1189 J0.0386
G1 X1.307 Y2.6108
G2 X1.9052 Y3.1238 I0.8017 J-0.3297
X1.9059 Y3.1239 I0.0293 J-0.1215
G1 X2.0253 Y3.1521
G2 X2.0266 Y3.1524 I0.0287 J-0.1217
G1 X2.1465 Y3.1793
G2 X2.1478 Y3.1796 I0.0274 J-0.122
G1 X2.2682 Y3.2053
G2 X2.2695 Y3.2055 I0.0261 J-0.1223
G1 X2.3903 Y3.2299
G2 X2.3916 Y3.2302 I0.0247 J-0.1225
G1 X2.5127 Y3.2532
G2 X2.5141 Y3.2535 I0.0234 J-0.1228
G1 X2.6331 Y3.2748
G2 X2.6345 Y3.2751 I0.022 J-0.123
G1 X2.7536 Y3.295
G2 X2.7549 Y3.2953 I0.0207 J-0.1233
G1 X2.874 Y3.3139
G2 X2.8753 Y3.3141 I0.0193 J-0.1235
G1 X2.9943 Y3.3314
G2 X2.9956 Y3.3316 I0.018 J-0.1237
G1 X3.1169 Y3.348
G2 X3.1182 Y3.3482 I0.0167 J-0.1239
G1 X3.2393 Y3.3633
G2 X3.2406 Y3.3634 I0.0154 J-0.124
G1 X3.3616 Y3.3772
G2 X3.3628 Y3.3774 I0.0142 J-0.1242
G1 X3.4837 Y3.39
G2 X3.4849 Y3.3901 I0.0129 J-0.1243
G1 X3.6056 Y3.4015
G2 X3.6068 Y3.4016 I0.0117 J-0.1244
G1 X3.7273 Y3.4118
G2 X3.7285 Y3.4119 I0.0106 J-0.1246
G1 X3.8489 Y3.421
G2 X3.9831 Y3.3034 I0.0094 J-0.1246
G1 X3.9902 Y3.1799
X4.115 Y3.187
X4.1079 Y3.3106
G2 X4.2278 Y3.4426 I0.1248 J0.0071
G1 X4.3629 Y3.4479
G2 X4.364 I0.0049 J-0.1249
G1 X4.4985 Y3.452
G2 X4.4996 I0.0038 J-0.1249
G1 X4.6335 Y3.4549
G2 X4.6344 I0.0027 J-0.125
G1 X4.7673 Y3.4568
G2 X4.7681 I0.0018 J-0.125
G1 X4.8998 Y3.4579
G2 X4.9005 I0.001 J-0.125
G1 X5.0309 Y3.4582
G2 X5.0314 I0.0003 J-0.125
G1 X5.1532 Y3.458
G2 X5.1536 I-0.0002 J-0.125
G1 X5.2742 Y3.4573
X5.2745
X5.394 Y3.4564
X5.3942
X5.5126 Y3.4554
X5.5127
X5.6301 Y3.4542
X5.727 Y3.4533
X5.823 Y3.4525
X5.9181 Y3.4518
X6.0121 Y3.4513
X6.105 Y3.4511
X6.1974
X6.2851 Y3.4515
X6.3739 Y3.4521
X6.4642 Y3.4528
X6.5561 Y3.4537
X6.6493 Y3.4545
G2 X6.7754 Y3.3295 I0.0011 J-0.125
G1 Y3.2056
X6.9004
Y3.3295
G2 X7.0265 Y3.4545 I0.125 J0.
G1 X7.1111 Y3.4538
X7.1947 Y3.453
X7.2769 Y3.4523
X7.3579 Y3.4517
X7.4378 Y3.4513
X7.5414 Y3.451
X7.6452 Y3.4512
X7.7503 Y3.4517
X7.8645 Y3.4526
X7.98 Y3.4536
X8.0967 Y3.4547
X8.2146 Y3.4558
X8.2147
X8.3336 Y3.4568
X8.3338 Y3.4569
X8.4538 Y3.4576
X8.4541
X8.5752 Y3.4581
G2 X8.5757 I0.0005 J-0.125
G1 X8.6979
G2 X8.6985 I0. J-0.125
G1 X8.8219 Y3.4576
G2 X8.8226 I-0.0005 J-0.125
G1 X8.9472 Y3.4564
G2 X8.948 I-0.0012 J-0.125
G1 X9.0713 Y3.4544
G2 X9.0722 I-0.002 J-0.125
G1 X9.1963 Y3.4515
G2 X9.1973 I-0.0029 J-0.125
G1 X9.3219 Y3.4476
G2 X9.323 I-0.0039 J-0.1249
G1 X9.448 Y3.4426
G2 X9.5679 Y3.3106 I-0.0049 J-0.1249
G1 X9.5608 Y3.187
X9.6856 Y3.1799
X9.6927 Y3.3034
G2 X9.8269 Y3.421 I0.1248 J-0.0071
G1 X9.9471 Y3.4119
G2 X9.9482 Y3.4118 I-0.0094 J-0.1246
G1 X10.0685 Y3.4016
G2 X10.0697 Y3.4015 I-0.0106 J-0.1246
G1 X10.1901 Y3.3902
G2 X10.1913 Y3.39 I-0.0117 J-0.1244
G1 X10.3119 Y3.3775
G2 X10.3131 Y3.3774 I-0.0129 J-0.1243
G1 X10.4339 Y3.3636
G2 X10.4351 Y3.3634 I-0.0142 J-0.1242
G1 X10.5539 Y3.3487
G2 X10.5551 Y3.3485 I-0.0154 J-0.124
G1 X10.674 Y3.3325
G2 X10.6753 Y3.3323 I-0.0167 J-0.1239
G1 X10.7943 Y3.315
G2 X10.7956 Y3.3148 I-0.018 J-0.1237
G1 X10.9146 Y3.2963
G2 X10.916 Y3.296 I-0.0193 J-0.1235
G1 X11.0375 Y3.2757
G2 X11.0389 Y3.2755 I-0.0206 J-0.1233
G1 X11.1604 Y3.2538
G2 X11.1618 Y3.2535 I-0.022 J-0.123
G1 X11.2831 Y3.2304
G2 X11.2844 Y3.2301 I-0.0234 J-0.1228
G1 X11.4055 Y3.2057
G2 X11.4069 Y3.2054 I-0.0247 J-0.1225
G1 X11.5275 Y3.1797
G2 X11.5288 Y3.1794 I-0.0261 J-0.1223
G1 X11.6489 Y3.1524
G2 X11.6502 Y3.1521 I-0.0274 J-0.122
G1 X11.7699 Y3.1239
G2 X11.7705 Y3.1238 I-0.0287 J-0.1217
X12.3688 Y2.6108 I-0.2034 J-0.8426
G1 X12.5507 Y2.1685
G2 X12.554 Y2.0824 I-0.1156 J-0.0475
G1 X12.4545 Y1.776
X12.7044 Y1.6865
G2 X12.7778 Y1.6163 I-0.0422 J-0.1177
G1 X12.9076 Y1.3007
G2 X12.7476 Y1.1363 I-0.1156 J-0.0475
G1 X12.6298 Y1.1811
X12.5123 Y1.2243
X12.3942 Y1.2661
X12.2755 Y1.3066
X12.1562 Y1.3459
X12.0364 Y1.3838
X11.9158 Y1.4204
G2 X11.8473 Y1.867 I0.0716 J0.2395
G3 X11.9482 Y2.6049 I-0.2802 J0.4141
X11.2036 Y2.6244 I-0.381 J-0.3238
G2 X10.793 Y2.6954 I-0.1818 J0.1716
G3 X10.0918 Y2.9306 I-0.4576 J-0.2014
X9.9236 Y2.2104 I0.2436 J-0.4366
G2 X9.7005 Y1.8192 I-0.2059 J-0.1418
G1 X9.5975 Y1.8259
X9.4946 Y1.8318
X9.3912 Y1.8369
G2 X9.2144 Y2.2511 I0.0114 J0.2497
G3 X9.1402 Y2.9784 I-0.3765 J0.329
X8.4198 Y2.8543 I-0.3023 J-0.3983
G2 X8.0031 Y2.8521 I-0.2091 J0.1371
G3 X7.2897 Y2.9749 I-0.4152 J-0.2786
X7.2013 Y2.2565 I0.2982 J-0.4014
G2 X7.0061 Y1.8479 I-0.1933 J-0.1585
G1 X6.9529 Y1.8483
G3 X6.9277 Y1.8234 I-0.0002 J-0.025
G1 X6.9276 Y1.7984
Y1.7945 Z-0.2747
X6.9275 Y1.7907 Z-0.2738
Y1.7871 Z-0.2723
Y1.7837 Z-0.2702
Y1.7807 Z-0.2677
Y1.7782 Z-0.2647
Y1.7761 Z-0.2613
X6.9274 Y1.7746 Z-0.2577
Y1.7737 Z-0.2539
Y1.7734 Z-0.25
Z-0.075
X7.6752 Y1.3256
X7.6755 Z-0.0789 F4.
X7.6764 Y1.3258 Z-0.0827
X7.6778 Y1.326 Z-0.0863
X7.6799 Y1.3263 Z-0.0897
X7.6824 Y1.3267 Z-0.0927
X7.6853 Y1.3272 Z-0.0952
X7.6886 Y1.3277 Z-0.0973
X7.6922 Y1.3283 Z-0.0988
X7.696 Y1.3289 Z-0.0997
X7.6998 Y1.3295 Z-0.1
X7.7245 Y1.3335 F12.
G3 X7.7452 Y1.3622 I-0.004 J0.0247
G2 X7.9939 Y1.6521 I0.2468 J0.0399
G1 X8.1621 Y1.651
X8.3303 Y1.6521
G2 X8.5255 Y1.2435 I0.0019 J-0.25
G3 X8.6139 Y0.5251 I0.3866 J-0.3171
X9.3273 Y0.6479 I0.2982 J0.4014
G2 X9.7439 Y0.6457 I0.2076 J-0.1393
G3 X10.4644 Y0.5216 I0.4181 J0.2742
X10.5386 Y1.2489 I-0.3023 J0.3983
G2 X10.7153 Y1.6631 I0.1883 J0.1645
G1 X10.8196 Y1.6682
X10.9225 Y1.6741
X11.0247 Y1.6808
G2 X11.2478 Y1.2896 I0.0171 J-0.2494
G3 X11.416 Y0.5694 I0.4118 J-0.2836
X12.1172 Y0.8046 I0.2436 J0.4367
G2 X12.5278 Y0.8756 I0.2288 J-0.1007
G3 X13.2723 Y0.8951 I0.3635 J0.3433
X13.1715 Y1.633 I-0.381 J0.3238
G2 X13.24 Y2.0796 I0.1401 J0.2071
G1 X13.3608 Y2.1163
X13.4807 Y2.1542
X13.5999 Y2.1934
X13.7186 Y2.2339
X13.8367 Y2.2758
X13.9542 Y2.3189
X14.0717 Y2.3637
G2 X14.2318 Y2.1993 I0.0445 J-0.1168
G1 X14.102 Y1.8837
G2 X14.0285 Y1.8135 I-0.1156 J0.0475
G1 X13.7787 Y1.724
X13.8782 Y1.4176
G2 X13.8749 Y1.3315 I-0.1189 J-0.0386
G1 X13.693 Y0.8892
G2 X13.0948 Y0.3762 I-0.8017 J0.3297
X13.0941 Y0.3761 I-0.0293 J0.1215
G1 X12.9747 Y0.3479
G2 X12.9734 Y0.3476 I-0.0287 J0.1217
G1 X12.8535 Y0.3207
G2 X12.8522 Y0.3204 I-0.0274 J0.122
G1 X12.7318 Y0.2947
G2 X12.7305 Y0.2945 I-0.0261 J0.1223
G1 X12.6097 Y0.2701
G2 X12.6084 Y0.2698 I-0.0247 J0.1225
G1 X12.4873 Y0.2467
G2 X12.4859 Y0.2465 I-0.0234 J0.1228
G1 X12.3669 Y0.2252
G2 X12.3655 Y0.2249 I-0.022 J0.123
G1 X12.2464 Y0.205
G2 X12.2451 Y0.2047 I-0.0207 J0.1233
G1 X12.126 Y0.1861
G2 X12.1247 Y0.1859 I-0.0193 J0.1235
G1 X12.0057 Y0.1686
G2 X12.0044 Y0.1684 I-0.018 J0.1237
G1 X11.8831 Y0.152
G2 X11.8818 Y0.1518 I-0.0167 J0.1239
G1 X11.7607 Y0.1367
G2 X11.7594 Y0.1366 I-0.0154 J0.124
G1 X11.6384 Y0.1228
G2 X11.6372 Y0.1226 I-0.0142 J0.1242
G1 X11.5163 Y0.11
G2 X11.5151 Y0.1099 I-0.0129 J0.1243
G1 X11.3944 Y0.0985
G2 X11.3932 Y0.0984 I-0.0117 J0.1244
G1 X11.2727 Y0.0882
G2 X11.2715 Y0.0881 I-0.0106 J0.1246
G1 X11.1511 Y0.079
G2 X11.0169 Y0.1966 I-0.0094 J0.1246
G1 X11.0098 Y0.3201
X10.885 Y0.313
X10.8921 Y0.1894
G2 X10.7722 Y0.0574 I-0.1248 J-0.0071
G1 X10.6371 Y0.0521
G2 X10.636 I-0.0049 J0.1249
G1 X10.5015 Y0.048
G2 X10.5004 I-0.0038 J0.1249
G1 X10.3665 Y0.0451
G2 X10.3656 I-0.0027 J0.125
G1 X10.2327 Y0.0432
G2 X10.2319 I-0.0018 J0.125
G1 X10.1002 Y0.0421
G2 X10.0995 I-0.001 J0.125
G1 X9.9691 Y0.0418
G2 X9.9686 I-0.0003 J0.125
G1 X9.8468 Y0.042
G2 X9.8464 I0.0002 J0.125
G1 X9.7258 Y0.0427
X9.7255
X9.606 Y0.0436
X9.6058
X9.4874 Y0.0446
X9.4873
X9.3699 Y0.0458
X9.273 Y0.0467
X9.177 Y0.0475
X9.0819 Y0.0482
X8.9879 Y0.0487
X8.895 Y0.0489
X8.8026
X8.7149 Y0.0485
X8.6261 Y0.0479
X8.5358 Y0.0472
X8.4439 Y0.0463
X8.3507 Y0.0455
G2 X8.2246 Y0.1705 I-0.0011 J0.125
G1 Y0.2944
X8.0996
Y0.1705
G2 X7.9735 Y0.0455 I-0.125 J0.
G1 X7.8889 Y0.0462
X7.8054 Y0.047
X7.7231 Y0.0477
X7.6421 Y0.0483
X7.5622 Y0.0487
X7.4586 Y0.049
X7.3548 Y0.0488
X7.2497 Y0.0483
X7.1355 Y0.0474
X7.02 Y0.0464
X6.9033 Y0.0453
X6.7854 Y0.0442
X6.7853
X6.6664 Y0.0432
X6.6662 Y0.0431
X6.5462 Y0.0424
X6.5459
X6.4248 Y0.0419
G2 X6.4243 I-0.0005 J0.125
G1 X6.3021
G2 X6.3015 I0. J0.125
G1 X6.1781 Y0.0424
G2 X6.1774 I0.0005 J0.125
G1 X6.0528 Y0.0436
G2 X6.052 I0.0012 J0.125
G1 X5.9287 Y0.0456
G2 X5.9278 I0.002 J0.125
G1 X5.8037 Y0.0485
G2 X5.8027 I0.0029 J0.125
G1 X5.6781 Y0.0524
G2 X5.677 I0.0039 J0.1249
G1 X5.552 Y0.0574
G2 X5.4321 Y0.1894 I0.0049 J0.1249
G1 X5.4392 Y0.313
X5.3144 Y0.3201
X5.3073 Y0.1966
G2 X5.1731 Y0.079 I-0.1248 J0.0071
G1 X5.0529 Y0.0881
G2 X5.0518 Y0.0882 I0.0094 J0.1246
G1 X4.9315 Y0.0984
G2 X4.9303 Y0.0985 I0.0106 J0.1246
G1 X4.8099 Y0.1098
G2 X4.8087 Y0.11 I0.0117 J0.1244
G1 X4.6881 Y0.1225
G2 X4.6869 Y0.1226 I0.0129 J0.1243
G1 X4.5661 Y0.1364
G2 X4.5649 Y0.1366 I0.0142 J0.1242
G1 X4.4461 Y0.1513
G2 X4.4449 Y0.1515 I0.0154 J0.124
G1 X4.326 Y0.1675
G2 X4.3247 Y0.1677 I0.0167 J0.1239
G1 X4.2057 Y0.185
G2 X4.2044 Y0.1852 I0.018 J0.1237
G1 X4.0854 Y0.2037
G2 X4.084 Y0.204 I0.0193 J0.1235
G1 X3.9625 Y0.2243
G2 X3.9611 Y0.2245 I0.0206 J0.1233
G1 X3.8396 Y0.2462
G2 X3.8382 Y0.2465 I0.022 J0.123
G1 X3.7169 Y0.2696
G2 X3.7155 Y0.2699 I0.0234 J0.1228
G1 X3.5945 Y0.2943
G2 X3.5932 Y0.2946 I0.0247 J0.1225
G1 X3.4725 Y0.3203
G2 X3.4712 Y0.3206 I0.0261 J0.1223
G1 X3.3511 Y0.3476
G2 X3.3498 Y0.3479 I0.0274 J0.122
G1 X3.2301 Y0.3761
G2 X3.2294 Y0.3762 I0.0287 J0.1217
X2.6312 Y0.8892 I0.2034 J0.8426
G1 X2.4493 Y1.3315
G2 X2.446 Y1.4176 I0.1156 J0.0475
G1 X2.5455 Y1.724
X2.2956 Y1.8135
G2 X2.2222 Y1.8837 I0.0422 J0.1177
G1 X2.0924 Y2.1993
G2 X2.2524 Y2.3637 I0.1156 J0.0475
G1 X2.3702 Y2.3189
X2.4877 Y2.2757
X2.6058 Y2.2339
X2.7245 Y2.1934
X2.8438 Y2.1541
X2.9636 Y2.1162
X3.0842 Y2.0796
G2 X3.1527 Y1.633 I-0.0716 J-0.2395
G3 X3.0518 Y0.8951 I0.2802 J-0.4141
X3.7964 Y0.8756 I0.381 J0.3238
G2 X4.207 Y0.8046 I0.1818 J-0.1716
G3 X4.9082 Y0.5694 I0.4576 J0.2014
X5.0764 Y1.2896 I-0.2436 J0.4366
G2 X5.2995 Y1.6808 I0.2059 J0.1418
G1 X5.4025 Y1.6741
X5.5054 Y1.6682
X5.6088 Y1.6631
G2 X5.7856 Y1.2489 I-0.0114 J-0.2497
G3 X5.8598 Y0.5216 I0.3765 J-0.329
X6.5802 Y0.6457 I0.3023 J0.3983
G2 X6.9969 Y0.6479 I0.2091 J-0.1371
G3 X7.7103 Y0.5251 I0.4152 J0.2786
X7.7987 Y1.2435 I-0.2982 J0.4014
G2 X7.7492 Y1.4615 I0.1933 J0.1585
G3 X7.7308 Y1.4917 I-0.0243 J0.0059
G1 X7.7065 Y1.4976
X7.7027 Y1.4985 Z-0.0997
X7.699 Y1.4994 Z-0.0988
X7.6955 Y1.5003 Z-0.0973
X7.6923 Y1.5011 Z-0.0952
X7.6894 Y1.5018 Z-0.0927
X7.6869 Y1.5024 Z-0.0897
X7.6849 Y1.5029 Z-0.0863
X7.6834 Y1.5033 Z-0.0827
X7.6825 Y1.5035 Z-0.0789
X7.6822 Y1.5036 Z-0.075
X7.6752 Y1.3256
Z-0.175 F4.
X7.6755 Z-0.1789
X7.6764 Y1.3258 Z-0.1827
X7.6778 Y1.326 Z-0.1863
X7.6799 Y1.3263 Z-0.1897
X7.6824 Y1.3267 Z-0.1927
X7.6853 Y1.3272 Z-0.1952
X7.6886 Y1.3277 Z-0.1973
X7.6922 Y1.3283 Z-0.1988
X7.696 Y1.3289 Z-0.1997
X7.6998 Y1.3295 Z-0.2
X7.7245 Y1.3335 F12.
G3 X7.7452 Y1.3622 I-0.004 J0.0247
G2 X7.9939 Y1.6521 I0.2468 J0.0399
G1 X8.1621 Y1.651
X8.3303 Y1.6521
G2 X8.5255 Y1.2435 I0.0019 J-0.25
G3 X8.6139 Y0.5251 I0.3866 J-0.3171
X9.3273 Y0.6479 I0.2982 J0.4014
G2 X9.7439 Y0.6457 I0.2076 J-0.1393
G3 X10.4644 Y0.5216 I0.4181 J0.2742
X10.5386 Y1.2489 I-0.3023 J0.3983
G2 X10.7153 Y1.6631 I0.1883 J0.1645
G1 X10.8196 Y1.6682
X10.9225 Y1.6741
X11.0247 Y1.6808
G2 X11.2478 Y1.2896 I0.0171 J-0.2494
G3 X11.416 Y0.5694 I0.4118 J-0.2836
X12.1172 Y0.8046 I0.2436 J0.4367
G2 X12.5278 Y0.8756 I0.2288 J-0.1007
G3 X13.2723 Y0.8951 I0.3635 J0.3433
X13.1715 Y1.633 I-0.381 J0.3238
G2 X13.24 Y2.0796 I0.1401 J0.2071
G1 X13.3608 Y2.1163
X13.4807 Y2.1542
X13.5999 Y2.1934
X13.7186 Y2.2339
X13.8367 Y2.2758
X13.9542 Y2.3189
X14.0717 Y2.3637
G2 X14.2318 Y2.1993 I0.0445 J-0.1168
G1 X14.102 Y1.8837
G2 X14.0285 Y1.8135 I-0.1156 J0.0475
G1 X13.7787 Y1.724
X13.8782 Y1.4176
G2 X13.8749 Y1.3315 I-0.1189 J-0.0386
G1 X13.693 Y0.8892
G2 X13.0948 Y0.3762 I-0.8017 J0.3297
X13.0941 Y0.3761 I-0.0293 J0.1215
G1 X12.9747 Y0.3479
G2 X12.9734 Y0.3476 I-0.0287 J0.1217
G1 X12.8535 Y0.3207
G2 X12.8522 Y0.3204 I-0.0274 J0.122
G1 X12.7318 Y0.2947
G2 X12.7305 Y0.2945 I-0.0261 J0.1223
G1 X12.6097 Y0.2701
G2 X12.6084 Y0.2698 I-0.0247 J0.1225
G1 X12.4873 Y0.2467
G2 X12.4859 Y0.2465 I-0.0234 J0.1228
G1 X12.3669 Y0.2252
G2 X12.3655 Y0.2249 I-0.022 J0.123
G1 X12.2464 Y0.205
G2 X12.2451 Y0.2047 I-0.0207 J0.1233
G1 X12.126 Y0.1861
G2 X12.1247 Y0.1859 I-0.0193 J0.1235
G1 X12.0057 Y0.1686
G2 X12.0044 Y0.1684 I-0.018 J0.1237
G1 X11.8831 Y0.152
G2 X11.8818 Y0.1518 I-0.0167 J0.1239
G1 X11.7607 Y0.1367
G2 X11.7594 Y0.1366 I-0.0154 J0.124
G1 X11.6384 Y0.1228
G2 X11.6372 Y0.1226 I-0.0142 J0.1242
G1 X11.5163 Y0.11
G2 X11.5151 Y0.1099 I-0.0129 J0.1243
G1 X11.3944 Y0.0985
G2 X11.3932 Y0.0984 I-0.0117 J0.1244
G1 X11.2727 Y0.0882
G2 X11.2715 Y0.0881 I-0.0106 J0.1246
G1 X11.1511 Y0.079
G2 X11.0169 Y0.1966 I-0.0094 J0.1246
G1 X11.0098 Y0.3201
X10.885 Y0.313
X10.8921 Y0.1894
G2 X10.7722 Y0.0574 I-0.1248 J-0.0071
G1 X10.6371 Y0.0521
G2 X10.636 I-0.0049 J0.1249
G1 X10.5015 Y0.048
G2 X10.5004 I-0.0038 J0.1249
G1 X10.3665 Y0.0451
G2 X10.3656 I-0.0027 J0.125
G1 X10.2327 Y0.0432
G2 X10.2319 I-0.0018 J0.125
G1 X10.1002 Y0.0421
G2 X10.0995 I-0.001 J0.125
G1 X9.9691 Y0.0418
G2 X9.9686 I-0.0003 J0.125
G1 X9.8468 Y0.042
G2 X9.8464 I0.0002 J0.125
G1 X9.7258 Y0.0427
X9.7255
X9.606 Y0.0436
X9.6058
X9.4874 Y0.0446
X9.4873
X9.3699 Y0.0458
X9.273 Y0.0467
X9.177 Y0.0475
X9.0819 Y0.0482
X8.9879 Y0.0487
X8.895 Y0.0489
X8.8026
X8.7149 Y0.0485
X8.6261 Y0.0479
X8.5358 Y0.0472
X8.4439 Y0.0463
X8.3507 Y0.0455
G2 X8.2246 Y0.1705 I-0.0011 J0.125
G1 Y0.2944
X8.0996
Y0.1705
G2 X7.9735 Y0.0455 I-0.125 J0.
G1 X7.8889 Y0.0462
X7.8054 Y0.047
X7.7231 Y0.0477
X7.6421 Y0.0483
X7.5622 Y0.0487
X7.4586 Y0.049
X7.3548 Y0.0488
X7.2497 Y0.0483
X7.1355 Y0.0474
X7.02 Y0.0464
X6.9033 Y0.0453
X6.7854 Y0.0442
X6.7853
X6.6664 Y0.0432
X6.6662 Y0.0431
X6.5462 Y0.0424
X6.5459
X6.4248 Y0.0419
G2 X6.4243 I-0.0005 J0.125
G1 X6.3021
G2 X6.3015 I0. J0.125
G1 X6.1781 Y0.0424
G2 X6.1774 I0.0005 J0.125
G1 X6.0528 Y0.0436
G2 X6.052 I0.0012 J0.125
G1 X5.9287 Y0.0456
G2 X5.9278 I0.002 J0.125
G1 X5.8037 Y0.0485
G2 X5.8027 I0.0029 J0.125
G1 X5.6781 Y0.0524
G2 X5.677 I0.0039 J0.1249
G1 X5.552 Y0.0574
G2 X5.4321 Y0.1894 I0.0049 J0.1249
G1 X5.4392 Y0.313
X5.3144 Y0.3201
X5.3073 Y0.1966
G2 X5.1731 Y0.079 I-0.1248 J0.0071
G1 X5.0529 Y0.0881
G2 X5.0518 Y0.0882 I0.0094 J0.1246
G1 X4.9315 Y0.0984
G2 X4.9303 Y0.0985 I0.0106 J0.1246
G1 X4.8099 Y0.1098
G2 X4.8087 Y0.11 I0.0117 J0.1244
G1 X4.6881 Y0.1225
G2 X4.6869 Y0.1226 I0.0129 J0.1243
G1 X4.5661 Y0.1364
G2 X4.5649 Y0.1366 I0.0142 J0.1242
G1 X4.4461 Y0.1513
G2 X4.4449 Y0.1515 I0.0154 J0.124
G1 X4.326 Y0.1675
G2 X4.3247 Y0.1677 I0.0167 J0.1239
G1 X4.2057 Y0.185
G2 X4.2044 Y0.1852 I0.018 J0.1237
G1 X4.0854 Y0.2037
G2 X4.084 Y0.204 I0.0193 J0.1235
G1 X3.9625 Y0.2243
G2 X3.9611 Y0.2245 I0.0206 J0.1233
G1 X3.8396 Y0.2462
G2 X3.8382 Y0.2465 I0.022 J0.123
G1 X3.7169 Y0.2696
G2 X3.7155 Y0.2699 I0.0234 J0.1228
G1 X3.5945 Y0.2943
G2 X3.5932 Y0.2946 I0.0247 J0.1225
G1 X3.4725 Y0.3203
G2 X3.4712 Y0.3206 I0.0261 J0.1223
G1 X3.3511 Y0.3476
G2 X3.3498 Y0.3479 I0.0274 J0.122
G1 X3.2301 Y0.3761
G2 X3.2294 Y0.3762 I0.0287 J0.1217
X2.6312 Y0.8892 I0.2034 J0.8426
G1 X2.4493 Y1.3315
G2 X2.446 Y1.4176 I0.1156 J0.0475
G1 X2.5455 Y1.724
X2.2956 Y1.8135
G2 X2.2222 Y1.8837 I0.0422 J0.1177
G1 X2.0924 Y2.1993
G2 X2.2524 Y2.3637 I0.1156 J0.0475
G1 X2.3702 Y2.3189
X2.4877 Y2.2757
X2.6058 Y2.2339
X2.7245 Y2.1934
X2.8438 Y2.1541
X2.9636 Y2.1162
X3.0842 Y2.0796
G2 X3.1527 Y1.633 I-0.0716 J-0.2395
G3 X3.0518 Y0.8951 I0.2802 J-0.4141
X3.7964 Y0.8756 I0.381 J0.3238
G2 X4.207 Y0.8046 I0.1818 J-0.1716
G3 X4.9082 Y0.5694 I0.4576 J0.2014
X5.0764 Y1.2896 I-0.2436 J0.4366
G2 X5.2995 Y1.6808 I0.2059 J0.1418
G1 X5.4025 Y1.6741
X5.5054 Y1.6682
X5.6088 Y1.6631
G2 X5.7856 Y1.2489 I-0.0114 J-0.2497
G3 X5.8598 Y0.5216 I0.3765 J-0.329
X6.5802 Y0.6457 I0.3023 J0.3983
G2 X6.9969 Y0.6479 I0.2091 J-0.1371
G3 X7.7103 Y0.5251 I0.4152 J0.2786
X7.7987 Y1.2435 I-0.2982 J0.4014
G2 X7.7492 Y1.4615 I0.1933 J0.1585
G3 X7.7308 Y1.4917 I-0.0243 J0.0059
G1 X7.7065 Y1.4976
X7.7027 Y1.4985 Z-0.1997
X7.699 Y1.4994 Z-0.1988
X7.6955 Y1.5003 Z-0.1973
X7.6923 Y1.5011 Z-0.1952
X7.6894 Y1.5018 Z-0.1927
X7.6869 Y1.5024 Z-0.1897
X7.6849 Y1.5029 Z-0.1863
X7.6834 Y1.5033 Z-0.1827
X7.6825 Y1.5035 Z-0.1789
X7.6822 Y1.5036 Z-0.175
X7.6752 Y1.3256
Z-0.25 F4.
X7.6755 Z-0.2539
X7.6764 Y1.3258 Z-0.2577
X7.6778 Y1.326 Z-0.2613
X7.6799 Y1.3263 Z-0.2647
X7.6824 Y1.3267 Z-0.2677
X7.6853 Y1.3272 Z-0.2702
X7.6886 Y1.3277 Z-0.2723
X7.6922 Y1.3283 Z-0.2738
X7.696 Y1.3289 Z-0.2747
X7.6998 Y1.3295 Z-0.275
X7.7245 Y1.3335 F12.
G3 X7.7452 Y1.3622 I-0.004 J0.0247
G2 X7.9939 Y1.6521 I0.2468 J0.0399
G1 X8.1621 Y1.651
X8.3303 Y1.6521
G2 X8.5255 Y1.2435 I0.0019 J-0.25
G3 X8.6139 Y0.5251 I0.3866 J-0.3171
X9.3273 Y0.6479 I0.2982 J0.4014
G2 X9.7439 Y0.6457 I0.2076 J-0.1393
G3 X10.4644 Y0.5216 I0.4181 J0.2742
X10.5386 Y1.2489 I-0.3023 J0.3983
G2 X10.7153 Y1.6631 I0.1883 J0.1645
G1 X10.8196 Y1.6682
X10.9225 Y1.6741
X11.0247 Y1.6808
G2 X11.2478 Y1.2896 I0.0171 J-0.2494
G3 X11.416 Y0.5694 I0.4118 J-0.2836
X12.1172 Y0.8046 I0.2436 J0.4367
G2 X12.5278 Y0.8756 I0.2288 J-0.1007
G3 X13.2723 Y0.8951 I0.3635 J0.3433
X13.1715 Y1.633 I-0.381 J0.3238
G2 X13.24 Y2.0796 I0.1401 J0.2071
G1 X13.3608 Y2.1163
X13.4807 Y2.1542
X13.5999 Y2.1934
X13.7186 Y2.2339
X13.8367 Y2.2758
X13.9542 Y2.3189
X14.0717 Y2.3637
G2 X14.2318 Y2.1993 I0.0445 J-0.1168
G1 X14.102 Y1.8837
G2 X14.0285 Y1.8135 I-0.1156 J0.0475
G1 X13.7787 Y1.724
X13.8782 Y1.4176
G2 X13.8749 Y1.3315 I-0.1189 J-0.0386
G1 X13.693 Y0.8892
G2 X13.0948 Y0.3762 I-0.8017 J0.3297
X13.0941 Y0.3761 I-0.0293 J0.1215
G1 X12.9747 Y0.3479
G2 X12.9734 Y0.3476 I-0.0287 J0.1217
G1 X12.8535 Y0.3207
G2 X12.8522 Y0.3204 I-0.0274 J0.122
G1 X12.7318 Y0.2947
G2 X12.7305 Y0.2945 I-0.0261 J0.1223
G1 X12.6097 Y0.2701
G2 X12.6084 Y0.2698 I-0.0247 J0.1225
G1 X12.4873 Y0.2467
G2 X12.4859 Y0.2465 I-0.0234 J0.1228
G1 X12.3669 Y0.2252
G2 X12.3655 Y0.2249 I-0.022 J0.123
G1 X12.2464 Y0.205
G2 X12.2451 Y0.2047 I-0.0207 J0.1233
G1 X12.126 Y0.1861
G2 X12.1247 Y0.1859 I-0.0193 J0.1235
G1 X12.0057 Y0.1686
G2 X12.0044 Y0.1684 I-0.018 J0.1237
G1 X11.8831 Y0.152
G2 X11.8818 Y0.1518 I-0.0167 J0.1239
G1 X11.7607 Y0.1367
G2 X11.7594 Y0.1366 I-0.0154 J0.124
G1 X11.6384 Y0.1228
G2 X11.6372 Y0.1226 I-0.0142 J0.1242
G1 X11.5163 Y0.11
G2 X11.5151 Y0.1099 I-0.0129 J0.1243
G1 X11.3944 Y0.0985
G2 X11.3932 Y0.0984 I-0.0117 J0.1244
G1 X11.2727 Y0.0882
G2 X11.2715 Y0.0881 I-0.0106 J0.1246
G1 X11.1511 Y0.079
G2 X11.0169 Y0.1966 I-0.0094 J0.1246
G1 X11.0098 Y0.3201
X10.885 Y0.313
X10.8921 Y0.1894
G2 X10.7722 Y0.0574 I-0.1248 J-0.0071
G1 X10.6371 Y0.0521
G2 X10.636 I-0.0049 J0.1249
G1 X10.5015 Y0.048
G2 X10.5004 I-0.0038 J0.1249
G1 X10.3665 Y0.0451
G2 X10.3656 I-0.0027 J0.125
G1 X10.2327 Y0.0432
G2 X10.2319 I-0.0018 J0.125
G1 X10.1002 Y0.0421
G2 X10.0995 I-0.001 J0.125
G1 X9.9691 Y0.0418
G2 X9.9686 I-0.0003 J0.125
G1 X9.8468 Y0.042
G2 X9.8464 I0.0002 J0.125
G1 X9.7258 Y0.0427
X9.7255
X9.606 Y0.0436
X9.6058
X9.4874 Y0.0446
X9.4873
X9.3699 Y0.0458
X9.273 Y0.0467
X9.177 Y0.0475
X9.0819 Y0.0482
X8.9879 Y0.0487
X8.895 Y0.0489
X8.8026
X8.7149 Y0.0485
X8.6261 Y0.0479
X8.5358 Y0.0472
X8.4439 Y0.0463
X8.3507 Y0.0455
G2 X8.2246 Y0.1705 I-0.0011 J0.125
G1 Y0.2944
X8.0996
Y0.1705
G2 X7.9735 Y0.0455 I-0.125 J0.
G1 X7.8889 Y0.0462
X7.8054 Y0.047
X7.7231 Y0.0477
X7.6421 Y0.0483
X7.5622 Y0.0487
X7.4586 Y0.049
X7.3548 Y0.0488
X7.2497 Y0.0483
X7.1355 Y0.0474
X7.02 Y0.0464
X6.9033 Y0.0453
X6.7854 Y0.0442
X6.7853
X6.6664 Y0.0432
X6.6662 Y0.0431
X6.5462 Y0.0424
X6.5459
X6.4248 Y0.0419
G2 X6.4243 I-0.0005 J0.125
G1 X6.3021
G2 X6.3015 I0. J0.125
G1 X6.1781 Y0.0424
G2 X6.1774 I0.0005 J0.125
G1 X6.0528 Y0.0436
G2 X6.052 I0.0012 J0.125
G1 X5.9287 Y0.0456
G2 X5.9278 I0.002 J0.125
G1 X5.8037 Y0.0485
G2 X5.8027 I0.0029 J0.125
G1 X5.6781 Y0.0524
G2 X5.677 I0.0039 J0.1249
G1 X5.552 Y0.0574
G2 X5.4321 Y0.1894 I0.0049 J0.1249
G1 X5.4392 Y0.313
X5.3144 Y0.3201
X5.3073 Y0.1966
G2 X5.1731 Y0.079 I-0.1248 J0.0071
G1 X5.0529 Y0.0881
G2 X5.0518 Y0.0882 I0.0094 J0.1246
G1 X4.9315 Y0.0984
G2 X4.9303 Y0.0985 I0.0106 J0.1246
G1 X4.8099 Y0.1098
G2 X4.8087 Y0.11 I0.0117 J0.1244
G1 X4.6881 Y0.1225
G2 X4.6869 Y0.1226 I0.0129 J0.1243
G1 X4.5661 Y0.1364
G2 X4.5649 Y0.1366 I0.0142 J0.1242
G1 X4.4461 Y0.1513
G2 X4.4449 Y0.1515 I0.0154 J0.124
G1 X4.326 Y0.1675
G2 X4.3247 Y0.1677 I0.0167 J0.1239
G1 X4.2057 Y0.185
G2 X4.2044 Y0.1852 I0.018 J0.1237
G1 X4.0854 Y0.2037
G2 X4.084 Y0.204 I0.0193 J0.1235
G1 X3.9625 Y0.2243
G2 X3.9611 Y0.2245 I0.0206 J0.1233
G1 X3.8396 Y0.2462
G2 X3.8382 Y0.2465 I0.022 J0.123
G1 X3.7169 Y0.2696
G2 X3.7155 Y0.2699 I0.0234 J0.1228
G1 X3.5945 Y0.2943
G2 X3.5932 Y0.2946 I0.0247 J0.1225
G1 X3.4725 Y0.3203
G2 X3.4712 Y0.3206 I0.0261 J0.1223
G1 X3.3511 Y0.3476
G2 X3.3498 Y0.3479 I0.0274 J0.122
G1 X3.2301 Y0.3761
G2 X3.2294 Y0.3762 I0.0287 J0.1217
X2.6312 Y0.8892 I0.2034 J0.8426
G1 X2.4493 Y1.3315
G2 X2.446 Y1.4176 I0.1156 J0.0475
G1 X2.5455 Y1.724
X2.2956 Y1.8135
G2 X2.2222 Y1.8837 I0.0422 J0.1177
G1 X2.0924 Y2.1993
G2 X2.2524 Y2.3637 I0.1156 J0.0475
G1 X2.3702 Y2.3189
X2.4877 Y2.2757
X2.6058 Y2.2339
X2.7245 Y2.1934
X2.8438 Y2.1541
X2.9636 Y2.1162
X3.0842 Y2.0796
G2 X3.1527 Y1.633 I-0.0716 J-0.2395
G3 X3.0518 Y0.8951 I0.2802 J-0.4141
X3.7964 Y0.8756 I0.381 J0.3238
G2 X4.207 Y0.8046 I0.1818 J-0.1716
G3 X4.9082 Y0.5694 I0.4576 J0.2014
X5.0764 Y1.2896 I-0.2436 J0.4366
G2 X5.2995 Y1.6808 I0.2059 J0.1418
G1 X5.4025 Y1.6741
X5.5054 Y1.6682
X5.6088 Y1.6631
G2 X5.7856 Y1.2489 I-0.0114 J-0.2497
G3 X5.8598 Y0.5216 I0.3765 J-0.329
X6.5802 Y0.6457 I0.3023 J0.3983
G2 X6.9969 Y0.6479 I0.2091 J-0.1371
G3 X7.7103 Y0.5251 I0.4152 J0.2786
X7.7987 Y1.2435 I-0.2982 J0.4014
G2 X7.7492 Y1.4615 I0.1933 J0.1585
G3 X7.7308 Y1.4917 I-0.0243 J0.0059
G1 X7.7065 Y1.4976
X7.7027 Y1.4985 Z-0.2747
X7.699 Y1.4994 Z-0.2738
X7.6955 Y1.5003 Z-0.2723
X7.6923 Y1.5011 Z-0.2702
X7.6894 Y1.5018 Z-0.2677
X7.6869 Y1.5024 Z-0.2647
X7.6849 Y1.5029 Z-0.2613
X7.6834 Y1.5033 Z-0.2577
X7.6825 Y1.5035 Z-0.2539
X7.6822 Y1.5036 Z-0.25
G0 Z0.6

(2D CONTOUR6)
M8
G0 X13.7766 Y0.8952
Z0.6
Z0.2
G1 Z0.08 F4.
Z-0.35
X13.7763 Y0.8953 Z-0.3539
X13.7754 Y0.8956 Z-0.3577
X13.774 Y0.8962 Z-0.3613
X13.7721 Y0.897 Z-0.3647
X13.7698 Y0.8979 Z-0.3677
X13.767 Y0.8991 Z-0.3702
X13.7639 Y0.9003 Z-0.3723
X13.7606 Y0.9017 Z-0.3738
X13.7571 Y0.9032 Z-0.3747
X13.7534 Y0.9047 Z-0.375
X13.7303 Y0.9142 F12.
G3 X13.6977 Y0.9006 I-0.0095 J-0.0231
G1 X13.693 Y0.8892
G2 X13.0948 Y0.3762 I-0.8017 J0.3297
X13.0941 Y0.3761 I-0.0293 J0.1215
G1 X12.9747 Y0.3479
G2 X12.9734 Y0.3476 I-0.0287 J0.1217
G1 X12.8535 Y0.3207
G2 X12.8522 Y0.3204 I-0.0274 J0.122
G1 X12.7318 Y0.2947
G2 X12.7305 Y0.2945 I-0.0261 J0.1223
G1 X12.6097 Y0.2701
G2 X12.6084 Y0.2698 I-0.0247 J0.1225
G1 X12.4873 Y0.2467
G2 X12.4859 Y0.2465 I-0.0234 J0.1228
G1 X12.3669 Y0.2252
G2 X12.3655 Y0.2249 I-0.022 J0.123
G1 X12.2464 Y0.205
G2 X12.2451 Y0.2047 I-0.0207 J0.1233
G1 X12.126 Y0.1861
G2 X12.1247 Y0.1859 I-0.0193 J0.1235
G1 X12.0057 Y0.1686
G2 X12.0044 Y0.1684 I-0.018 J0.1237
G1 X11.8831 Y0.152
G2 X11.8818 Y0.1518 I-0.0167 J0.1239
G1 X11.7607 Y0.1367
G2 X11.7594 Y0.1366 I-0.0154 J0.124
G1 X11.6384 Y0.1228
G2 X11.6372 Y0.1226 I-0.0142 J0.1242
G1 X11.5163 Y0.11
G2 X11.5151 Y0.1099 I-0.0129 J0.1243
G1 X11.3944 Y0.0985
G2 X11.3932 Y0.0984 I-0.0117 J0.1244
G1 X11.2727 Y0.0882
G2 X11.2715 Y0.0881 I-0.0106 J0.1246
G1 X11.1511 Y0.079
G2 X11.0169 Y0.1966 I-0.0094 J0.1246
G1 X11.0098 Y0.3201
X10.885 Y0.313
X10.8921 Y0.1894
G2 X10.7722 Y0.0574 I-0.1248 J-0.0071
G1 X10.6371 Y0.0521
G2 X10.636 I-0.0049 J0.1249
G1 X10.5015 Y0.048
G2 X10.5004 I-0.0038 J0.1249
G1 X10.3665 Y0.0451
G2 X10.3656 I-0.0027 J0.125
G1 X10.2327 Y0.0432
G2 X10.2319 I-0.0018 J0.125
G1 X10.1002 Y0.0421
G2 X10.0995 I-0.001 J0.125
G1 X9.9691 Y0.0418
G2 X9.9686 I-0.0003 J0.125
G1 X9.8468 Y0.042
G2 X9.8464 I0.0002 J0.125
G1 X9.7258 Y0.0427
X9.7255
X9.606 Y0.0436
X9.6058
X9.4874 Y0.0446
X9.4873
X9.3699 Y0.0458
X9.273 Y0.0467
X9.177 Y0.0475
X9.0819 Y0.0482
X8.9879 Y0.0487
X8.895 Y0.0489
X8.8026
X8.7149 Y0.0485
X8.6261 Y0.0479
X8.5358 Y0.0472
X8.4439 Y0.0463
X8.3507 Y0.0455
G2 X8.2246 Y0.1705 I-0.0011 J0.125
G1 Y0.2944
X8.0996
Y0.1705
G2 X7.9735 Y0.0455 I-0.125 J0.
G1 X7.8889 Y0.0462
X7.8054 Y0.047
X7.7231 Y0.0477
X7.6421 Y0.0483
X7.5622 Y0.0487
X7.4586 Y0.049
X7.3548 Y0.0488
X7.2497 Y0.0483
X7.1355 Y0.0474
X7.02 Y0.0464
X6.9033 Y0.0453
X6.7854 Y0.0442
X6.7853
X6.6664 Y0.0432
X6.6662 Y0.0431
X6.5462 Y0.0424
X6.5459
X6.4248 Y0.0419
G2 X6.4243 I-0.0005 J0.125
G1 X6.3021
G2 X6.3015 I0. J0.125
G1 X6.1781 Y0.0424
G2 X6.1774 I0.0005 J0.125
G1 X6.0528 Y0.0436
G2 X6.052 I0.0012 J0.125
G1 X5.9287 Y0.0456
G2 X5.9278 I0.002 J0.125
G1 X5.8037 Y0.0485
G2 X5.8027 I0.0029 J0.125
G1 X5.6781 Y0.0524
G2 X5.677 I0.0039 J0.1249
G1 X5.552 Y0.0574
G2 X5.4321 Y0.1894 I0.0049 J0.1249
G1 X5.4392 Y0.313
X5.3144 Y0.3201
X5.3073 Y0.1966
G2 X5.1731 Y0.079 I-0.1248 J0.0071
G1 X5.0529 Y0.0881
G2 X5.0518 Y0.0882 I0.0094 J0.1246
G1 X4.9315 Y0.0984
G2 X4.9303 Y0.0985 I0.0106 J0.1246
G1 X4.8099 Y0.1098
G2 X4.8087 Y0.11 I0.0117 J0.1244
G1 X4.6881 Y0.1225
G2 X4.6869 Y0.1226 I0.0129 J0.1243
G1 X4.5661 Y0.1364
G2 X4.5649 Y0.1366 I0.0142 J0.1242
G1 X4.4461 Y0.1513
G2 X4.4449 Y0.1515 I0.0154 J0.124
G1 X4.326 Y0.1675
G2 X4.3247 Y0.1677 I0.0167 J0.1239
G1 X4.2057 Y0.185
G2 X4.2044 Y0.1852 I0.018 J0.1237
G1 X4.0854 Y0.2037
G2 X4.084 Y0.204 I0.0193 J0.1235
G1 X3.9625 Y0.2243
G2 X3.9611 Y0.2245 I0.0206 J0.1233
G1 X3.8396 Y0.2462
G2 X3.8382 Y0.2465 I0.022 J0.123
G1 X3.7169 Y0.2696
G2 X3.7155 Y0.2699 I0.0234 J0.1228
G1 X3.5945 Y0.2943
G2 X3.5932 Y0.2946 I0.0247 J0.1225
G1 X3.4725 Y0.3203
G2 X3.4712 Y0.3206 I0.0261 J0.1223
G1 X3.3511 Y0.3476
G2 X3.3498 Y0.3479 I0.0274 J0.122
G1 X3.2301 Y0.3761
G2 X3.2294 Y0.3762 I0.0287 J0.1217
X2.6312 Y0.8892 I0.2034 J0.8426
G1 X2.6265 Y0.9006
G3 X2.5939 Y0.9142 I-0.0231 J-0.0095
G1 X2.5707 Y0.9047
X2.5671 Y0.9032 Z-0.3747
X2.5636 Y0.9017 Z-0.3738
X2.5602 Y0.9003 Z-0.3723
X2.5571 Y0.8991 Z-0.3702
X2.5544 Y0.8979 Z-0.3677
X2.552 Y0.897 Z-0.3647
X2.5501 Y0.8962 Z-0.3613
X2.5487 Y0.8956 Z-0.3577
X2.5479 Y0.8953 Z-0.3539
X2.5476 Y0.8952 Z-0.35
G0 Z0.6

(2D CONTOUR15)
M8
G0 X1.2234 Y2.6048
Z0.6
Z0.2
G1 Z0.08 F4.
Z-0.35
X1.2237 Y2.6047 Z-0.3539
X1.2246 Y2.6044 Z-0.3577
X1.2259 Y2.6038 Z-0.3613
X1.2278 Y2.603 Z-0.3647
X1.2302 Y2.6021 Z-0.3677
X1.233 Y2.6009 Z-0.3702
X1.2361 Y2.5997 Z-0.3723
X1.2394 Y2.5983 Z-0.3738
X1.2429 Y2.5968 Z-0.3747
X1.2465 Y2.5953 Z-0.375
X1.2697 Y2.5858 F12.
G3 X1.3023 Y2.5994 I0.0095 J0.0231
G1 X1.307 Y2.6108
G2 X1.9052 Y3.1238 I0.8017 J-0.3297
X1.9059 Y3.1239 I0.0293 J-0.1215
G1 X2.0253 Y3.1521
G2 X2.0266 Y3.1524 I0.0287 J-0.1217
G1 X2.1465 Y3.1793
G2 X2.1478 Y3.1796 I0.0274 J-0.122
G1 X2.2682 Y3.2053
G2 X2.2695 Y3.2055 I0.0261 J-0.1223
G1 X2.3903 Y3.2299
G2 X2.3916 Y3.2302 I0.0247 J-0.1225
G1 X2.5127 Y3.2532
G2 X2.5141 Y3.2535 I0.0234 J-0.1228
G1 X2.6331 Y3.2748
G2 X2.6345 Y3.2751 I0.022 J-0.123
G1 X2.7536 Y3.295
G2 X2.7549 Y3.2953 I0.0207 J-0.1233
G1 X2.874 Y3.3139
G2 X2.8753 Y3.3141 I0.0193 J-0.1235
G1 X2.9943 Y3.3314
G2 X2.9956 Y3.3316 I0.018 J-0.1237
G1 X3.1169 Y3.348
G2 X3.1182 Y3.3482 I0.0167 J-0.1239
G1 X3.2393 Y3.3633
G2 X3.2406 Y3.3634 I0.0154 J-0.124
G1 X3.3616 Y3.3772
G2 X3.3628 Y3.3774 I0.0142 J-0.1242
G1 X3.4837 Y3.39
G2 X3.4849 Y3.3901 I0.0129 J-0.1243
G1 X3.6056 Y3.4015
G2 X3.6068 Y3.4016 I0.0117 J-0.1244
G1 X3.7273 Y3.4118
G2 X3.7285 Y3.4119 I0.0106 J-0.1246
G1 X3.8489 Y3.421
G2 X3.9831 Y3.3034 I0.0094 J-0.1246
G1 X3.9902 Y3.1799
X4.115 Y3.187
X4.1079 Y3.3106
G2 X4.2278 Y3.4426 I0.1248 J0.0071
G1 X4.3629 Y3.4479
G2 X4.364 I0.0049 J-0.1249
G1 X4.4985 Y3.452
G2 X4.4996 I0.0038 J-0.1249
G1 X4.6335 Y3.4549
G2 X4.6344 I0.0027 J-0.125
G1 X4.7673 Y3.4568
G2 X4.7681 I0.0018 J-0.125
G1 X4.8998 Y3.4579
G2 X4.9005 I0.001 J-0.125
G1 X5.0309 Y3.4582
G2 X5.0314 I0.0003 J-0.125
G1 X5.1532 Y3.458
G2 X5.1536 I-0.0002 J-0.125
G1 X5.2742 Y3.4573
X5.2745
X5.394 Y3.4564
X5.3942
X5.5126 Y3.4554
X5.5127
X5.6301 Y3.4542
X5.727 Y3.4533
X5.823 Y3.4525
X5.9181 Y3.4518
X6.0121 Y3.4513
X6.105 Y3.4511
X6.1974
X6.2851 Y3.4515
X6.3739 Y3.4521
X6.4642 Y3.4528
X6.5561 Y3.4537
X6.6493 Y3.4545
G2 X6.7754 Y3.3295 I0.0011 J-0.125
G1 Y3.2056
X6.9004
Y3.3295
G2 X7.0265 Y3.4545 I0.125 J0.
G1 X7.1111 Y3.4538
X7.1947 Y3.453
X7.2769 Y3.4523
X7.3579 Y3.4517
X7.4378 Y3.4513
X7.5414 Y3.451
X7.6452 Y3.4512
X7.7503 Y3.4517
X7.8645 Y3.4526
X7.98 Y3.4536
X8.0967 Y3.4547
X8.2146 Y3.4558
X8.2147
X8.3336 Y3.4568
X8.3338 Y3.4569
X8.4538 Y3.4576
X8.4541
X8.5752 Y3.4581
G2 X8.5757 I0.0005 J-0.125
G1 X8.6979
G2 X8.6985 I0. J-0.125
G1 X8.8219 Y3.4576
G2 X8.8226 I-0.0005 J-0.125
G1 X8.9472 Y3.4564
G2 X8.948 I-0.0012 J-0.125
G1 X9.0713 Y3.4544
G2 X9.0722 I-0.002 J-0.125
G1 X9.1963 Y3.4515
G2 X9.1973 I-0.0029 J-0.125
G1 X9.3219 Y3.4476
G2 X9.323 I-0.0039 J-0.1249
G1 X9.448 Y3.4426
G2 X9.5679 Y3.3106 I-0.0049 J-0.1249
G1 X9.5608 Y3.187
X9.6856 Y3.1799
X9.6927 Y3.3034
G2 X9.8269 Y3.421 I0.1248 J-0.0071
G1 X9.9471 Y3.4119
G2 X9.9482 Y3.4118 I-0.0094 J-0.1246
G1 X10.0685 Y3.4016
G2 X10.0697 Y3.4015 I-0.0106 J-0.1246
G1 X10.1901 Y3.3902
G2 X10.1913 Y3.39 I-0.0117 J-0.1244
G1 X10.3119 Y3.3775
G2 X10.3131 Y3.3774 I-0.0129 J-0.1243
G1 X10.4339 Y3.3636
G2 X10.4351 Y3.3634 I-0.0142 J-0.1242
G1 X10.5539 Y3.3487
G2 X10.5551 Y3.3485 I-0.0154 J-0.124
G1 X10.674 Y3.3325
G2 X10.6753 Y3.3323 I-0.0167 J-0.1239
G1 X10.7943 Y3.315
G2 X10.7956 Y3.3148 I-0.018 J-0.1237
G1 X10.9146 Y3.2963
G2 X10.916 Y3.296 I-0.0193 J-0.1235
G1 X11.0375 Y3.2757
G2 X11.0389 Y3.2755 I-0.0206 J-0.1233
G1 X11.1604 Y3.2538
G2 X11.1618 Y3.2535 I-0.022 J-0.123
G1 X11.2831 Y3.2304
G2 X11.2844 Y3.2301 I-0.0234 J-0.1228
G1 X11.4055 Y3.2057
G2 X11.4069 Y3.2054 I-0.0247 J-0.1225
G1 X11.5275 Y3.1797
G2 X11.5288 Y3.1794 I-0.0261 J-0.1223
G1 X11.6489 Y3.1524
G2 X11.6502 Y3.1521 I-0.0274 J-0.122
G1 X11.7699 Y3.1239
G2 X11.7705 Y3.1238 I-0.0287 J-0.1217
X12.3688 Y2.6108 I-0.2034 J-0.8426
G1 X12.3735 Y2.5994
G3 X12.4061 Y2.5858 I0.0231 J0.0095
G1 X12.4293 Y2.5953
X12.4329 Y2.5968 Z-0.3747
X12.4364 Y2.5983 Z-0.3738
X12.4398 Y2.5997 Z-0.3723
X12.4429 Y2.6009 Z-0.3702
X12.4456 Y2.6021 Z-0.3677
X12.448 Y2.603 Z-0.3647
X12.4499 Y2.6038 Z-0.3613
X12.4513 Y2.6044 Z-0.3577
X12.4521 Y2.6047 Z-0.3539
X12.4524 Y2.6048 Z-0.35
G0 Z0.6

(2D CONTOUR12)
M8
G0 X9.2136 Y1.821
Z0.6
Z0.2
G1 Z0.08 F4.
Z-0.35
X9.2138 Y1.8213 Z-0.3539
X9.2144 Y1.822 Z-0.3577
X9.2154 Y1.8231 Z-0.3613
X9.2167 Y1.8247 Z-0.3647
X9.2183 Y1.8267 Z-0.3677
X9.2202 Y1.8289 Z-0.3702
X9.2224 Y1.8315 Z-0.3723
X9.2247 Y1.8343 Z-0.3738
X9.2271 Y1.8372 Z-0.3747
X9.2296 Y1.8402 Z-0.375
X9.2457 Y1.8594 F12.
G3 X9.2425 Y1.8946 I-0.0192 J0.016
G2 X9.2144 Y2.2511 I0.1601 J0.192
G3 X9.1402 Y2.9784 I-0.3765 J0.329
X8.4198 Y2.8543 I-0.3023 J-0.3983
G2 X8.0031 Y2.8521 I-0.2091 J0.1371
G3 X7.2897 Y2.9749 I-0.4152 J-0.2786
X7.2013 Y2.2565 I0.2982 J-0.4014
G2 X7.1312 Y1.8804 I-0.1933 J-0.1585
G3 X7.1218 Y1.8464 I0.0123 J-0.0218
G1 X7.1342 Y1.8246
X7.1361 Y1.8212 Z-0.3747
X7.138 Y1.8179 Z-0.3738
X7.1397 Y1.8147 Z-0.3723
X7.1414 Y1.8118 Z-0.3702
X7.1429 Y1.8092 Z-0.3677
X7.1441 Y1.807 Z-0.3647
X7.1451 Y1.8052 Z-0.3613
X7.1459 Y1.8039 Z-0.3577
X7.1463 Y1.8031 Z-0.3539
X7.1465 Y1.8029 Z-0.35
G0 Z0.6

(2D CONTOUR9)
M8
G0 X10.5379 Y1.679
Z0.6
Z0.2
G1 Z0.08 F4.
Z-0.35
X10.5381 Y1.6788 Z-0.3539
X10.5386 Y1.6781 Z-0.3577
X10.5396 Y1.6769 Z-0.3613
X10.5409 Y1.6753 Z-0.3647
X10.5425 Y1.6734 Z-0.3677
X10.5445 Y1.6711 Z-0.3702
X10.5466 Y1.6685 Z-0.3723
X10.5489 Y1.6657 Z-0.3738
X10.5514 Y1.6628 Z-0.3747
X10.5539 Y1.6598 Z-0.375
X10.5699 Y1.6406 F12.
G2 X10.5667 Y1.6054 I-0.0192 J-0.016
G3 X10.5386 Y1.2489 I0.1601 J-0.192
G2 X10.4644 Y0.5216 I-0.3765 J-0.329
X9.7439 Y0.6457 I-0.3023 J0.3983
G3 X9.3273 Y0.6479 I-0.209 J-0.1371
G2 X8.6139 Y0.5251 I-0.4152 J0.2786
X8.5255 Y1.2435 I0.2982 J0.4014
G3 X8.4555 Y1.6196 I-0.1933 J0.1585
G2 X8.446 Y1.6536 I0.0123 J0.0218
G1 X8.4584 Y1.6754
X8.4603 Y1.6788 Z-0.3747
X8.4622 Y1.6821 Z-0.3738
X8.464 Y1.6853 Z-0.3723
X8.4656 Y1.6882 Z-0.3702
X8.4671 Y1.6908 Z-0.3677
X8.4683 Y1.693 Z-0.3647
X8.4693 Y1.6948 Z-0.3613
X8.4701 Y1.6961 Z-0.3577
X8.4705 Y1.6969 Z-0.3539
X8.4707 Y1.6971 Z-0.35
G0 Z0.6

(2D CONTOUR8)
M8
G0 X5.7864 Y1.679
Z0.6
Z0.2
G1 Z0.08 F4.
Z-0.35
X5.7862 Y1.6787 Z-0.3539
X5.7856 Y1.678 Z-0.3577
X5.7846 Y1.6769 Z-0.3613
X5.7833 Y1.6753 Z-0.3647
X5.7817 Y1.6733 Z-0.3677
X5.7798 Y1.6711 Z-0.3702
X5.7776 Y1.6685 Z-0.3723
X5.7753 Y1.6657 Z-0.3738
X5.7729 Y1.6628 Z-0.3747
X5.7704 Y1.6598 Z-0.375
X5.7543 Y1.6406 F12.
G3 X5.7575 Y1.6054 I0.0192 J-0.016
G2 X5.7856 Y1.2489 I-0.1601 J-0.192
G3 X5.8598 Y0.5216 I0.3765 J-0.329
X6.5802 Y0.6457 I0.3023 J0.3983
G2 X6.9969 Y0.6479 I0.2091 J-0.1371
G3 X7.7103 Y0.5251 I0.4152 J0.2786
X7.7987 Y1.2435 I-0.2982 J0.4014
G2 X7.8688 Y1.6196 I0.1933 J0.1585
G3 X7.8782 Y1.6536 I-0.0123 J0.0218
G1 X7.8658 Y1.6754
X7.8639 Y1.6788 Z-0.3747
X7.862 Y1.6821 Z-0.3738
X7.8603 Y1.6853 Z-0.3723
X7.8586 Y1.6882 Z-0.3702
X7.8571 Y1.6908 Z-0.3677
X7.8559 Y1.693 Z-0.3647
X7.8549 Y1.6948 Z-0.3613
X7.8541 Y1.6961 Z-0.3577
X7.8537 Y1.6969 Z-0.3539
X7.8535 Y1.6971 Z-0.35
G0 Z0.6

(2D CONTOUR13)
M8
G0 X4.4621 Y1.821
Z0.6
Z0.2
G1 Z0.08 F4.
Z-0.35
X4.4619 Y1.8212 Z-0.3539
X4.4614 Y1.8219 Z-0.3577
X4.4604 Y1.8231 Z-0.3613
X4.4591 Y1.8247 Z-0.3647
X4.4575 Y1.8266 Z-0.3677
X4.4555 Y1.8289 Z-0.3702
X4.4534 Y1.8315 Z-0.3723
X4.4511 Y1.8343 Z-0.3738
X4.4486 Y1.8372 Z-0.3747
X4.4461 Y1.8402 Z-0.375
X4.4301 Y1.8594 F12.
G2 X4.4333 Y1.8946 I0.0192 J0.016
G3 X4.4614 Y2.2511 I-0.1601 J0.192
G2 X4.5356 Y2.9784 I0.3765 J0.329
X5.2561 Y2.8543 I0.3023 J-0.3983
G3 X5.6727 Y2.8521 I0.209 J0.1371
G2 X6.3861 Y2.9749 I0.4152 J-0.2786
X6.4745 Y2.2565 I-0.2982 J-0.4014
G3 X6.5445 Y1.8804 I0.1933 J-0.1585
G2 X6.554 Y1.8464 I-0.0123 J-0.0218
G1 X6.5416 Y1.8246
X6.5397 Y1.8212 Z-0.3747
X6.5378 Y1.8179 Z-0.3738
X6.536 Y1.8147 Z-0.3723
X6.5344 Y1.8118 Z-0.3702
X6.5329 Y1.8092 Z-0.3677
X6.5317 Y1.807 Z-0.3647
X6.5307 Y1.8052 Z-0.3613
X6.5299 Y1.8039 Z-0.3577
X6.5295 Y1.8031 Z-0.3539
X6.5293 Y1.8029 Z-0.35
G0 Z0.6

(2D CONTOUR11)
M8
G0 X12.6303 Y2.0744
Z0.6
Z0.2
G1 Z0.08 F4.
Z-0.35
X12.63 Y2.0745 Z-0.3539
X12.6291 Y2.0748 Z-0.3577
X12.6277 Y2.0752 Z-0.3613
X12.6257 Y2.0758 Z-0.3647
X12.6233 Y2.0766 Z-0.3677
X12.6205 Y2.0776 Z-0.3702
X12.6173 Y2.0786 Z-0.3723
X12.6138 Y2.0797 Z-0.3738
X12.6102 Y2.0809 Z-0.3747
X12.6065 Y2.0821 Z-0.375
X12.5827 Y2.0898 F12.
G3 X12.5512 Y2.0738 I-0.0077 J-0.0238
G1 X12.4545 Y1.776
X12.7044 Y1.6865
G2 X12.7778 Y1.6163 I-0.0422 J-0.1177
G1 X12.9076 Y1.3007
G2 X12.7475 Y1.1363 I-0.1156 J-0.0475
G1 X12.63 Y1.1811
X12.5125 Y1.2242
X12.3944 Y1.2661
X12.2757 Y1.3066
X12.1564 Y1.3458
X12.0366 Y1.3837
X11.9158 Y1.4204
G2 X11.8473 Y1.867 I0.0716 J0.2395
G3 X11.9482 Y2.6049 I-0.2802 J0.4141
X11.2036 Y2.6244 I-0.381 J-0.3238
G2 X10.793 Y2.6954 I-0.1818 J0.1716
G3 X10.0918 Y2.9306 I-0.4576 J-0.2014
X9.9236 Y2.2104 I0.2436 J-0.4366
G2 X9.8547 Y1.8594 I-0.2059 J-0.1418
G3 X9.8475 Y1.8248 I0.0137 J-0.0209
G1 X9.8612 Y1.8039
X9.8633 Y1.8006 Z-0.3747
X9.8654 Y1.7975 Z-0.3738
X9.8674 Y1.7944 Z-0.3723
X9.8692 Y1.7916 Z-0.3702
X9.8708 Y1.7891 Z-0.3677
X9.8722 Y1.787 Z-0.3647
X9.8734 Y1.7853 Z-0.3613
X9.8742 Y1.784 Z-0.3577
X9.8747 Y1.7833 Z-0.3539
X9.8749 Y1.783 Z-0.35
G0 Z0.6

(2D CONTOUR7)
M8
G0 X2.3697 Y1.4256
Z0.6
Z0.2
G1 Z0.08 F4.
Z-0.35
X2.37 Y1.4255 Z-0.3539
X2.3709 Y1.4252 Z-0.3577
X2.3723 Y1.4248 Z-0.3613
X2.3743 Y1.4241 Z-0.3647
X2.3767 Y1.4234 Z-0.3677
X2.3795 Y1.4224 Z-0.3702
X2.3827 Y1.4214 Z-0.3723
X2.3862 Y1.4203 Z-0.3738
X2.3898 Y1.4191 Z-0.3747
X2.3935 Y1.4179 Z-0.375
X2.4173 Y1.4102 F12.
G3 X2.4488 Y1.4262 I0.0077 J0.0238
G1 X2.5455 Y1.724
X2.2956 Y1.8135
G2 X2.2222 Y1.8837 I0.0422 J0.1177
G1 X2.0924 Y2.1993
G2 X2.2525 Y2.3637 I0.1156 J0.0475
G1 X2.37 Y2.3189
X2.4875 Y2.2758
X2.6056 Y2.2339
X2.7243 Y2.1934
X2.8435 Y2.1542
X2.9634 Y2.1163
X3.0842 Y2.0796
G2 X3.1527 Y1.633 I-0.0716 J-0.2395
G3 X3.0518 Y0.8951 I0.2802 J-0.4141
X3.7964 Y0.8756 I0.381 J0.3238
G2 X4.207 Y0.8046 I0.1818 J-0.1716
G3 X4.9082 Y0.5694 I0.4576 J0.2014
X5.0764 Y1.2896 I-0.2436 J0.4366
G2 X5.1453 Y1.6406 I0.2059 J0.1418
G3 X5.1525 Y1.6752 I-0.0137 J0.0209
G1 X5.1388 Y1.6961
X5.1367 Y1.6994 Z-0.3747
X5.1346 Y1.7025 Z-0.3738
X5.1326 Y1.7056 Z-0.3723
X5.1308 Y1.7084 Z-0.3702
X5.1292 Y1.7109 Z-0.3677
X5.1278 Y1.713 Z-0.3647
X5.1266 Y1.7147 Z-0.3613
X5.1258 Y1.716 Z-0.3577
X5.1253 Y1.7167 Z-0.3539
X5.1251 Y1.717 Z-0.35
G0 Z0.6

(2D CONTOUR5)
M8
G0 X11.1988 Y1.7171
Z0.6
Z0.2
G1 Z0.08 F4.
Z-0.35
X11.1986 Y1.7169 Z-0.3539
X11.1981 Y1.7161 Z-0.3577
X11.1973 Y1.7149 Z-0.3613
X11.1962 Y1.7132 Z-0.3647
X11.1948 Y1.711 Z-0.3677
X11.1932 Y1.7085 Z-0.3702
X11.1913 Y1.7057 Z-0.3723
X11.1893 Y1.7027 Z-0.3738
X11.1873 Y1.6995 Z-0.3747
X11.1851 Y1.6962 Z-0.375
X11.1714 Y1.6753 F12.
G3 X11.1786 Y1.6407 I0.0209 J-0.0137
G1 X11.1789 Y1.6406
G2 X11.2478 Y1.2896 I-0.137 J-0.2091
G3 X11.416 Y0.5694 I0.4118 J-0.2836
X12.1172 Y0.8046 I0.2436 J0.4367
G2 X12.5278 Y0.8756 I0.2288 J-0.1007
G3 X13.2723 Y0.8951 I0.3635 J0.3433
X13.1715 Y1.633 I-0.381 J0.3238
G2 X13.24 Y2.0796 I0.1401 J0.2071
G1 X13.3606 Y2.1162
X13.4804 Y2.1541
X13.5997 Y2.1934
X13.7183 Y2.2339
X13.8365 Y2.2757
X13.954 Y2.3189
X14.0717 Y2.3637
G2 X14.2318 Y2.1993 I0.0445 J-0.1168
G1 X14.102 Y1.8837
G2 X14.0285 Y1.8135 I-0.1156 J0.0475
G1 X13.7787 Y1.724
X13.8754 Y1.4262
G3 X13.9069 Y1.4102 I0.0238 J0.0077
G1 X13.9307 Y1.4179
X13.9344 Y1.4191 Z-0.3747
X13.938 Y1.4203 Z-0.3738
X13.9415 Y1.4214 Z-0.3723
X13.9446 Y1.4224 Z-0.3702
X13.9475 Y1.4233 Z-0.3677
X13.9499 Y1.4241 Z-0.3647
X13.9518 Y1.4248 Z-0.3613
X13.9533 Y1.4252 Z-0.3577
X13.9541 Y1.4255 Z-0.3539
X13.9544 Y1.4256 Z-0.35
G0 Z0.6

(2D CONTOUR14)
M8
G0 X1.0455 Y2.0744
Z0.6
Z0.2
G1 Z0.08 F4.
Z-0.35
X1.0458 Y2.0745 Z-0.3539
X1.0467 Y2.0748 Z-0.3577
X1.0481 Y2.0752 Z-0.3613
X1.0501 Y2.0759 Z-0.3647
X1.0525 Y2.0766 Z-0.3677
X1.0553 Y2.0776 Z-0.3702
X1.0585 Y2.0786 Z-0.3723
X1.062 Y2.0797 Z-0.3738
X1.0656 Y2.0809 Z-0.3747
X1.0693 Y2.0821 Z-0.375
X1.0931 Y2.0898 F12.
G2 X1.1246 Y2.0738 I0.0077 J-0.0238
G1 X1.2213 Y1.776
X0.9715 Y1.6865
G3 X0.898 Y1.6163 I0.0422 J-0.1177
G1 X0.7682 Y1.3007
G3 X0.9282 Y1.1363 I0.1156 J-0.0475
G1 X1.046 Y1.1811
X1.1635 Y1.2243
X1.2816 Y1.2661
X1.4003 Y1.3066
X1.5196 Y1.3459
X1.6394 Y1.3838
X1.76 Y1.4204
G3 X1.8285 Y1.867 I-0.0716 J0.2395
G2 X1.7276 Y2.6049 I0.2802 J0.4141
X2.4722 Y2.6244 I0.381 J-0.3238
G3 X2.8828 Y2.6954 I0.1818 J0.1716
G2 X3.584 Y2.9306 I0.4576 J-0.2014
X3.7522 Y2.2104 I-0.2436 J-0.4367
G3 X3.8211 Y1.8594 I0.2059 J-0.1418
G1 X3.8214 Y1.8593
G2 X3.8286 Y1.8247 I-0.0137 J-0.0209
G1 X3.8149 Y1.8038
X3.8127 Y1.8005 Z-0.3747
X3.8107 Y1.7973 Z-0.3738
X3.8087 Y1.7943 Z-0.3723
X3.8068 Y1.7915 Z-0.3702
X3.8052 Y1.789 Z-0.3677
X3.8038 Y1.7868 Z-0.3647
X3.8027 Y1.7851 Z-0.3613
X3.8019 Y1.7839 Z-0.3577
X3.8014 Y1.7831 Z-0.3539
X3.8012 Y1.7829 Z-0.35
G0 Z0.6

M9
G28 G91 Z0.
G28 X0. Y0.
M30
