(3)
(CONTOURED BATTERY HOLDER V6 DUAL)
(T2  D=0.25 CR=0. - ZMIN=-0.375 - FLAT END MILL)
G90 G94 G40 G49 G17
G20
G28 G91 Z0.
G90

(2D CONTOUR3)
M9
T2 M6
S3800 M3
G54
M8
G0 X8.8111 Y1.8019
G43 Z0.6 H0
Z0.2
G1 Z0.08 F4.
Z-0.075
X8.8114 Y1.8021 Z-0.0789
X8.8122 Y1.8024 Z-0.0827
X8.8136 Y1.8029 Z-0.0863
X8.8155 Y1.8037 Z-0.0897
X8.8179 Y1.8046 Z-0.0927
X8.8207 Y1.8057 Z-0.0952
X8.8238 Y1.8069 Z-0.0973
X8.8272 Y1.8082 Z-0.0988
X8.8307 Y1.8096 Z-0.0997
X8.8344 Y1.811 Z-0.1
X8.8577 Y1.8201 F12.
G3 X8.8719 Y1.8525 I-0.0091 J0.0233
G2 X8.9018 Y2.0895 I0.2329 J0.091
G3 X8.7593 Y2.8065 I-0.4059 J0.292
X8.0538 Y2.615 I-0.2634 J-0.425
G2 X7.6392 Y2.5734 I-0.2211 J0.1167
G3 X6.9174 Y2.6283 I-0.3871 J-0.3165
X6.8972 Y1.9047 I0.3347 J-0.3714
G2 X6.7415 Y1.4796 I-0.1775 J-0.1761
G1 X6.5739 Y1.4647
X6.4065 Y1.4478
G2 X6.1737 Y1.8361 I-0.0255 J0.2487
G3 X6.0178 Y2.543 I-0.4148 J0.2792
X5.3192 Y2.3534 I-0.2589 J-0.4277
G2 X4.9042 Y2.3162 I-0.2198 J0.1191
G3 X4.1752 Y2.3717 I-0.3904 J-0.3124
X4.1701 Y1.6407 I0.3386 J-0.3679
G2 X4.0332 Y1.2116 I-0.1718 J-0.1816
G1 X3.9299 Y1.1967
X3.828 Y1.1811
X3.7269 Y1.1647
G2 X3.4679 Y1.5331 I-0.0406 J0.2467
G3 X3.2324 Y2.2343 I-0.4367 J0.2434
X2.5565 Y1.9339 I-0.2013 J-0.4577
G2 X2.1545 Y1.8245 I-0.2373 J0.0787
G3 X1.4151 Y1.7347 I-0.3295 J-0.3761
X1.5852 Y1.0096 I0.4099 J-0.2864
G2 X1.5592 Y0.5586 I-0.1199 J-0.2194
G1 X1.4424 Y0.5107
X1.3266 Y0.4616
X1.2116 Y0.4113
X1.0973 Y0.3597
X0.9837 Y0.3069
X0.8708 Y0.2529
X0.758 Y0.1972
G2 X0.5831 Y0.3457 I-0.0553 J0.1121
G1 X0.6825 Y0.6722
G2 X0.749 Y0.749 I0.1196 J-0.0364
G1 X0.9893 Y0.8617
X0.8613 Y1.1573
G2 X0.8564 Y1.2434 I0.1147 J0.0496
G1 X0.9958 Y1.7009
G2 X1.5429 Y2.268 I0.8292 J-0.2525
X1.5435 Y2.2682 I0.0407 J-0.1182
G1 X1.6598 Y2.3076
G2 X1.661 Y2.308 I0.04 J-0.1184
G1 X1.7778 Y2.3461
G2 X1.7791 Y2.3465 I0.0388 J-0.1188
G1 X1.8965 Y2.3834
G2 X1.8978 Y2.3838 I0.0375 J-0.1192
G1 X2.0158 Y2.4195
G2 X2.0171 Y2.4199 I0.0362 J-0.1196
G1 X2.1354 Y2.4543
G2 X2.1368 Y2.4547 I0.0349 J-0.12
G1 X2.2533 Y2.4871
G2 X2.2546 Y2.4875 I0.0336 J-0.1204
G1 X2.3713 Y2.5186
G2 X2.3726 Y2.519 I0.0322 J-0.1208
G1 X2.4894 Y2.5488
G2 X2.4906 Y2.5491 I0.0309 J-0.1211
G1 X2.6075 Y2.5776
G2 X2.6087 Y2.5779 I0.0296 J-0.1214
G1 X2.728 Y2.6057
G2 X2.7292 Y2.606 I0.0284 J-0.1217
G1 X2.8484 Y2.6324
G2 X2.8497 Y2.6327 I0.0271 J-0.122
G1 X2.9688 Y2.6579
G2 X2.97 Y2.6581 I0.0258 J-0.1223
G1 X3.0891 Y2.6821
G2 X3.0903 Y2.6823 I0.0246 J-0.1225
G1 X3.2094 Y2.705
G2 X3.2106 Y2.7053 I0.0234 J-0.1228
G1 X3.3297 Y2.7268
G2 X3.3308 Y2.727 I0.0223 J-0.123
G1 X3.4499 Y2.7474
G2 X3.5946 Y2.6431 I0.0211 J-0.1232
G1 X3.6132 Y2.5208
X3.7368 Y2.5397
X3.7181 Y2.662
G2 X3.825 Y2.8048 I0.1236 J0.0189
G1 X3.9589 Y2.8228
G2 X3.9601 Y2.8229 I0.0167 J-0.1239
G1 X4.0936 Y2.8397
G2 X4.0947 Y2.8398 I0.0155 J-0.124
G1 X4.2277 Y2.8553
G2 X4.2286 Y2.8554 I0.0145 J-0.1242
G1 X4.3607 Y2.8699
G2 X4.3615 Y2.87 I0.0136 J-0.1243
G1 X4.4926 Y2.8834
G2 X4.4932 Y2.8835 I0.0128 J-0.1243
G1 X4.623 Y2.8961
G2 X4.6236 Y2.8962 I0.0121 J-0.1244
G1 X4.7447 Y2.9074
G2 X4.7451 Y2.9075 I0.0116 J-0.1245
G1 X4.8653 Y2.9182
X4.8656 Y2.9183
X4.9846 Y2.9286
X4.9848 Y2.9287
X5.1028 Y2.9388
X5.1029
X5.2199 Y2.9487
X5.3165 Y2.957
X5.4121 Y2.9652
X5.5069 Y2.9735
X5.6005 Y2.9819
X5.693 Y2.9904
X5.785 Y2.9992
X5.8722 Y3.0079
X5.9606 Y3.0169
X6.0505 Y3.0261
X6.1418 Y3.0356
X6.1419
X6.2346 Y3.0452
G2 X6.3719 Y2.9327 I0.0129 J-0.1243
G1 X6.3836 Y2.8094
X6.508 Y2.8212
X6.4963 Y2.9445
G2 X6.61 Y3.0809 I0.1244 J0.0118
G1 X6.6943 Y3.0881
X6.6944
X6.7776 Y3.0953
X6.8595 Y3.1023
X6.9402 Y3.1094
X7.0198 Y3.1165
X7.123 Y3.1261
X7.2263 Y3.136
X7.3309 Y3.1465
X7.4444 Y3.1581
X7.5593 Y3.17
X7.6755 Y3.1822
X7.7926 Y3.1944
X7.7928
X7.9111 Y3.2066
X7.9113 Y3.2067
X8.0307 Y3.2188
X8.031
X8.1515 Y3.2307
G2 X8.152 Y3.2308 I0.0123 J-0.1244
G1 X8.2737 Y3.2423
G2 X8.2743 Y3.2424 I0.0118 J-0.1244
G1 X8.3971 Y3.2535
G2 X8.3978 Y3.2536 I0.0113 J-0.1245
G1 X8.522 Y3.2641
G2 X8.5228 Y3.2642 I0.0106 J-0.1246
G1 X8.6457 Y3.2738
G2 X8.6466 Y3.2739 I0.0098 J-0.1246
G1 X8.7704 Y3.2828
G2 X8.7714 I0.0089 J-0.1247
G1 X8.8959 Y3.2908
G2 X8.8969 I0.0079 J-0.1247
G1 X9.0219 Y3.2977
G2 X9.1537 Y3.1776 I0.0069 J-0.1248
G1 X9.1583 Y3.0539
X9.2832 Y3.0586
X9.2786 Y3.1822
G2 X9.4011 Y3.3119 I0.1249 J0.0047
G1 X9.5216 Y3.3143
G2 X9.5227 I0.0024 J-0.125
G1 X9.6435 Y3.3155
G2 X9.6447 I0.0013 J-0.125
G1 X9.7656 Y3.3156
G2 X9.7668 I0.0001 J-0.125
G1 X9.8881 Y3.3145
G2 X9.8893 Y3.3144 I-0.0011 J-0.125
G1 X10.0108 Y3.3121
G2 X10.0121 I-0.0024 J-0.125
G1 X10.1317 Y3.3086
G2 X10.1329 I-0.0036 J-0.1249
G1 X10.2528 Y3.3039
G2 X10.2541 Y3.3038 I-0.0049 J-0.1249
G1 X10.3742 Y3.2978
G2 X10.3755 I-0.0062 J-0.1248
G1 X10.4958 Y3.2905
G2 X10.4971 Y3.2904 I-0.0075 J-0.1248
G1 X10.62 Y3.2817
G2 X10.6214 Y3.2816 I-0.0089 J-0.1247
G1 X10.7444 Y3.2714
G2 X10.7458 Y3.2713 I-0.0103 J-0.1246
G1 X10.8688 Y3.2597
G2 X10.8702 Y3.2596 I-0.0117 J-0.1245
G1 X10.993 Y3.2467
G2 X10.9943 Y3.2466 I-0.013 J-0.1243
G1 X11.1168 Y3.2323
G2 X11.1182 Y3.2322 I-0.0144 J-0.1242
G1 X11.2404 Y3.2167
G2 X11.2417 Y3.2165 I-0.0157 J-0.124
G1 X11.3635 Y3.1997
G2 X11.3641 Y3.1996 I-0.0171 J-0.1238
X12.0082 Y2.7455 I-0.1229 J-0.858
G1 X12.231 Y2.3223
G2 X12.2424 Y2.2369 I-0.1106 J-0.0583
G1 X12.1723 Y1.9224
X12.4295 Y1.8569
G2 X12.5092 Y1.794 I-0.0309 J-0.1211
G1 X12.6683 Y1.4921
G2 X12.5245 Y1.3133 I-0.1106 J-0.0583
G1 X12.403 Y1.3468
X12.2819 Y1.3786
X12.1604 Y1.4091
X12.0384 Y1.4383
X11.9159 Y1.4661
X11.7931 Y1.4925
X11.6695 Y1.5176
G2 X11.5592 Y1.9557 I0.0487 J0.2452
G3 X11.5899 Y2.6999 I-0.318 J0.3858
X10.8469 Y2.649 I-0.3487 J-0.3583
G2 X10.4314 Y2.6808 I-0.1972 J0.1537
G3 X9.7112 Y2.8488 I-0.4366 J-0.2437
X9.6117 Y2.1159 I0.2837 J-0.4117
G2 X9.4265 Y1.7054 I-0.1916 J-0.1606
G1 X9.3234 Y1.7024
X9.2203 Y1.6985
X9.1169 Y1.6938
G2 X8.8548 Y1.9504 I-0.0122 J0.2497
G3 X8.8305 Y1.9761 I-0.025 J0.0007
G1 X8.8055 Y1.9768
X8.8016 Y1.9769 Z-0.0997
X8.7978 Y1.977 Z-0.0988
X8.7942 Y1.9771 Z-0.0973
X8.7908 Y1.9772 Z-0.0952
X8.7879 Z-0.0927
X8.7853 Y1.9773 Z-0.0897
X8.7833 Y1.9774 Z-0.0863
X8.7818 Z-0.0827
X8.7809 Z-0.0789
X8.7805 Z-0.075
X8.8111 Y1.8019
Z-0.175 F4.
X8.8114 Y1.8021 Z-0.1789
X8.8122 Y1.8024 Z-0.1827
X8.8136 Y1.8029 Z-0.1863
X8.8155 Y1.8037 Z-0.1897
X8.8179 Y1.8046 Z-0.1927
X8.8207 Y1.8057 Z-0.1952
X8.8238 Y1.8069 Z-0.1973
X8.8272 Y1.8082 Z-0.1988
X8.8307 Y1.8096 Z-0.1997
X8.8344 Y1.811 Z-0.2
X8.8577 Y1.8201 F12.
G3 X8.8719 Y1.8525 I-0.0091 J0.0233
G2 X8.9018 Y2.0895 I0.2329 J0.091
G3 X8.7593 Y2.8065 I-0.4059 J0.292
X8.0538 Y2.615 I-0.2634 J-0.425
G2 X7.6392 Y2.5734 I-0.2211 J0.1167
G3 X6.9174 Y2.6283 I-0.3871 J-0.3165
X6.8972 Y1.9047 I0.3347 J-0.3714
G2 X6.7415 Y1.4796 I-0.1775 J-0.1761
G1 X6.5739 Y1.4647
X6.4065 Y1.4478
G2 X6.1737 Y1.8361 I-0.0255 J0.2487
G3 X6.0178 Y2.543 I-0.4148 J0.2792
X5.3192 Y2.3534 I-0.2589 J-0.4277
G2 X4.9042 Y2.3162 I-0.2198 J0.1191
G3 X4.1752 Y2.3717 I-0.3904 J-0.3124
X4.1701 Y1.6407 I0.3386 J-0.3679
G2 X4.0332 Y1.2116 I-0.1718 J-0.1816
G1 X3.9299 Y1.1967
X3.828 Y1.1811
X3.7269 Y1.1647
G2 X3.4679 Y1.5331 I-0.0406 J0.2467
G3 X3.2324 Y2.2343 I-0.4367 J0.2434
X2.5565 Y1.9339 I-0.2013 J-0.4577
G2 X2.1545 Y1.8245 I-0.2373 J0.0787
G3 X1.4151 Y1.7347 I-0.3295 J-0.3761
X1.5852 Y1.0096 I0.4099 J-0.2864
G2 X1.5592 Y0.5586 I-0.1199 J-0.2194
G1 X1.4424 Y0.5107
X1.3266 Y0.4616
X1.2116 Y0.4113
X1.0973 Y0.3597
X0.9837 Y0.3069
X0.8708 Y0.2529
X0.758 Y0.1972
G2 X0.5831 Y0.3457 I-0.0553 J0.1121
G1 X0.6825 Y0.6722
G2 X0.749 Y0.749 I0.1196 J-0.0364
G1 X0.9893 Y0.8617
X0.8613 Y1.1573
G2 X0.8564 Y1.2434 I0.1147 J0.0496
G1 X0.9958 Y1.7009
G2 X1.5429 Y2.268 I0.8292 J-0.2525
X1.5435 Y2.2682 I0.0407 J-0.1182
G1 X1.6598 Y2.3076
G2 X1.661 Y2.308 I0.04 J-0.1184
G1 X1.7778 Y2.3461
G2 X1.7791 Y2.3465 I0.0388 J-0.1188
G1 X1.8965 Y2.3834
G2 X1.8978 Y2.3838 I0.0375 J-0.1192
G1 X2.0158 Y2.4195
G2 X2.0171 Y2.4199 I0.0362 J-0.1196
G1 X2.1354 Y2.4543
G2 X2.1368 Y2.4547 I0.0349 J-0.12
G1 X2.2533 Y2.4871
G2 X2.2546 Y2.4875 I0.0336 J-0.1204
G1 X2.3713 Y2.5186
G2 X2.3726 Y2.519 I0.0322 J-0.1208
G1 X2.4894 Y2.5488
G2 X2.4906 Y2.5491 I0.0309 J-0.1211
G1 X2.6075 Y2.5776
G2 X2.6087 Y2.5779 I0.0296 J-0.1214
G1 X2.728 Y2.6057
G2 X2.7292 Y2.606 I0.0284 J-0.1217
G1 X2.8484 Y2.6324
G2 X2.8497 Y2.6327 I0.0271 J-0.122
G1 X2.9688 Y2.6579
G2 X2.97 Y2.6581 I0.0258 J-0.1223
G1 X3.0891 Y2.6821
G2 X3.0903 Y2.6823 I0.0246 J-0.1225
G1 X3.2094 Y2.705
G2 X3.2106 Y2.7053 I0.0234 J-0.1228
G1 X3.3297 Y2.7268
G2 X3.3308 Y2.727 I0.0223 J-0.123
G1 X3.4499 Y2.7474
G2 X3.5946 Y2.6431 I0.0211 J-0.1232
G1 X3.6132 Y2.5208
X3.7368 Y2.5397
X3.7181 Y2.662
G2 X3.825 Y2.8048 I0.1236 J0.0189
G1 X3.9589 Y2.8228
G2 X3.9601 Y2.8229 I0.0167 J-0.1239
G1 X4.0936 Y2.8397
G2 X4.0947 Y2.8398 I0.0155 J-0.124
G1 X4.2277 Y2.8553
G2 X4.2286 Y2.8554 I0.0145 J-0.1242
G1 X4.3607 Y2.8699
G2 X4.3615 Y2.87 I0.0136 J-0.1243
G1 X4.4926 Y2.8834
G2 X4.4932 Y2.8835 I0.0128 J-0.1243
G1 X4.623 Y2.8961
G2 X4.6236 Y2.8962 I0.0121 J-0.1244
G1 X4.7447 Y2.9074
G2 X4.7451 Y2.9075 I0.0116 J-0.1245
G1 X4.8653 Y2.9182
X4.8656 Y2.9183
X4.9846 Y2.9286
X4.9848 Y2.9287
X5.1028 Y2.9388
X5.1029
X5.2199 Y2.9487
X5.3165 Y2.957
X5.4121 Y2.9652
X5.5069 Y2.9735
X5.6005 Y2.9819
X5.693 Y2.9904
X5.785 Y2.9992
X5.8722 Y3.0079
X5.9606 Y3.0169
X6.0505 Y3.0261
X6.1418 Y3.0356
X6.1419
X6.2346 Y3.0452
G2 X6.3719 Y2.9327 I0.0129 J-0.1243
G1 X6.3836 Y2.8094
X6.508 Y2.8212
X6.4963 Y2.9445
G2 X6.61 Y3.0809 I0.1244 J0.0118
G1 X6.6943 Y3.0881
X6.6944
X6.7776 Y3.0953
X6.8595 Y3.1023
X6.9402 Y3.1094
X7.0198 Y3.1165
X7.123 Y3.1261
X7.2263 Y3.136
X7.3309 Y3.1465
X7.4444 Y3.1581
X7.5593 Y3.17
X7.6755 Y3.1822
X7.7926 Y3.1944
X7.7928
X7.9111 Y3.2066
X7.9113 Y3.2067
X8.0307 Y3.2188
X8.031
X8.1515 Y3.2307
G2 X8.152 Y3.2308 I0.0123 J-0.1244
G1 X8.2737 Y3.2423
G2 X8.2743 Y3.2424 I0.0118 J-0.1244
G1 X8.3971 Y3.2535
G2 X8.3978 Y3.2536 I0.0113 J-0.1245
G1 X8.522 Y3.2641
G2 X8.5228 Y3.2642 I0.0106 J-0.1246
G1 X8.6457 Y3.2738
G2 X8.6466 Y3.2739 I0.0098 J-0.1246
G1 X8.7704 Y3.2828
G2 X8.7714 I0.0089 J-0.1247
G1 X8.8959 Y3.2908
G2 X8.8969 I0.0079 J-0.1247
G1 X9.0219 Y3.2977
G2 X9.1537 Y3.1776 I0.0069 J-0.1248
G1 X9.1583 Y3.0539
X9.2832 Y3.0586
X9.2786 Y3.1822
G2 X9.4011 Y3.3119 I0.1249 J0.0047
G1 X9.5216 Y3.3143
G2 X9.5227 I0.0024 J-0.125
G1 X9.6435 Y3.3155
G2 X9.6447 I0.0013 J-0.125
G1 X9.7656 Y3.3156
G2 X9.7668 I0.0001 J-0.125
G1 X9.8881 Y3.3145
G2 X9.8893 Y3.3144 I-0.0011 J-0.125
G1 X10.0108 Y3.3121
G2 X10.0121 I-0.0024 J-0.125
G1 X10.1317 Y3.3086
G2 X10.1329 I-0.0036 J-0.1249
G1 X10.2528 Y3.3039
G2 X10.2541 Y3.3038 I-0.0049 J-0.1249
G1 X10.3742 Y3.2978
G2 X10.3755 I-0.0062 J-0.1248
G1 X10.4958 Y3.2905
G2 X10.4971 Y3.2904 I-0.0075 J-0.1248
G1 X10.62 Y3.2817
G2 X10.6214 Y3.2816 I-0.0089 J-0.1247
G1 X10.7444 Y3.2714
G2 X10.7458 Y3.2713 I-0.0103 J-0.1246
G1 X10.8688 Y3.2597
G2 X10.8702 Y3.2596 I-0.0117 J-0.1245
G1 X10.993 Y3.2467
G2 X10.9943 Y3.2466 I-0.013 J-0.1243
G1 X11.1168 Y3.2323
G2 X11.1182 Y3.2322 I-0.0144 J-0.1242
G1 X11.2404 Y3.2167
G2 X11.2417 Y3.2165 I-0.0157 J-0.124
G1 X11.3635 Y3.1997
G2 X11.3641 Y3.1996 I-0.0171 J-0.1238
X12.0082 Y2.7455 I-0.1229 J-0.858
G1 X12.231 Y2.3223
G2 X12.2424 Y2.2369 I-0.1106 J-0.0583
G1 X12.1723 Y1.9224
X12.4295 Y1.8569
G2 X12.5092 Y1.794 I-0.0309 J-0.1211
G1 X12.6683 Y1.4921
G2 X12.5245 Y1.3133 I-0.1106 J-0.0583
G1 X12.403 Y1.3468
X12.2819 Y1.3786
X12.1604 Y1.4091
X12.0384 Y1.4383
X11.9159 Y1.4661
X11.7931 Y1.4925
X11.6695 Y1.5176
G2 X11.5592 Y1.9557 I0.0487 J0.2452
G3 X11.5899 Y2.6999 I-0.318 J0.3858
X10.8469 Y2.649 I-0.3487 J-0.3583
G2 X10.4314 Y2.6808 I-0.1972 J0.1537
G3 X9.7112 Y2.8488 I-0.4366 J-0.2437
X9.6117 Y2.1159 I0.2837 J-0.4117
G2 X9.4265 Y1.7054 I-0.1916 J-0.1606
G1 X9.3234 Y1.7024
X9.2203 Y1.6985
X9.1169 Y1.6938
G2 X8.8548 Y1.9504 I-0.0122 J0.2497
G3 X8.8305 Y1.9761 I-0.025 J0.0007
G1 X8.8055 Y1.9768
X8.8016 Y1.9769 Z-0.1997
X8.7978 Y1.977 Z-0.1988
X8.7942 Y1.9771 Z-0.1973
X8.7908 Y1.9772 Z-0.1952
X8.7879 Z-0.1927
X8.7853 Y1.9773 Z-0.1897
X8.7833 Y1.9774 Z-0.1863
X8.7818 Z-0.1827
X8.7809 Z-0.1789
X8.7805 Z-0.175
X8.8111 Y1.8019
Z-0.25 F4.
X8.8114 Y1.8021 Z-0.2539
X8.8122 Y1.8024 Z-0.2577
X8.8136 Y1.8029 Z-0.2613
X8.8155 Y1.8037 Z-0.2647
X8.8179 Y1.8046 Z-0.2677
X8.8207 Y1.8057 Z-0.2702
X8.8238 Y1.8069 Z-0.2723
X8.8272 Y1.8082 Z-0.2738
X8.8307 Y1.8096 Z-0.2747
X8.8344 Y1.811 Z-0.275
X8.8577 Y1.8201 F12.
G3 X8.8719 Y1.8525 I-0.0091 J0.0233
G2 X8.9018 Y2.0895 I0.2329 J0.091
G3 X8.7593 Y2.8065 I-0.4059 J0.292
X8.0538 Y2.615 I-0.2634 J-0.425
G2 X7.6392 Y2.5734 I-0.2211 J0.1167
G3 X6.9174 Y2.6283 I-0.3871 J-0.3165
X6.8972 Y1.9047 I0.3347 J-0.3714
G2 X6.7415 Y1.4796 I-0.1775 J-0.1761
G1 X6.5739 Y1.4647
X6.4065 Y1.4478
G2 X6.1737 Y1.8361 I-0.0255 J0.2487
G3 X6.0178 Y2.543 I-0.4148 J0.2792
X5.3192 Y2.3534 I-0.2589 J-0.4277
G2 X4.9042 Y2.3162 I-0.2198 J0.1191
G3 X4.1752 Y2.3717 I-0.3904 J-0.3124
X4.1701 Y1.6407 I0.3386 J-0.3679
G2 X4.0332 Y1.2116 I-0.1718 J-0.1816
G1 X3.9299 Y1.1967
X3.828 Y1.1811
X3.7269 Y1.1647
G2 X3.4679 Y1.5331 I-0.0406 J0.2467
G3 X3.2324 Y2.2343 I-0.4367 J0.2434
X2.5565 Y1.9339 I-0.2013 J-0.4577
G2 X2.1545 Y1.8245 I-0.2373 J0.0787
G3 X1.4151 Y1.7347 I-0.3295 J-0.3761
X1.5852 Y1.0096 I0.4099 J-0.2864
G2 X1.5592 Y0.5586 I-0.1199 J-0.2194
G1 X1.4424 Y0.5107
X1.3266 Y0.4616
X1.2116 Y0.4113
X1.0973 Y0.3597
X0.9837 Y0.3069
X0.8708 Y0.2529
X0.758 Y0.1972
G2 X0.5831 Y0.3457 I-0.0553 J0.1121
G1 X0.6825 Y0.6722
G2 X0.749 Y0.749 I0.1196 J-0.0364
G1 X0.9893 Y0.8617
X0.8613 Y1.1573
G2 X0.8564 Y1.2434 I0.1147 J0.0496
G1 X0.9958 Y1.7009
G2 X1.5429 Y2.268 I0.8292 J-0.2525
X1.5435 Y2.2682 I0.0407 J-0.1182
G1 X1.6598 Y2.3076
G2 X1.661 Y2.308 I0.04 J-0.1184
G1 X1.7778 Y2.3461
G2 X1.7791 Y2.3465 I0.0388 J-0.1188
G1 X1.8965 Y2.3834
G2 X1.8978 Y2.3838 I0.0375 J-0.1192
G1 X2.0158 Y2.4195
G2 X2.0171 Y2.4199 I0.0362 J-0.1196
G1 X2.1354 Y2.4543
G2 X2.1368 Y2.4547 I0.0349 J-0.12
G1 X2.2533 Y2.4871
G2 X2.2546 Y2.4875 I0.0336 J-0.1204
G1 X2.3713 Y2.5186
G2 X2.3726 Y2.519 I0.0322 J-0.1208
G1 X2.4894 Y2.5488
G2 X2.4906 Y2.5491 I0.0309 J-0.1211
G1 X2.6075 Y2.5776
G2 X2.6087 Y2.5779 I0.0296 J-0.1214
G1 X2.728 Y2.6057
G2 X2.7292 Y2.606 I0.0284 J-0.1217
G1 X2.8484 Y2.6324
G2 X2.8497 Y2.6327 I0.0271 J-0.122
G1 X2.9688 Y2.6579
G2 X2.97 Y2.6581 I0.0258 J-0.1223
G1 X3.0891 Y2.6821
G2 X3.0903 Y2.6823 I0.0246 J-0.1225
G1 X3.2094 Y2.705
G2 X3.2106 Y2.7053 I0.0234 J-0.1228
G1 X3.3297 Y2.7268
G2 X3.3308 Y2.727 I0.0223 J-0.123
G1 X3.4499 Y2.7474
G2 X3.5946 Y2.6431 I0.0211 J-0.1232
G1 X3.6132 Y2.5208
X3.7368 Y2.5397
X3.7181 Y2.662
G2 X3.825 Y2.8048 I0.1236 J0.0189
G1 X3.9589 Y2.8228
G2 X3.9601 Y2.8229 I0.0167 J-0.1239
G1 X4.0936 Y2.8397
G2 X4.0947 Y2.8398 I0.0155 J-0.124
G1 X4.2277 Y2.8553
G2 X4.2286 Y2.8554 I0.0145 J-0.1242
G1 X4.3607 Y2.8699
G2 X4.3615 Y2.87 I0.0136 J-0.1243
G1 X4.4926 Y2.8834
G2 X4.4932 Y2.8835 I0.0128 J-0.1243
G1 X4.623 Y2.8961
G2 X4.6236 Y2.8962 I0.0121 J-0.1244
G1 X4.7447 Y2.9074
G2 X4.7451 Y2.9075 I0.0116 J-0.1245
G1 X4.8653 Y2.9182
X4.8656 Y2.9183
X4.9846 Y2.9286
X4.9848 Y2.9287
X5.1028 Y2.9388
X5.1029
X5.2199 Y2.9487
X5.3165 Y2.957
X5.4121 Y2.9652
X5.5069 Y2.9735
X5.6005 Y2.9819
X5.693 Y2.9904
X5.785 Y2.9992
X5.8722 Y3.0079
X5.9606 Y3.0169
X6.0505 Y3.0261
X6.1418 Y3.0356
X6.1419
X6.2346 Y3.0452
G2 X6.3719 Y2.9327 I0.0129 J-0.1243
G1 X6.3836 Y2.8094
X6.508 Y2.8212
X6.4963 Y2.9445
G2 X6.61 Y3.0809 I0.1244 J0.0118
G1 X6.6943 Y3.0881
X6.6944
X6.7776 Y3.0953
X6.8595 Y3.1023
X6.9402 Y3.1094
X7.0198 Y3.1165
X7.123 Y3.1261
X7.2263 Y3.136
X7.3309 Y3.1465
X7.4444 Y3.1581
X7.5593 Y3.17
X7.6755 Y3.1822
X7.7926 Y3.1944
X7.7928
X7.9111 Y3.2066
X7.9113 Y3.2067
X8.0307 Y3.2188
X8.031
X8.1515 Y3.2307
G2 X8.152 Y3.2308 I0.0123 J-0.1244
G1 X8.2737 Y3.2423
G2 X8.2743 Y3.2424 I0.0118 J-0.1244
G1 X8.3971 Y3.2535
G2 X8.3978 Y3.2536 I0.0113 J-0.1245
G1 X8.522 Y3.2641
G2 X8.5228 Y3.2642 I0.0106 J-0.1246
G1 X8.6457 Y3.2738
G2 X8.6466 Y3.2739 I0.0098 J-0.1246
G1 X8.7704 Y3.2828
G2 X8.7714 I0.0089 J-0.1247
G1 X8.8959 Y3.2908
G2 X8.8969 I0.0079 J-0.1247
G1 X9.0219 Y3.2977
G2 X9.1537 Y3.1776 I0.0069 J-0.1248
G1 X9.1583 Y3.0539
X9.2832 Y3.0586
X9.2786 Y3.1822
G2 X9.4011 Y3.3119 I0.1249 J0.0047
G1 X9.5216 Y3.3143
G2 X9.5227 I0.0024 J-0.125
G1 X9.6435 Y3.3155
G2 X9.6447 I0.0013 J-0.125
G1 X9.7656 Y3.3156
G2 X9.7668 I0.0001 J-0.125
G1 X9.8881 Y3.3145
G2 X9.8893 Y3.3144 I-0.0011 J-0.125
G1 X10.0108 Y3.3121
G2 X10.0121 I-0.0024 J-0.125
G1 X10.1317 Y3.3086
G2 X10.1329 I-0.0036 J-0.1249
G1 X10.2528 Y3.3039
G2 X10.2541 Y3.3038 I-0.0049 J-0.1249
G1 X10.3742 Y3.2978
G2 X10.3755 I-0.0062 J-0.1248
G1 X10.4958 Y3.2905
G2 X10.4971 Y3.2904 I-0.0075 J-0.1248
G1 X10.62 Y3.2817
G2 X10.6214 Y3.2816 I-0.0089 J-0.1247
G1 X10.7444 Y3.2714
G2 X10.7458 Y3.2713 I-0.0103 J-0.1246
G1 X10.8688 Y3.2597
G2 X10.8702 Y3.2596 I-0.0117 J-0.1245
G1 X10.993 Y3.2467
G2 X10.9943 Y3.2466 I-0.013 J-0.1243
G1 X11.1168 Y3.2323
G2 X11.1182 Y3.2322 I-0.0144 J-0.1242
G1 X11.2404 Y3.2167
G2 X11.2417 Y3.2165 I-0.0157 J-0.124
G1 X11.3635 Y3.1997
G2 X11.3641 Y3.1996 I-0.0171 J-0.1238
X12.0082 Y2.7455 I-0.1229 J-0.858
G1 X12.231 Y2.3223
G2 X12.2424 Y2.2369 I-0.1106 J-0.0583
G1 X12.1723 Y1.9224
X12.4295 Y1.8569
G2 X12.5092 Y1.794 I-0.0309 J-0.1211
G1 X12.6683 Y1.4921
G2 X12.5245 Y1.3133 I-0.1106 J-0.0583
G1 X12.403 Y1.3468
X12.2819 Y1.3786
X12.1604 Y1.4091
X12.0384 Y1.4383
X11.9159 Y1.4661
X11.7931 Y1.4925
X11.6695 Y1.5176
G2 X11.5592 Y1.9557 I0.0487 J0.2452
G3 X11.5899 Y2.6999 I-0.318 J0.3858
X10.8469 Y2.649 I-0.3487 J-0.3583
G2 X10.4314 Y2.6808 I-0.1972 J0.1537
G3 X9.7112 Y2.8488 I-0.4366 J-0.2437
X9.6117 Y2.1159 I0.2837 J-0.4117
G2 X9.4265 Y1.7054 I-0.1916 J-0.1606
G1 X9.3234 Y1.7024
X9.2203 Y1.6985
X9.1169 Y1.6938
G2 X8.8548 Y1.9504 I-0.0122 J0.2497
G3 X8.8305 Y1.9761 I-0.025 J0.0007
G1 X8.8055 Y1.9768
X8.8016 Y1.9769 Z-0.2747
X8.7978 Y1.977 Z-0.2738
X8.7942 Y1.9771 Z-0.2723
X8.7908 Y1.9772 Z-0.2702
X8.7879 Z-0.2677
X8.7853 Y1.9773 Z-0.2647
X8.7833 Y1.9774 Z-0.2613
X8.7818 Z-0.2577
X8.7809 Z-0.2539
X8.7805 Z-0.25
G0 Z0.6

(2D CONTOUR15)
M8
G0 X12.0919 Y2.7474
Z0.6
Z0.2
G1 Z0.08 F4.
Z-0.35
X12.0916 Y2.7473 Z-0.3539
X12.0908 Y2.7468 Z-0.3577
X12.0895 Y2.7461 Z-0.3613
X12.0877 Y2.7452 Z-0.3647
X12.0854 Y2.744 Z-0.3677
X12.0828 Y2.7426 Z-0.3702
X12.0798 Y2.7411 Z-0.3723
X12.0766 Y2.7394 Z-0.3738
X12.0732 Y2.7376 Z-0.3747
X12.0698 Y2.7358 Z-0.375
X12.0477 Y2.7241 F12.
G2 X12.0139 Y2.7346 I-0.0117 J0.0221
G1 X12.0082 Y2.7455
G3 X11.3641 Y3.1996 I-0.7669 J-0.4039
X11.3635 Y3.1997 I-0.0177 J-0.1237
G1 X11.2417 Y3.2165
G3 X11.2404 Y3.2167 I-0.0171 J-0.1238
G1 X11.1182 Y3.2322
G3 X11.1168 Y3.2323 I-0.0157 J-0.124
G1 X10.9943 Y3.2466
G3 X10.993 Y3.2467 I-0.0144 J-0.1242
G1 X10.8702 Y3.2596
G3 X10.8688 Y3.2597 I-0.013 J-0.1243
G1 X10.7458 Y3.2713
G3 X10.7444 Y3.2714 I-0.0117 J-0.1245
G1 X10.6214 Y3.2816
G3 X10.62 Y3.2817 I-0.0103 J-0.1246
G1 X10.4971 Y3.2904
G3 X10.4958 Y3.2905 I-0.0089 J-0.1247
G1 X10.3755 Y3.2978
G3 X10.3742 I-0.0075 J-0.1248
G1 X10.2541 Y3.3038
G3 X10.2528 Y3.3039 I-0.0062 J-0.1248
G1 X10.1329 Y3.3086
G3 X10.1317 I-0.0049 J-0.1249
G1 X10.0121 Y3.3121
G3 X10.0108 I-0.0036 J-0.1249
G1 X9.8893 Y3.3144
G3 X9.8881 Y3.3145 I-0.0024 J-0.125
G1 X9.7668 Y3.3156
G3 X9.7656 I-0.0011 J-0.125
G1 X9.6447 Y3.3155
G3 X9.6435 I0.0001 J-0.125
G1 X9.5227 Y3.3143
G3 X9.5216 I0.0013 J-0.125
G1 X9.4011 Y3.3119
G3 X9.2786 Y3.1822 I0.0024 J-0.125
G1 X9.2832 Y3.0586
X9.1583 Y3.0539
X9.1537 Y3.1776
G3 X9.0219 Y3.2977 I-0.1249 J-0.0047
G1 X8.8969 Y3.2908
G3 X8.8959 I0.0069 J-0.1248
G1 X8.7714 Y3.2828
G3 X8.7704 I0.0079 J-0.1247
G1 X8.6466 Y3.2739
G3 X8.6457 Y3.2738 I0.0089 J-0.1247
G1 X8.5228 Y3.2642
G3 X8.522 Y3.2641 I0.0098 J-0.1246
G1 X8.3978 Y3.2536
G3 X8.3971 Y3.2535 I0.0106 J-0.1246
G1 X8.2743 Y3.2424
G3 X8.2737 Y3.2423 I0.0113 J-0.1245
G1 X8.152 Y3.2308
G3 X8.1515 Y3.2307 I0.0118 J-0.1244
G1 X8.031 Y3.2188
X8.0307
X7.9113 Y3.2067
X7.9111 Y3.2066
X7.7928 Y3.1944
X7.7926
X7.6755 Y3.1822
X7.5593 Y3.17
X7.4444 Y3.1581
X7.3309 Y3.1465
X7.2263 Y3.136
X7.123 Y3.1261
X7.0198 Y3.1165
X6.9402 Y3.1094
X6.8595 Y3.1023
X6.7776 Y3.0953
X6.6944 Y3.0881
X6.6943
X6.61 Y3.0809
G3 X6.4963 Y2.9445 I0.0107 J-0.1245
G1 X6.508 Y2.8212
X6.3836 Y2.8094
X6.3719 Y2.9327
G3 X6.2346 Y3.0452 I-0.1244 J-0.0118
G1 X6.1419 Y3.0356
X6.1418
X6.0505 Y3.0261
X5.9606 Y3.0169
X5.8722 Y3.0079
X5.785 Y2.9992
X5.693 Y2.9904
X5.6005 Y2.9819
X5.5069 Y2.9735
X5.4121 Y2.9652
X5.3165 Y2.957
X5.2199 Y2.9487
X5.1029 Y2.9388
X5.1028
X4.9848 Y2.9287
X4.9846 Y2.9286
X4.8656 Y2.9183
X4.8653 Y2.9182
X4.7451 Y2.9075
G3 X4.7447 Y2.9074 I0.0112 J-0.1245
G1 X4.6236 Y2.8962
G3 X4.623 Y2.8961 I0.0116 J-0.1245
G1 X4.4932 Y2.8835
G3 X4.4926 Y2.8834 I0.0121 J-0.1244
G1 X4.3615 Y2.87
G3 X4.3607 Y2.8699 I0.0128 J-0.1243
G1 X4.2286 Y2.8554
G3 X4.2277 Y2.8553 I0.0136 J-0.1243
G1 X4.0947 Y2.8398
G3 X4.0936 Y2.8397 I0.0145 J-0.1242
G1 X3.9601 Y2.8229
G3 X3.9589 Y2.8228 I0.0155 J-0.124
G1 X3.825 Y2.8048
G3 X3.7181 Y2.662 I0.0167 J-0.1239
G1 X3.7368 Y2.5397
X3.6132 Y2.5208
X3.5946 Y2.6431
G3 X3.4499 Y2.7474 I-0.1236 J-0.0189
G1 X3.3308 Y2.727
G3 X3.3297 Y2.7268 I0.0211 J-0.1232
G1 X3.2106 Y2.7053
G3 X3.2094 Y2.705 I0.0223 J-0.123
G1 X3.0903 Y2.6823
G3 X3.0891 Y2.6821 I0.0234 J-0.1228
G1 X2.97 Y2.6581
G3 X2.9688 Y2.6579 I0.0246 J-0.1225
G1 X2.8497 Y2.6327
G3 X2.8484 Y2.6324 I0.0258 J-0.1223
G1 X2.7292 Y2.606
G3 X2.728 Y2.6057 I0.0271 J-0.122
G1 X2.6087 Y2.5779
G3 X2.6075 Y2.5776 I0.0284 J-0.1217
G1 X2.4906 Y2.5491
G3 X2.4894 Y2.5488 I0.0296 J-0.1214
G1 X2.3726 Y2.519
G3 X2.3713 Y2.5186 I0.0309 J-0.1211
G1 X2.2546 Y2.4875
G3 X2.2533 Y2.4871 I0.0322 J-0.1208
G1 X2.1368 Y2.4547
G3 X2.1354 Y2.4543 I0.0336 J-0.1204
G1 X2.0171 Y2.4199
G3 X2.0158 Y2.4195 I0.0349 J-0.12
G1 X1.8978 Y2.3838
G3 X1.8965 Y2.3834 I0.0362 J-0.1196
G1 X1.7791 Y2.3465
G3 X1.7778 Y2.3461 I0.0375 J-0.1192
G1 X1.661 Y2.308
G3 X1.6598 Y2.3076 I0.0388 J-0.1188
G1 X1.5435 Y2.2682
G3 X1.5429 Y2.268 I0.04 J-0.1184
X0.9958 Y1.7009 I0.2821 J-0.8196
G1 X0.9922 Y1.6891
G2 X0.961 Y1.6725 I-0.0239 J0.0073
G1 X0.9371 Y1.6798
X0.9333 Y1.6809 Z-0.3747
X0.9297 Y1.682 Z-0.3738
X0.9262 Y1.6831 Z-0.3723
X0.923 Y1.684 Z-0.3702
X0.9201 Y1.6849 Z-0.3677
X0.9177 Y1.6857 Z-0.3647
X0.9157 Y1.6862 Z-0.3613
X0.9143 Y1.6867 Z-0.3577
X0.9134 Y1.687 Z-0.3539
X0.9131 Z-0.35
G0 Z0.6

(2D CONTOUR12)
M8
G0 X8.9417 Y1.6612
Z0.6
Z0.2
G1 Z0.08 F4.
Z-0.35
X8.9418 Y1.6615 Z-0.3539
X8.9424 Y1.6623 Z-0.3577
X8.9432 Y1.6635 Z-0.3613
X8.9444 Y1.6652 Z-0.3647
X8.9458 Y1.6673 Z-0.3677
X8.9475 Y1.6697 Z-0.3702
X8.9494 Y1.6725 Z-0.3723
X8.9514 Y1.6755 Z-0.3738
X8.9536 Y1.6786 Z-0.3747
X8.9558 Y1.6819 Z-0.375
X8.9699 Y1.7025 F12.
G3 X8.9634 Y1.7372 I-0.0206 J0.0141
G2 X8.9018 Y2.0895 I0.1413 J0.2062
G3 X8.7593 Y2.8065 I-0.4059 J0.292
X8.0538 Y2.615 I-0.2634 J-0.425
G2 X7.6392 Y2.5734 I-0.2211 J0.1167
G3 X6.9174 Y2.6283 I-0.3871 J-0.3165
X6.8972 Y1.9047 I0.3347 J-0.3714
G2 X6.863 Y1.5238 I-0.1775 J-0.1761
G3 X6.8569 Y1.489 I0.0143 J-0.0205
G1 X6.8712 Y1.4685
X6.8734 Y1.4653 Z-0.3747
X6.8756 Y1.4621 Z-0.3738
X6.8777 Y1.4592 Z-0.3723
X6.8796 Y1.4564 Z-0.3702
X6.8813 Y1.454 Z-0.3677
X6.8828 Y1.4519 Z-0.3647
X6.884 Y1.4502 Z-0.3613
X6.8848 Y1.449 Z-0.3577
X6.8853 Y1.4482 Z-0.3539
X6.8855 Y1.448 Z-0.35
G0 Z0.6

(2D CONTOUR13)
M8
G0 X6.2711 Y1.3897
Z0.6
Z0.2
G1 Z0.08 F4.
Z-0.35
X6.2712 Y1.3899 Z-0.3539
X6.2716 Y1.3908 Z-0.3577
X6.2722 Y1.3921 Z-0.3613
X6.273 Y1.394 Z-0.3647
X6.2741 Y1.3963 Z-0.3677
X6.2753 Y1.3991 Z-0.3702
X6.2767 Y1.4021 Z-0.3723
X6.2781 Y1.4054 Z-0.3738
X6.2797 Y1.4089 Z-0.3747
X6.2813 Y1.4125 Z-0.375
X6.2915 Y1.4353 F12.
G3 X6.2789 Y1.4683 I-0.0228 J0.0102
G2 X6.1737 Y1.8361 I0.1022 J0.2282
G3 X6.0178 Y2.543 I-0.4148 J0.2792
X5.3192 Y2.3534 I-0.2589 J-0.4277
G2 X4.9042 Y2.3162 I-0.2198 J0.1191
G3 X4.1752 Y2.3717 I-0.3904 J-0.3124
X4.1701 Y1.6407 I0.3386 J-0.3679
G2 X4.1757 Y1.2831 I-0.1718 J-0.1816
G3 X4.1759 Y1.2477 I0.0178 J-0.0176
G1 X4.1936 Y1.2301
X4.1964 Y1.2274 Z-0.3747
X4.1991 Y1.2247 Z-0.3738
X4.2017 Y1.2221 Z-0.3723
X4.2041 Y1.2198 Z-0.3702
X4.2062 Y1.2177 Z-0.3677
X4.208 Y1.2159 Z-0.3647
X4.2095 Y1.2144 Z-0.3613
X4.2105 Y1.2134 Z-0.3577
X4.2112 Y1.2127 Z-0.3539
X4.2114 Y1.2125 Z-0.35
G0 Z0.6

(2D CONTOUR11)
M8
G0 X12.3191 Y2.2361
Z0.6
Z0.2
G1 Z0.08 F4.
Z-0.35
X12.3188 Y2.2362 Z-0.3539
X12.3179 Y2.2364 Z-0.3577
X12.3164 Y2.2367 Z-0.3613
X12.3144 Y2.2371 Z-0.3647
X12.312 Y2.2377 Z-0.3677
X12.309 Y2.2383 Z-0.3702
X12.3058 Y2.2391 Z-0.3723
X12.3022 Y2.2398 Z-0.3738
X12.2985 Y2.2407 Z-0.3747
X12.2947 Y2.2415 Z-0.375
X12.2703 Y2.247 F12.
G3 X12.2405 Y2.228 I-0.0054 J-0.0244
G1 X12.1723 Y1.9224
X12.4295 Y1.8569
G2 X12.5092 Y1.794 I-0.0309 J-0.1211
G1 X12.6683 Y1.4921
G2 X12.5245 Y1.3133 I-0.1106 J-0.0583
G1 X12.4032 Y1.3468
X12.2821 Y1.3786
X12.1606 Y1.4091
X12.0387 Y1.4383
X11.9162 Y1.4661
X11.7933 Y1.4925
X11.6695 Y1.5176
G2 X11.5592 Y1.9557 I0.0487 J0.2452
G3 X11.5899 Y2.6999 I-0.318 J0.3858
X10.8469 Y2.649 I-0.3487 J-0.3583
G2 X10.4314 Y2.6808 I-0.1972 J0.1537
G3 X9.7112 Y2.8488 I-0.4366 J-0.2437
X9.6117 Y2.1159 I0.2837 J-0.4117
G2 X9.5762 Y1.76 I-0.1916 J-0.1606
G3 X9.5723 Y1.7249 I0.0156 J-0.0195
G1 X9.5879 Y1.7054
X9.5904 Y1.7023 Z-0.3747
X9.5928 Y1.6993 Z-0.3738
X9.595 Y1.6965 Z-0.3723
X9.5971 Y1.6939 Z-0.3702
X9.599 Y1.6916 Z-0.3677
X9.6006 Y1.6896 Z-0.3647
X9.6018 Y1.688 Z-0.3613
X9.6028 Y1.6868 Z-0.3577
X9.6034 Y1.6861 Z-0.3539
X9.6035 Y1.6858 Z-0.35
G0 Z0.6

(2D CONTOUR14)
M8
G0 X3.5571 Y1.1121
Z0.6
Z0.2
G1 Z0.08 F4.
Z-0.35
X3.5572 Y1.1124 Z-0.3539
X3.5577 Y1.1132 Z-0.3577
X3.5584 Y1.1145 Z-0.3613
X3.5593 Y1.1163 Z-0.3647
X3.5605 Y1.1186 Z-0.3677
X3.5619 Y1.1212 Z-0.3702
X3.5635 Y1.1242 Z-0.3723
X3.5651 Y1.1274 Z-0.3738
X3.5669 Y1.1308 Z-0.3747
X3.5687 Y1.1342 Z-0.375
X3.5804 Y1.1563 F12.
G3 X3.57 Y1.1901 I-0.0221 J0.0117
G1 X3.5696 Y1.1903
G2 X3.4679 Y1.5331 I0.1166 J0.2211
G3 X3.2324 Y2.2343 I-0.4367 J0.2434
X2.5565 Y1.9339 I-0.2013 J-0.4577
G2 X2.1545 Y1.8245 I-0.2373 J0.0787
G3 X1.4151 Y1.7347 I-0.3295 J-0.3761
X1.5852 Y1.0096 I0.4099 J-0.2864
G2 X1.5592 Y0.5586 I-0.1199 J-0.2194
G1 X1.4426 Y0.5107
X1.3269 Y0.4617
X1.2119 Y0.4113
X1.0975 Y0.3598
X0.9839 Y0.307
X0.8709 Y0.2529
X0.758 Y0.1972
G2 X0.5831 Y0.3457 I-0.0553 J0.1121
G1 X0.6825 Y0.6722
G2 X0.749 Y0.749 I0.1196 J-0.0364
G1 X0.9893 Y0.8617
X0.8649 Y1.149
G3 X0.832 Y1.162 I-0.0229 J-0.0099
G1 X0.8091 Y1.1521
X0.8055 Y1.1505 Z-0.3747
X0.802 Y1.149 Z-0.3738
X0.7987 Y1.1476 Z-0.3723
X0.7956 Y1.1463 Z-0.3702
X0.7929 Y1.1451 Z-0.3677
X0.7905 Y1.1441 Z-0.3647
X0.7886 Y1.1432 Z-0.3613
X0.7873 Y1.1426 Z-0.3577
X0.7864 Y1.1423 Z-0.3539
X0.7861 Y1.1422 Z-0.35
G0 Z0.6

M9
G28 G91 Z0.
G28 X0. Y0.
M30
