; G-Code generated by Simplify3D(R) Version 3.1.1
; Dec 28, 2016 at 2:43:42 PM
; Settings Summary
;   processName,Process1
;   applyToModels,Wheel Spacer Plastic top
;   profileName,MakerGear M2 (24V V4 hotend) (modified)
;   profileVersion,2015-09-04 08:00:00
;   baseProfile,
;   printMaterial,ABS
;   printQuality,Fast
;   printExtruders,
;   extruderName,Primary Extruder
;   extruderToolheadNumber,0
;   extruderDiameter,0.35
;   extruderAutoWidth,0
;   extruderWidth,0.42
;   extrusionMultiplier,1.1
;   extruderUseRetract,1
;   extruderRetractionDistance,1
;   extruderExtraRestartDistance,0
;   extruderRetractionZLift,0
;   extruderRetractionSpeed,2400
;   extruderUseCoasting,0
;   extruderCoastingDistance,0.2
;   extruderUseWipe,0
;   extruderWipeDistance,5
;   primaryExtruder,0
;   layerHeight,0.3
;   topSolidLayers,3
;   bottomSolidLayers,3
;   perimeterOutlines,2
;   printPerimetersInsideOut,1
;   startPointOption,1
;   startPointOriginX,0
;   startPointOriginY,0
;   startPointOriginZ,300
;   sequentialIslands,0
;   spiralVaseMode,0
;   firstLayerHeightPercentage,30
;   firstLayerWidthPercentage,125
;   firstLayerUnderspeed,0.5
;   useRaft,0
;   raftExtruder,0
;   raftLayers,1
;   raftOffset,1
;   raftSeparationDistance,0.2
;   raftInfill,100
;   disableRaftBaseLayers,0
;   useSkirt,0
;   skirtExtruder,0
;   skirtLayers,2
;   skirtOutlines,2
;   skirtOffset,4
;   usePrimePillar,0
;   primePillarExtruder,999
;   primePillarWidth,12
;   primePillarLocation,7
;   primePillarSpeedMultiplier,1
;   useOozeShield,0
;   oozeShieldExtruder,999
;   oozeShieldOffset,2
;   oozeShieldOutlines,1
;   oozeShieldSidewallShape,1
;   oozeShieldSidewallAngle,30
;   oozeShieldSpeedMultiplier,1
;   infillExtruder,0
;   internalInfillPattern,Fast Honeycomb
;   externalInfillPattern,Rectilinear
;   infillPercentage,6
;   outlineOverlapPercentage,15
;   infillExtrusionWidthPercentage,100
;   minInfillLength,5
;   infillLayerInterval,1
;   infillAngles,0
;   overlapInfillAngles,0
;   generateSupport,1
;   supportExtruder,0
;   supportInfillPercentage,50
;   supportExtraInflation,0
;   denseSupportLayers,0
;   denseSupportInfillPercentage,100
;   supportLayerInterval,1
;   supportHorizontalPartOffset,0.3
;   supportUpperSeparationLayers,1
;   supportLowerSeparationLayers,1
;   supportType,0
;   supportGridSpacing,2
;   maxOverhangAngle,45
;   supportAngles,0
;   temperatureName,Primary Extruder,Heated Bed
;   temperatureNumber,0,2
;   temperatureSetpointCount,1,1
;   temperatureSetpointLayers,1,1
;   temperatureSetpointTemperatures,245,110
;   temperatureStabilizeAtStartup,1,0
;   temperatureHeatedBed,0,1
;   temperatureRelayBetweenLayers,0,0
;   temperatureRelayBetweenLoops,0,0
;   fanLayers,1
;   fanSpeeds,0
;   blipFanToFullPower,1
;   adjustSpeedForCooling,1
;   minSpeedLayerTime,15
;   minCoolingSpeedSlowdown,20
;   increaseFanForCooling,0
;   minFanLayerTime,45
;   maxCoolingFanSpeed,100
;   increaseFanForBridging,0
;   bridgingFanSpeed,100
;   use5D,1
;   relativeEdistances,0
;   allowEaxisZeroing,1
;   independentExtruderAxes,0
;   includeM10123,0
;   stickySupport,1
;   applyToolheadOffsets,0
;   gcodeXoffset,0
;   gcodeYoffset,0
;   gcodeZoffset,0
;   overrideMachineDefinition,1
;   machineTypeOverride,0
;   strokeXoverride,200
;   strokeYoverride,250
;   strokeZoverride,200
;   originOffsetXoverride,0
;   originOffsetYoverride,0
;   originOffsetZoverride,0
;   homeXdirOverride,-1
;   homeYdirOverride,-1
;   homeZdirOverride,-1
;   flipXoverride,1
;   flipYoverride,-1
;   flipZoverride,1
;   toolheadOffsets,0,0|0,0|0,0|0,0|0,0|0,0
;   overrideFirmwareConfiguration,1
;   firmwareTypeOverride,RepRap (Marlin/Repetier/Sprinter)
;   GPXconfigOverride,r2
;   baudRateOverride,115200
;   overridePrinterModels,1
;   printerModelsOverride,MakerGear_M2Single.stl
;   startingGcode,M108 S255 ; turn on M2 fans,G28 ; home all axes,G1 Y50 Z0.3 F9600 ; move forward to avoid binder clips,G1 X205 Z10 ; move off platform,G1 Z0.4 ; position nozzle,G92 E0 ; zero extruder,G1 E25 F225 ; purge nozzle,G92 E0 ; zero extruder,G1 X190 Z0.1 E1.0 F1200 ; slow wipe,G1 X180 Z0.25 ; lift
;   layerChangeGcode,
;   retractionGcode,
;   toolChangeGcode,
;   endingGcode,M104 S0 ; turn off extruder,M140 S0 ; turn off bed,G91 ; relative mode,G1 Z10 ; lift 10mm,G90 ; absolute mode,G28 X0 ; home X axis,M84 ; disable motors
;   exportFileFormat,gcode
;   celebration,0
;   celebrationSong,Random Song
;   postProcessing,
;   defaultSpeed,2400
;   outlineUnderspeed,0.6
;   solidInfillUnderspeed,0.8
;   supportUnderspeed,0.8
;   rapidXYspeed,18000
;   rapidZspeed,1200
;   minBridgingArea,50
;   bridgingExtraInflation,0
;   bridgingExtrusionMultiplier,1
;   bridgingSpeedMultiplier,1
;   filamentDiameter,1.73
;   filamentPricePerKg,46
;   filamentDensity,1.25
;   useMinPrintHeight,0
;   minPrintHeight,0
;   useMaxPrintHeight,0
;   maxPrintHeight,0
;   useDiaphragm,0
;   diaphragmLayerInterval,20
;   robustSlicing,1
;   mergeAllIntoSolid,0
;   onlyRetractWhenCrossingOutline,1
;   retractBetweenLayers,1
;   useRetractionMinTravel,0
;   retractionMinTravel,3
;   retractWhileWiping,0
;   onlyWipeOutlines,1
;   avoidCrossingOutline,0
;   maxMovementDetourFactor,3
;   toolChangeRetractionDistance,12
;   toolChangeExtraRestartDistance,-0.5
;   toolChangeRetractionSpeed,600
;   allowThinWallGapFill,1
;   thinWallAllowedOverlapPercentage,10
;   horizontalSizeCompensation,0
G90
M82
M106 S0
M140 S110
M104 S245 T0
M109 S245 T0
M108 S255 ; turn on M2 fans
G28 ; home all axes
G1 Y50 Z0.3 F9600 ; move forward to avoid binder clips
G1 X205 Z10 ; move off platform
G1 Z0.4 ; position nozzle
G92 E0 ; zero extruder
G1 E25 F225 ; purge nozzle
G92 E0 ; zero extruder
G1 X190 Z0.1 E1.0 F1200 ; slow wipe
G1 X180 Z0.25 ; lift
G92 E0
G1 E-1.0000 F2400
G1 Z0.090 F1200
; layer 1, Z = 0.09
T0
; tool H0.300 W0.525
; inner perimeter
G1 X77.555 Y117.707 F18000
G1 E0.0000 F720
G92 E0
G1 X78.441 Y115.401 E0.1821 F960
G1 X79.562 Y113.200 E0.3641
G1 X80.907 Y111.128 E0.5462
G1 X82.462 Y109.209 E0.7283
G1 X84.209 Y107.462 E0.9103
G1 X86.128 Y105.907 E1.0924
G1 X88.200 Y104.562 E1.2745
G1 X90.401 Y103.441 E1.4565
G1 X92.707 Y102.555 E1.6386
G1 X95.093 Y101.916 E1.8207
G1 X97.533 Y101.529 E2.0027
G1 X100.000 Y101.400 E2.1848
G1 X102.467 Y101.529 E2.3669
G1 X104.907 Y101.916 E2.5489
G1 X107.293 Y102.555 E2.7310
G1 X109.599 Y103.441 E2.9131
G1 X111.800 Y104.562 E3.0951
G1 X113.872 Y105.907 E3.2772
G1 X115.787 Y107.459 E3.4589
G1 X117.538 Y109.209 E3.6413
G1 X119.093 Y111.128 E3.8234
G1 X120.438 Y113.200 E4.0055
G1 X121.559 Y115.401 E4.1875
G1 X122.445 Y117.707 E4.3696
G1 X123.084 Y120.093 E4.5517
G1 X123.471 Y122.533 E4.7337
G1 X123.600 Y125.000 E4.9158
G1 X123.471 Y127.467 E5.0978
G1 X123.084 Y129.907 E5.2799
G1 X122.445 Y132.293 E5.4620
G1 X121.559 Y134.599 E5.6441
G1 X120.438 Y136.800 E5.8261
G1 X119.093 Y138.872 E6.0082
G1 X117.538 Y140.791 E6.1902
G1 X115.791 Y142.538 E6.3723
G1 X113.872 Y144.093 E6.5544
G1 X111.800 Y145.438 E6.7364
G1 X109.599 Y146.559 E6.9185
G1 X107.293 Y147.445 E7.1006
G1 X104.907 Y148.084 E7.2826
G1 X102.467 Y148.470 E7.4647
G1 X100.000 Y148.600 E7.6468
G1 X97.533 Y148.470 E7.8288
G1 X95.093 Y148.084 E8.0109
G1 X92.707 Y147.445 E8.1930
G1 X90.401 Y146.559 E8.3750
G1 X88.200 Y145.438 E8.5571
G1 X86.128 Y144.093 E8.7392
G1 X84.212 Y142.541 E8.9209
G1 X82.462 Y140.791 E9.1033
G1 X80.907 Y138.872 E9.2854
G1 X79.562 Y136.800 E9.4674
G1 X78.441 Y134.599 E9.6495
G1 X77.555 Y132.293 E9.8316
G1 X76.916 Y129.907 E10.0136
G1 X76.529 Y127.467 E10.1957
G1 X76.400 Y125.000 E10.3778
G1 X76.529 Y122.533 E10.5598
G1 X76.916 Y120.093 E10.7419
G1 X77.555 Y117.707 E10.9240
G92 E0
G1 E-1.0000 F2400
G1 X85.683 Y124.968 F18000
G1 E0.0000 F2400
G92 E0
G1 X86.564 Y124.739 E0.0671 F960
G1 X87.324 Y124.395 E0.1286
G1 X88.284 Y123.747 E0.2140
G1 X88.219 Y125.454 E0.3399
G1 X88.322 Y126.342 E0.4058
G1 X87.680 Y125.823 E0.4666
G1 X86.951 Y125.417 E0.5281
G1 X85.683 Y124.968 E0.6273
G92 E0
G1 E-1.0000 F2400
G1 X89.752 Y119.238 F18000
G1 E0.0000 F2400
G92 E0
G1 X89.628 Y118.662 E0.0434 F960
G1 X89.317 Y117.888 E0.1049
G1 X88.880 Y117.178 E0.1664
G1 X88.415 Y116.650 E0.2182
G1 X89.853 Y117.024 E0.3277
G1 X90.684 Y117.095 E0.3892
G1 X91.283 Y117.044 E0.4335
G1 X90.103 Y118.593 E0.5771
G1 X89.752 Y119.238 E0.6312
G1 X95.166 Y114.276 F18000
G92 E0
G1 X95.491 Y113.213 E0.0819 F960
G1 X95.597 Y112.386 E0.1434
G1 X95.554 Y111.380 E0.2176
G1 X96.308 Y112.399 E0.3111
G1 X96.911 Y112.976 E0.3725
G1 X97.587 Y113.434 E0.4327
G1 X95.591 Y114.066 E0.5871
G1 X95.166 Y114.276 E0.6220
G1 X102.412 Y113.434 F18000
G92 E0
G1 X103.090 Y112.976 E0.0602 F960
G1 X103.692 Y112.399 E0.1217
G1 X104.446 Y111.380 E0.2152
G1 X104.403 Y112.386 E0.2894
G1 X104.509 Y113.213 E0.3509
G1 X104.835 Y114.277 E0.4329
G1 X104.406 Y114.064 E0.4682
G1 X102.412 Y113.434 E0.6222
G1 X108.716 Y117.044 F18000
G92 E0
G1 X109.316 Y117.095 E0.0444 F960
G1 X110.148 Y117.024 E0.1059
G1 X111.585 Y116.650 E0.2154
G1 X111.120 Y117.178 E0.2672
G1 X110.683 Y117.888 E0.3287
G1 X110.372 Y118.662 E0.3902
G1 X110.248 Y119.238 E0.4336
G1 X109.895 Y118.590 E0.4880
G1 X108.716 Y117.044 E0.6313
G1 X111.716 Y123.746 F18000
G92 E0
G1 X112.676 Y124.395 E0.0854 F960
G1 X113.436 Y124.739 E0.1469
G1 X114.317 Y124.968 E0.2140
G1 X113.049 Y125.417 E0.3132
G1 X112.320 Y125.823 E0.3746
G1 X111.678 Y126.342 E0.4355
G1 X111.781 Y125.451 E0.5016
G1 X111.716 Y123.746 E0.6273
G1 X110.233 Y130.824 F18000
G92 E0
G1 X110.511 Y131.731 E0.0699 F960
G1 X110.887 Y132.476 E0.1314
G1 X111.592 Y133.430 E0.2188
G1 X110.556 Y133.064 E0.2998
G1 X109.733 Y132.923 E0.3613
G1 X108.685 Y132.923 E0.4386
G1 X109.377 Y132.147 E0.5152
G1 X110.233 Y130.824 E0.6313
G1 X104.887 Y135.705 F18000
G92 E0
G1 X104.614 Y136.383 E0.0539 F960
G1 X104.438 Y137.198 E0.1154
G1 X104.378 Y138.615 E0.2199
G1 X103.954 Y137.926 E0.2795
G1 X103.403 Y137.299 E0.3410
G1 X102.421 Y136.506 E0.4340
G1 X103.557 Y136.240 E0.5201
G1 X104.887 Y135.705 E0.6257
G1 X97.580 Y136.506 F18000
G92 E0
G1 X96.597 Y137.299 E0.0931 F960
G1 X96.046 Y137.926 E0.1546
G1 X95.622 Y138.615 E0.2142
G1 X95.562 Y137.198 E0.3187
G1 X95.386 Y136.383 E0.3802
G1 X95.113 Y135.704 E0.4341
G1 X96.450 Y136.242 E0.5402
G1 X97.580 Y136.506 E0.6258
G1 X91.315 Y132.923 F18000
G92 E0
G1 X90.267 Y132.923 E0.0773 F960
G1 X89.444 Y133.064 E0.1388
G1 X88.408 Y133.430 E0.2197
G1 X89.113 Y132.476 E0.3072
G1 X89.489 Y131.732 E0.3686
G1 X89.767 Y130.824 E0.4386
G1 X90.626 Y132.150 E0.5550
G1 X91.315 Y132.923 E0.6313
G92 E0
G1 E-1.0000 F2400
; outer perimeter
G1 X77.055 Y117.545 F18000
G1 E0.0000 F2400
G92 E0
G1 X77.960 Y115.187 E0.1861 F720
G1 X79.107 Y112.937 E0.3722
G1 X80.482 Y110.819 E0.5584
G1 X82.071 Y108.857 E0.7445
G1 X83.857 Y107.071 E0.9306
G1 X85.819 Y105.482 E1.1167
G1 X87.937 Y104.107 E1.3028
G1 X90.187 Y102.960 E1.4890
G1 X92.545 Y102.055 E1.6751
G1 X94.984 Y101.402 E1.8612
G1 X97.478 Y101.007 E2.0473
G1 X100.000 Y100.874 E2.2335
G1 X102.522 Y101.007 E2.4196
G1 X105.016 Y101.402 E2.6057
G1 X107.455 Y102.055 E2.7918
G1 X109.813 Y102.960 E2.9779
G1 X112.063 Y104.107 E3.1641
G1 X114.181 Y105.482 E3.3502
G1 X116.139 Y107.068 E3.5359
G1 X117.929 Y108.857 E3.7224
G1 X119.518 Y110.819 E3.9086
G1 X120.893 Y112.937 E4.0947
G1 X122.040 Y115.187 E4.2808
G1 X122.945 Y117.545 E4.4669
G1 X123.598 Y119.984 E4.6530
G1 X123.993 Y122.478 E4.8392
G1 X124.125 Y125.000 E5.0253
G1 X123.993 Y127.522 E5.2114
G1 X123.598 Y130.016 E5.3975
G1 X122.945 Y132.455 E5.5837
G1 X122.040 Y134.813 E5.7698
G1 X120.893 Y137.063 E5.9559
G1 X119.518 Y139.181 E6.1420
G1 X117.929 Y141.143 E6.3281
G1 X116.143 Y142.929 E6.5143
G1 X114.181 Y144.518 E6.7004
G1 X112.063 Y145.893 E6.8865
G1 X109.813 Y147.040 E7.0726
G1 X107.455 Y147.945 E7.2587
G1 X105.016 Y148.598 E7.4449
G1 X102.522 Y148.993 E7.6310
G1 X100.000 Y149.125 E7.8171
G1 X97.478 Y148.993 E8.0032
G1 X94.984 Y148.598 E8.1894
G1 X92.545 Y147.945 E8.3755
G1 X90.187 Y147.040 E8.5616
G1 X87.937 Y145.893 E8.7477
G1 X85.819 Y144.518 E8.9338
G1 X83.861 Y142.932 E9.1196
G1 X82.071 Y141.143 E9.3061
G1 X80.482 Y139.181 E9.4922
G1 X79.107 Y137.063 E9.6783
G1 X77.960 Y134.813 E9.8644
G1 X77.055 Y132.455 E10.0506
G1 X76.402 Y130.016 E10.2367
G1 X76.007 Y127.522 E10.4228
G1 X75.875 Y125.000 E10.6089
G1 X76.007 Y122.478 E10.7951
G1 X76.402 Y119.984 E10.9812
G1 X77.055 Y117.545 E11.1673
; inner perimeter
; outer perimeter
G1 X80.727 Y118.816 F18000
G92 E0
G1 X80.570 Y119.544 E0.0549 F720
G1 X80.539 Y120.288 E0.1098
G1 X80.633 Y121.027 E0.1647
G1 X80.851 Y121.739 E0.2196
G1 X81.187 Y122.404 E0.2745
G1 X81.630 Y123.003 E0.3294
G1 X82.167 Y123.518 E0.3842
G1 X82.784 Y123.935 E0.4391
G1 X83.463 Y124.242 E0.4940
G1 X84.184 Y124.430 E0.5489
G1 X84.926 Y124.493 E0.6038
G1 X85.668 Y124.430 E0.6587
G1 X86.389 Y124.242 E0.7136
G1 X87.067 Y123.935 E0.7685
G1 X87.684 Y123.518 E0.8234
G1 X88.222 Y123.003 E0.8783
G1 X88.665 Y122.404 E0.9332
G1 X89.000 Y121.739 E0.9880
G1 X89.218 Y121.027 E1.0429
G1 X89.313 Y120.288 E1.0978
G1 X89.281 Y119.544 E1.1527
G1 X89.124 Y118.816 E1.2076
G1 X88.847 Y118.125 E1.2625
G1 X88.456 Y117.491 E1.3174
G1 X87.964 Y116.932 E1.3723
G1 X87.385 Y116.464 E1.4272
G1 X86.734 Y116.101 E1.4821
G1 X86.032 Y115.853 E1.5370
G1 X85.298 Y115.727 E1.5919
G1 X84.553 Y115.727 E1.6467
G1 X83.819 Y115.853 E1.7016
G1 X83.117 Y116.101 E1.7565
G1 X82.467 Y116.464 E1.8114
G1 X81.887 Y116.932 E1.8663
G1 X81.395 Y117.491 E1.9212
G1 X81.005 Y118.125 E1.9761
G1 X80.727 Y118.816 E2.0310
G92 E0
G1 E-1.0000 F2400
; inner perimeter
; outer perimeter
G1 X82.467 Y126.260 F18000
G1 E0.0000 F2400
G92 E0
G1 X81.887 Y126.728 E0.0549 F720
G1 X81.395 Y127.287 E0.1098
G1 X81.005 Y127.921 E0.1647
G1 X80.727 Y128.612 E0.2196
G1 X80.570 Y129.340 E0.2745
G1 X80.539 Y130.084 E0.3293
G1 X80.633 Y130.823 E0.3842
G1 X80.851 Y131.535 E0.4391
G1 X81.187 Y132.200 E0.4940
G1 X81.630 Y132.799 E0.5489
G1 X82.167 Y133.314 E0.6038
G1 X82.784 Y133.731 E0.6587
G1 X83.463 Y134.038 E0.7136
G1 X84.184 Y134.226 E0.7685
G1 X84.926 Y134.289 E0.8234
G1 X85.668 Y134.226 E0.8783
G1 X86.389 Y134.038 E0.9332
G1 X87.067 Y133.731 E0.9880
G1 X87.684 Y133.314 E1.0429
G1 X88.222 Y132.799 E1.0978
G1 X88.665 Y132.200 E1.1527
G1 X89.000 Y131.535 E1.2076
G1 X89.218 Y130.823 E1.2625
G1 X89.313 Y130.084 E1.3174
G1 X89.281 Y129.340 E1.3723
G1 X89.124 Y128.612 E1.4272
G1 X88.847 Y127.921 E1.4821
G1 X88.456 Y127.287 E1.5370
G1 X87.964 Y126.728 E1.5919
G1 X87.385 Y126.260 E1.6467
G1 X86.734 Y125.897 E1.7016
G1 X86.032 Y125.649 E1.7565
G1 X85.298 Y125.523 E1.8114
G1 X84.553 Y125.523 E1.8663
G1 X83.819 Y125.649 E1.9212
G1 X83.117 Y125.897 E1.9761
G1 X82.467 Y126.260 E2.0310
G92 E0
G1 E-1.0000 F2400
; inner perimeter
G1 X80.223 Y118.662 F18000
G1 E0.0000 F2400
G92 E0
G1 X80.048 Y119.477 E0.0615 F960
G1 X80.012 Y120.311 E0.1230
G1 X80.118 Y121.138 E0.1844
G1 X80.363 Y121.936 E0.2459
G1 X80.738 Y122.681 E0.3074
G1 X81.234 Y123.351 E0.3689
G1 X81.836 Y123.928 E0.4303
G1 X82.527 Y124.395 E0.4918
G1 X83.287 Y124.739 E0.5533
G1 X84.169 Y124.968 E0.6204
G1 X82.900 Y125.417 E0.7196
G1 X82.172 Y125.823 E0.7811
G1 X81.523 Y126.347 E0.8425
G1 X80.972 Y126.974 E0.9040
G1 X80.535 Y127.684 E0.9655
G1 X80.223 Y128.458 E1.0270
G1 X80.048 Y129.273 E1.0884
G1 X80.012 Y130.107 E1.1499
G1 X80.118 Y130.934 E1.2114
G1 X80.363 Y131.731 E1.2729
G1 X80.738 Y132.476 E1.3344
G1 X81.234 Y133.147 E1.3958
G1 X81.836 Y133.724 E1.4573
G1 X82.527 Y134.191 E1.5188
G1 X83.287 Y134.535 E1.5803
G1 X84.095 Y134.745 E1.6418
G1 X84.926 Y134.816 E1.7032
G1 X85.757 Y134.745 E1.7647
G1 X87.194 Y134.371 E1.8742
G1 X86.730 Y134.899 E1.9260
G1 X86.292 Y135.609 E1.9874
G1 X85.981 Y136.383 E2.0489
G1 X85.806 Y137.198 E2.1104
G1 X85.770 Y138.032 E2.1719
G1 X85.876 Y138.859 E2.2334
G1 X86.120 Y139.657 E2.2948
G1 X86.496 Y140.401 E2.3563
G1 X86.992 Y141.072 E2.4178
G1 X87.594 Y141.649 E2.4793
G1 X88.285 Y142.116 E2.5408
G1 X89.045 Y142.460 E2.6022
G1 X89.853 Y142.670 E2.6637
G1 X90.684 Y142.741 E2.7252
G1 X91.515 Y142.670 E2.7867
G1 X92.322 Y142.460 E2.8481
G1 X93.082 Y142.116 E2.9096
G1 X93.773 Y141.649 E2.9711
G1 X94.375 Y141.072 E3.0326
G1 X95.129 Y140.053 E3.1260
